dist/luts/bleach_bypass.cube
# Video Color Grader Preset
TITLE "Bleach Bypass"
LUT_3D_SIZE 9
DOMAIN_MIN 0.0 0.0 0.0
DOMAIN_MAX 1.0 1.0 1.0
0.000000 0.000000 0.000000
0.003505 0.000847 0.000890
0.014020 0.003390 0.003559
0.031545 0.007627 0.008009
0.056080 0.013560 0.014238
0.087624 0.021187 0.022246
0.126179 0.030509 0.032035
0.171744 0.041526 0.043603
0.256001 0.054239 0.056950
0.009591 0.018531 0.010070
0.027738 0.027738 0.016947
0.052895 0.038640 0.025604
0.085061 0.051236 0.036040
0.124238 0.065528 0.048256
0.170425 0.081515 0.062252
0.223622 0.099197 0.078027
0.297532 0.118573 0.095582
0.415355 0.139645 0.114917
0.038363 0.074123 0.040281
0.071152 0.091690 0.053145
0.110951 0.110951 0.067789
0.157760 0.131907 0.084212
0.211578 0.154558 0.102415
0.272407 0.178905 0.122398
0.342154 0.204946 0.144160
0.452346 0.232682 0.167703
0.555527 0.262113 0.193024
0.086317 0.166777 0.090633
0.133748 0.192703 0.109484
0.188189 0.220324 0.130115
0.249640 0.249640 0.152525
0.318100 0.280650 0.176715
0.393571 0.313356 0.202685
0.492429 0.347756 0.230434
0.587978 0.383852 0.259964
0.676518 0.421642 0.291272
0.153453 0.296493 0.161126
0.215526 0.330779 0.185964
0.284609 0.366759 0.212582
0.360701 0.404434 0.240979
0.443804 0.443804 0.271156
0.535604 0.484869 0.303113
0.623521 0.526931 0.336849
0.704429 0.567516 0.372365
0.778326 0.606406 0.409661
0.239771 0.467129 0.251759
0.316485 0.509525 0.282584
0.400210 0.550225 0.315189
0.490945 0.589230 0.349573
0.581871 0.626541 0.385738
0.662156 0.662156 0.423681
0.735432 0.696077 0.463405
0.801698 0.728303 0.504908
0.860953 0.758833 0.548191
0.345270 0.649370 0.362533
0.436627 0.683406 0.399345
0.534993 0.715747 0.437937
0.631230 0.746393 0.478309
0.703884 0.775344 0.520460
0.769528 0.802600 0.564391
0.828161 0.828161 0.610101
0.879785 0.852028 0.657591
0.924399 0.874199 0.706861
0.469951 0.794549 0.493448
0.575949 0.820226 0.536247
0.683682 0.844207 0.580826
0.748704 0.866494 0.627185
0.806716 0.887086 0.675323
0.857717 0.905982 0.725241
0.901709 0.923184 0.776938
0.938691 0.938691 0.830415
0.968663 0.952503 0.881352
0.613813 0.902667 0.644504
0.734454 0.919984 0.693290
0.796616 0.935606 0.743856
0.846996 0.949533 0.796201
0.890365 0.961765 0.850326
0.926725 0.972303 0.893301
0.956075 0.981145 0.924908
0.978415 0.988292 0.954736
0.993745 0.993745 0.982784
0.000098 0.000098 0.001050
0.005081 0.001521 0.005335
0.017074 0.004639 0.011399
0.036077 0.009452 0.019243
0.062090 0.015960 0.028867
0.095113 0.024163 0.040270
0.135146 0.034061 0.053453
0.182188 0.045653 0.068416
0.272959 0.058941 0.085159
0.011625 0.021467 0.022541
0.031250 0.031250 0.032813
0.057885 0.042727 0.044864
0.091530 0.055900 0.058695
0.132185 0.070767 0.074306
0.179850 0.087330 0.091696
0.234524 0.105587 0.110866
0.314031 0.125539 0.131816
0.430376 0.147186 0.154546
0.042334 0.079899 0.064172
0.076601 0.098041 0.080431
0.117878 0.117878 0.098469
0.166165 0.139410 0.118287
0.221461 0.162636 0.139885
0.283768 0.187558 0.163263
0.358195 0.214175 0.188420
0.466908 0.242487 0.215357
0.568612 0.272493 0.244073
0.092224 0.175392 0.125944
0.141133 0.201893 0.148190
0.197052 0.230090 0.172215
0.259981 0.259981 0.198021
0.329920 0.291567 0.225605
0.406868 0.324848 0.254970
0.506533 0.359825 0.286114
0.600604 0.396496 0.319038
0.687666 0.434862 0.353742
0.161297 0.307947 0.207857
0.224847 0.342807 0.236090
0.295408 0.379363 0.266102
0.372979 0.417614 0.297894
0.457560 0.457560 0.331466
0.549250 0.499200 0.366818
0.635689 0.540904 0.403949
0.715119 0.580914 0.442860
0.787538 0.619228 0.483551
0.249551 0.481717 0.309911
0.327743 0.523537 0.344130
0.412946 0.563661 0.380130
0.505159 0.602091 0.417909
0.595059 0.638826 0.457468
0.673866 0.673866 0.498807
0.745664 0.707211 0.541925
0.810451 0.738861 0.586823
0.868229 0.768816 0.633500
0.356986 0.661119 0.432105
0.449821 0.694579 0.472312
0.549665 0.726345 0.514298
0.643960 0.756415 0.558065
0.715135 0.784790 0.603610
0.779301 0.811471 0.650936
0.836456 0.836456 0.700041
0.886602 0.859747 0.750926
0.929738 0.881343 0.798373
0.483603 0.803459 0.574440
0.591080 0.828560 0.620634
0.695953 0.851966 0.668607
0.759497 0.873677 0.718361
0.816030 0.893693 0.769894
0.865554 0.912014 0.811266
0.908068 0.928640 0.845465
0.943571 0.943571 0.877885
0.972065 0.956808 0.908526
0.629402 0.908738 0.736916
0.751039 0.925479 0.788591
0.806951 0.940526 0.823923
0.855852 0.953877 0.857474
0.897744 0.965534 0.889246
0.932626 0.975496 0.919239
0.960497 0.983762 0.947451
0.981359 0.990334 0.973884
0.995211 0.995211 0.998538
0.000391 0.000391 0.004201
0.006852 0.002390 0.011880
0.020323 0.006083 0.021339
0.040804 0.011472 0.032578
0.068296 0.018556 0.045597
0.102797 0.027334 0.060395
0.144308 0.037808 0.076973
0.192828 0.049976 0.095330
0.289721 0.063839 0.115468
0.013855 0.024600 0.037112
0.034958 0.034958 0.050778
0.063071 0.047011 0.066224
0.098194 0.060759 0.083450
0.140327 0.076202 0.102456
0.189470 0.093340 0.123241
0.245623 0.112173 0.145806
0.330334 0.132701 0.170150
0.445202 0.154923 0.196275
0.046500 0.085870 0.090163
0.082245 0.104587 0.109817
0.125000 0.125000 0.131250
0.174765 0.147107 0.154463
0.231540 0.170910 0.179455
0.295325 0.196407 0.206228
0.374040 0.223600 0.234780
0.481276 0.252487 0.265111
0.581501 0.283069 0.297223
0.098327 0.184202 0.163356
0.148714 0.211279 0.188996
0.206111 0.240051 0.216416
0.270518 0.270518 0.245616
0.341935 0.302680 0.276596
0.420839 0.336536 0.309355
0.520442 0.372088 0.343894
0.613035 0.409335 0.380213
0.698618 0.448277 0.418311
0.169336 0.319596 0.256689
0.234364 0.355032 0.288316
0.306403 0.392163 0.321723
0.385452 0.430990 0.356910
0.471511 0.471511 0.393877
0.562700 0.513553 0.432623
0.647662 0.554682 0.473149
0.725613 0.594115 0.515455
0.796554 0.631854 0.559540
0.259526 0.496109 0.370163
0.339197 0.537353 0.407777
0.425877 0.576903 0.447171
0.519568 0.614757 0.488345
0.608051 0.650916 0.531299
0.685380 0.685380 0.576032
0.755700 0.718150 0.622545
0.819009 0.749224 0.670838
0.875309 0.778604 0.715994
0.368898 0.672672 0.503777
0.463211 0.705557 0.547379
0.564533 0.736747 0.592760
0.656494 0.766241 0.639921
0.726191 0.794041 0.688862
0.788879 0.820146 0.729830
0.844556 0.844556 0.766622
0.893224 0.867271 0.801634
0.934881 0.888291 0.834867
0.497451 0.812174 0.657532
0.606406 0.836699 0.705507
0.708029 0.859529 0.743431
0.770095 0.880665 0.779575
0.825150 0.900105 0.813939
0.873195 0.917850 0.846524
0.914231 0.933901 0.877328
0.948256 0.948256 0.906354
0.975272 0.960917 0.933599
0.645187 0.914613 0.792291
0.762657 0.930779 0.826008
0.817090 0.945250 0.857945
0.864513 0.958026 0.888102
0.904927 0.969107 0.916479
0.938330 0.978493 0.943076
0.964724 0.986184 0.967894
0.984108 0.992180 0.990932
0.996481 0.996481 1.000000
0.000880 0.000880 0.009452
0.008819 0.003454 0.020526
0.023768 0.007723 0.033380
0.045727 0.013687 0.048014
0.074697 0.021347 0.064427
0.110676 0.030701 0.082620
0.153665 0.041750 0.102593
0.203664 0.054494 0.124345
0.306287 0.068933 0.147877
0.016280 0.027927 0.053783
0.038861 0.038861 0.070845
0.068452 0.051490 0.089685
0.105053 0.065813 0.110306
0.148664 0.081832 0.132706
0.199286 0.099546 0.156886
0.256917 0.118954 0.182846
0.346443 0.140057 0.210585
0.459832 0.162856 0.240104
0.050861 0.092036 0.118255
0.088085 0.111330 0.141303
0.132318 0.132318 0.166131
0.183561 0.155001 0.192739
0.241814 0.179379 0.221126
0.307077 0.205452 0.251293
0.389690 0.233220 0.283240
0.495447 0.262683 0.316966
0.594194 0.293841 0.352472
0.104625 0.193207 0.202868
0.156490 0.220860 0.231903
0.215365 0.250207 0.262718
0.281250 0.281250 0.295313
0.354145 0.313987 0.329687
0.436030 0.348420 0.365841
0.534155 0.384547 0.403775
0.625270 0.422370 0.443488
0.709376 0.461887 0.484981
0.177570 0.331440 0.307621
0.244077 0.367452 0.342643
0.317594 0.405159 0.379445
0.398121 0.444561 0.418027
0.485658 0.485658 0.458388
0.575955 0.527710 0.500529
0.659439 0.568264 0.544450
0.735912 0.607122 0.590151
0.805375 0.644285 0.634213
0.269697 0.510306 0.432515
0.350846 0.550974 0.473524
0.439004 0.589948 0.516313
0.534173 0.627227 0.560882
0.620848 0.662810 0.607230
0.696699 0.696699 0.648993
0.765540 0.728893 0.688378
0.827372 0.759392 0.725982
0.882193 0.788195 0.761807
0.381005 0.684030 0.577550
0.476796 0.716339 0.623022
0.579597 0.746953 0.663538
0.668833 0.775873 0.702274
0.737052 0.803097 0.739231
0.798261 0.828626 0.774408
0.852460 0.852460 0.807805
0.899650 0.874600 0.839422
0.939829 0.895044 0.869260
0.511495 0.820693 0.715935
0.621928 0.844642 0.752243
0.719909 0.866897 0.786772
0.780497 0.887457 0.819522
0.834074 0.906321 0.850491
0.880641 0.923491 0.879681
0.920199 0.938966 0.907091
0.952746 0.952746 0.932721
0.978284 0.964831 0.956572
0.661167 0.920293 0.831002
0.774079 0.935884 0.861324
0.827034 0.949779 0.889866
0.872979 0.961979 0.916628
0.911915 0.972485 0.941611
0.943840 0.981295 0.964813
0.968755 0.988410 0.986237
0.986661 0.993831 1.000000
0.997556 0.997556 1.000000
0.001564 0.001564 0.016804
0.010981 0.004714 0.031273
0.027409 0.009559 0.047522
0.050846 0.016099 0.065550
0.081293 0.024333 0.085358
0.118751 0.034263 0.106946
0.163218 0.045888 0.130313
0.214695 0.059207 0.155460
0.322658 0.074222 0.182387
0.018900 0.031450 0.072555
0.042960 0.042960 0.093011
0.074029 0.056164 0.115247
0.112108 0.071063 0.139262
0.157197 0.087657 0.165057
0.209297 0.105947 0.192632
0.268406 0.125931 0.221987
0.362355 0.147610 0.253121
0.474266 0.170984 0.286035
0.055418 0.098398 0.148447
0.094120 0.118267 0.174890
0.139831 0.139831 0.203113
0.192552 0.163090 0.233115
0.252283 0.188043 0.264897
0.319024 0.214692 0.298459
0.405144 0.243036 0.333801
0.509423 0.273074 0.370922
0.606693 0.304808 0.409823
0.111118 0.202408 0.244480
0.164461 0.230636 0.276910
0.224815 0.260560 0.311120
0.292178 0.292178 0.347109
0.366551 0.325491 0.384878
0.451026 0.360499 0.424427
0.547673 0.397202 0.465756
0.637310 0.435600 0.508864
0.719937 0.475693 0.553032
0.186000 0.343480 0.360654
0.253985 0.380067 0.399071
0.328980 0.418350 0.439267
0.410985 0.458327 0.481244
0.500000 0.500000 0.525000
0.589015 0.541673 0.568756
0.671020 0.581650 0.610733
0.746015 0.619933 0.650929
0.814000 0.656520 0.689346
0.280063 0.524307 0.496968
0.362690 0.564400 0.541136
0.452327 0.602798 0.584244
0.548974 0.639501 0.625573
0.633449 0.674509 0.665122
0.707822 0.707822 0.702891
0.775185 0.739440 0.738880
0.835539 0.769364 0.773090
0.888882 0.797592 0.805520
0.393307 0.695192 0.640177
0.490577 0.726926 0.679078
0.594856 0.756964 0.716199
0.680976 0.785308 0.751541
0.747717 0.811957 0.785103
0.807448 0.836910 0.816885
0.860169 0.860169 0.846887
0.905880 0.881733 0.875110
0.944582 0.901602 0.901553
0.525734 0.829016 0.763965
0.637645 0.852390 0.796879
0.731594 0.874069 0.828013
0.790703 0.894053 0.857368
0.842803 0.912343 0.884943
0.887892 0.928937 0.910738
0.925971 0.943836 0.934753
0.957040 0.957040 0.956989
0.981100 0.968550 0.977445
0.677342 0.925778 0.867613
0.785305 0.940793 0.894540
0.836782 0.954112 0.919687
0.881249 0.965737 0.943054
0.918707 0.975667 0.964642
0.949154 0.983901 0.984450
0.972591 0.990441 1.000000
0.989019 0.995286 1.000000
0.998436 0.998436 1.000000
0.002444 0.002444 0.026256
0.013339 0.006169 0.044120
0.031245 0.011590 0.063763
0.056160 0.018705 0.085187
0.088085 0.027515 0.108389
0.127021 0.038021 0.133372
0.172966 0.050221 0.160134
0.225921 0.064116 0.188676
0.338833 0.079707 0.218998
0.021716 0.035169 0.093428
0.047254 0.047254 0.117279
0.079801 0.061034 0.142909
0.119359 0.076509 0.170319
0.165926 0.093679 0.199509
0.219503 0.112543 0.230478
0.280091 0.133103 0.263228
0.378072 0.155358 0.297757
0.488505 0.179307 0.334065
0.060171 0.104956 0.180740
0.100350 0.125400 0.210578
0.147540 0.147540 0.242195
0.201739 0.171374 0.275592
0.262948 0.196903 0.310769
0.331167 0.224127 0.347726
0.420403 0.253047 0.386462
0.523204 0.283661 0.426978
0.618995 0.315970 0.472450
0.117807 0.211805 0.288193
0.172628 0.240608 0.324018
0.234460 0.271107 0.361622
0.303301 0.303301 0.401007
0.379152 0.337190 0.442770
0.465827 0.372773 0.489118
0.560996 0.410052 0.533687
0.649154 0.449026 0.576476
0.730303 0.489694 0.617485
0.194625 0.355715 0.415787
0.264088 0.392878 0.459849
0.340561 0.431736 0.505550
0.424045 0.472290 0.549471
0.514342 0.514342 0.591612
0.601879 0.555439 0.631973
0.682406 0.594841 0.670555
0.755923 0.632548 0.707357
0.822430 0.668560 0.742379
0.290624 0.538113 0.565019
0.374730 0.577630 0.606512
0.465845 0.615453 0.646225
0.563970 0.651580 0.684159
0.645855 0.686013 0.720313
0.718750 0.718750 0.754687
0.784635 0.749793 0.787282
0.843510 0.779140 0.818097
0.895375 0.806793 0.847132
0.405806 0.706159 0.697528
0.504553 0.737317 0.733034
0.610310 0.766780 0.766760
0.692923 0.794548 0.798707
0.758186 0.820621 0.828874
0.816439 0.844999 0.857261
0.867682 0.867682 0.883869
0.911915 0.888670 0.908697
0.949139 0.907964 0.931745
0.540168 0.837144 0.809896
0.653557 0.859942 0.839415
0.743083 0.881046 0.867154
0.800714 0.900454 0.893114
0.851336 0.918168 0.917294
0.894947 0.934187 0.939694
0.931548 0.948510 0.960315
0.961139 0.961139 0.979155
0.983720 0.972073 0.996217
0.693713 0.931067 0.902123
0.796336 0.945506 0.925655
0.846335 0.958250 0.947407
0.889324 0.969299 0.967380
0.925303 0.978653 0.985573
0.954273 0.986313 1.000000
0.976232 0.992277 1.000000
0.991181 0.996546 1.000000
0.999120 0.999120 1.000000
0.003519 0.003519 0.037809
0.015892 0.007820 0.059068
0.035276 0.013816 0.082106
0.061670 0.021507 0.106924
0.095073 0.030893 0.133521
0.135487 0.041974 0.161898
0.182910 0.054750 0.192055
0.237343 0.069221 0.223992
0.354813 0.085387 0.257709
0.024728 0.039083 0.116401
0.051744 0.051744 0.143646
0.085769 0.066099 0.172672
0.126805 0.082150 0.203476
0.174850 0.099895 0.236061
0.229905 0.119335 0.270425
0.291971 0.140471 0.306569
0.393594 0.163301 0.344493
0.502549 0.187826 0.392468
0.065119 0.111709 0.215133
0.106776 0.132729 0.248366
0.155444 0.155444 0.283378
0.211121 0.179854 0.320170
0.273809 0.205959 0.361138
0.343506 0.233759 0.410079
0.435467 0.263253 0.457240
0.536789 0.294443 0.502621
0.631102 0.327328 0.546223
0.124691 0.221396 0.334006
0.180991 0.250776 0.379162
0.244300 0.281850 0.427455
0.314620 0.314620 0.473968
0.391949 0.349084 0.518701
0.480432 0.385243 0.561655
0.574123 0.423097 0.602829
0.660803 0.462647 0.642223
0.740474 0.503891 0.679837
0.203446 0.368146 0.490460
0.274387 0.405885 0.534545
0.352338 0.445318 0.576851
0.437300 0.486447 0.617377
0.528489 0.528489 0.656123
0.614548 0.569010 0.693090
0.693597 0.607837 0.728277
0.765636 0.644968 0.761684
0.830664 0.680404 0.793311
0.301382 0.551723 0.631689
0.386965 0.590665 0.669787
0.479558 0.627912 0.706106
0.579161 0.663464 0.740645
0.658065 0.697320 0.773404
0.729482 0.729482 0.804384
0.793889 0.759949 0.833584
0.851286 0.788721 0.861004
0.901673 0.815798 0.886644
0.418499 0.716931 0.752777
0.518724 0.747513 0.784889
0.625960 0.776400 0.815220
0.704675 0.803593 0.843772
0.768460 0.829090 0.870545
0.825235 0.852893 0.895537
0.875000 0.875000 0.918750
0.917755 0.895413 0.940183
0.953500 0.914130 0.959837
0.554798 0.845077 0.853725
0.669666 0.867299 0.879850
0.754377 0.887827 0.904194
0.810530 0.906660 0.926759
0.859673 0.923798 0.947544
0.901806 0.939241 0.966550
0.936929 0.952989 0.983776
0.965042 0.965042 0.999222
0.986145 0.975400 1.000000
0.710279 0.936161 0.934532
0.807172 0.950024 0.954670
0.855692 0.962193 0.973027
0.897203 0.972666 0.989605
0.931704 0.981444 1.000000
0.959196 0.988528 1.000000
0.979677 0.993917 1.000000
0.993148 0.997610 1.000000
0.999609 0.999609 1.000000
0.004789 0.004789 0.051462
0.018641 0.009666 0.076116
0.039503 0.016238 0.102549
0.067374 0.024504 0.130761
0.102256 0.034466 0.160754
0.144148 0.046123 0.192526
0.193049 0.059474 0.226077
0.248961 0.074521 0.261409
0.370598 0.091262 0.313084
0.027935 0.043192 0.141474
0.056429 0.056429 0.172115
0.091932 0.071360 0.204535
0.134446 0.087986 0.238734
0.183970 0.106307 0.280106
0.240503 0.126323 0.331639
0.304047 0.148034 0.381393
0.408920 0.171440 0.429366
0.516397 0.196541 0.475560
0.070262 0.118657 0.251627
0.113398 0.140253 0.299074
0.163544 0.163544 0.349959
0.220699 0.188529 0.399064
0.284865 0.215210 0.446390
0.356040 0.243585 0.491935
0.450335 0.273655 0.535702
0.550179 0.305421 0.577688
0.643014 0.338881 0.617895
0.131771 0.231184 0.416500
0.189549 0.261139 0.463177
0.254336 0.292789 0.508075
0.326134 0.326134 0.551193
0.404941 0.361174 0.592532
0.494841 0.397909 0.632091
0.587054 0.436339 0.669870
0.672257 0.476463 0.705870
0.750449 0.518283 0.740089
0.212462 0.380772 0.566449
0.284881 0.419086 0.607140
0.364311 0.459096 0.646051
0.450750 0.500800 0.683182
0.542440 0.542440 0.718534
0.627021 0.582386 0.752106
0.704592 0.620637 0.783898
0.775153 0.657193 0.813910
0.838703 0.692053 0.842143
0.312334 0.565138 0.696258
0.399396 0.603504 0.730962
0.493467 0.640175 0.763886
0.593132 0.675152 0.795030
0.670080 0.708433 0.824395
0.740019 0.740019 0.851979
0.802948 0.769910 0.877785
0.858867 0.798107 0.901810
0.907776 0.824608 0.924056
0.431388 0.727507 0.805927
0.533092 0.757513 0.834643
0.641805 0.785825 0.861580
0.716232 0.812442 0.886737
0.778539 0.837364 0.910115
0.833835 0.860590 0.931713
0.882122 0.882122 0.951531
0.923399 0.901959 0.969569
0.957666 0.920101 0.985828
0.569624 0.852814 0.895454
0.685969 0.874461 0.918184
0.765476 0.894413 0.939134
0.820150 0.912670 0.958304
0.867815 0.929233 0.975694
0.908470 0.944100 0.991305
0.942115 0.957273 1.000000
0.968750 0.968750 1.000000
0.988375 0.978533 1.000000
0.727041 0.941059 0.964841
0.817812 0.954347 0.981584
0.864854 0.965939 0.996547
0.904887 0.975837 1.000000
0.937910 0.984040 1.000000
0.963923 0.990548 1.000000
0.982926 0.995361 1.000000
0.994919 0.998479 1.000000
0.999902 0.999902 1.000000
0.006255 0.006255 0.067216
0.021585 0.011708 0.095264
0.043925 0.018855 0.125092
0.073275 0.027697 0.156699
0.109635 0.038235 0.199674
0.153004 0.050467 0.253799
0.203384 0.064394 0.306144
0.265546 0.080016 0.356710
0.386187 0.097333 0.405496
0.031337 0.047497 0.168648
0.061309 0.061309 0.219585
0.098291 0.076816 0.273062
0.142283 0.094018 0.324759
0.193284 0.112914 0.374677
0.251296 0.133506 0.422815
0.316318 0.155793 0.469174
0.424051 0.179774 0.513753
0.530049 0.205451 0.556552
0.075601 0.125801 0.343139
0.120215 0.147972 0.392409
0.171839 0.171839 0.439899
0.230472 0.197400 0.485609
0.296116 0.224656 0.529540
0.368770 0.253607 0.571691
0.465007 0.284253 0.612063
0.563373 0.316594 0.650655
0.654730 0.350630 0.687467
0.139047 0.241167 0.501809
0.198302 0.271697 0.545092
0.264568 0.303923 0.586595
0.337844 0.337844 0.626319
0.418129 0.373459 0.664262
0.509055 0.410770 0.700427
0.599790 0.449775 0.734811
0.683515 0.490475 0.767416
0.760229 0.532871 0.798241
0.221674 0.393594 0.640339
0.295571 0.432484 0.677635
0.376479 0.473069 0.713151
0.464396 0.515131 0.746887
0.556196 0.556196 0.778844
0.639299 0.595566 0.809021
0.715391 0.633241 0.837418
0.784474 0.669221 0.864036
0.846547 0.703507 0.888874
0.323482 0.578358 0.758728
0.412022 0.616148 0.790036
0.507571 0.652244 0.819566
0.606429 0.686644 0.847315
0.681900 0.719350 0.873285
0.750360 0.750360 0.897475
0.811811 0.779676 0.919885
0.866252 0.807297 0.940516
0.913683 0.833223 0.959367
0.444473 0.737887 0.856976
0.547654 0.767318 0.882297
0.657846 0.795054 0.905840
0.727593 0.821095 0.927602
0.788422 0.845442 0.947585
0.842240 0.868093 0.965788
0.889049 0.889049 0.982211
0.928848 0.908310 0.996855
0.961637 0.925877 1.000000
0.584645 0.860355 0.935083
0.702468 0.881427 0.954418
0.776378 0.900803 0.971973
0.829575 0.918485 0.987748
0.875762 0.934472 1.000000
0.914939 0.948764 1.000000
0.947105 0.961360 1.000000
0.972262 0.972262 1.000000
0.990409 0.981469 1.000000
0.743999 0.945761 0.993050
0.828256 0.958474 1.000000
0.873821 0.969491 1.000000
0.912376 0.978813 1.000000
0.943920 0.986440 1.000000
0.968455 0.992373 1.000000
0.985980 0.996610 1.000000
0.996495 0.999153 1.000000
1.000000 1.000000 1.000000
