dist/luts/bleach_bypass.cube
# Video Color Grader Preset
TITLE "Bleach Bypass"
LUT_3D_SIZE 5
DOMAIN_MIN 0.0 0.0 0.0
DOMAIN_MAX 1.0 1.0 1.0
0.000000 0.000000 0.000000
0.014020 0.003390 0.003559
0.056080 0.013560 0.014238
0.126179 0.030509 0.032035
0.256001 0.054239 0.056950
0.038363 0.074123 0.040281
0.110951 0.110951 0.067789
0.211578 0.154558 0.102415
0.342154 0.204946 0.144160
0.555527 0.262113 0.193024
0.153453 0.296493 0.161126
0.284609 0.366759 0.212582
0.443804 0.443804 0.271156
0.623521 0.526931 0.336849
0.778326 0.606406 0.409661
0.345270 0.649370 0.362533
0.534993 0.715747 0.437937
0.703884 0.775344 0.520460
0.828161 0.828161 0.610101
0.924399 0.874199 0.706861
0.613813 0.902667 0.644504
0.796616 0.935606 0.743856
0.890365 0.961765 0.850326
0.956075 0.981145 0.924908
0.993745 0.993745 0.982784
0.000391 0.000391 0.004201
0.020323 0.006083 0.021339
0.068296 0.018556 0.045597
0.144308 0.037808 0.076973
0.289721 0.063839 0.115468
0.046500 0.085870 0.090163
0.125000 0.125000 0.131250
0.231540 0.170910 0.179455
0.374040 0.223600 0.234780
0.581501 0.283069 0.297223
0.169336 0.319596 0.256689
0.306403 0.392163 0.321723
0.471511 0.471511 0.393877
0.647662 0.554682 0.473149
0.796554 0.631854 0.559540
0.368898 0.672672 0.503777
0.564533 0.736747 0.592760
0.726191 0.794041 0.688862
0.844556 0.844556 0.766622
0.934881 0.888291 0.834867
0.645187 0.914613 0.792291
0.817090 0.945250 0.857945
0.904927 0.969107 0.916479
0.964724 0.986184 0.967894
0.996481 0.996481 1.000000
0.001564 0.001564 0.016804
0.027409 0.009559 0.047522
0.081293 0.024333 0.085358
0.163218 0.045888 0.130313
0.322658 0.074222 0.182387
0.055418 0.098398 0.148447
0.139831 0.139831 0.203113
0.252283 0.188043 0.264897
0.405144 0.243036 0.333801
0.606693 0.304808 0.409823
0.186000 0.343480 0.360654
0.328980 0.418350 0.439267
0.500000 0.500000 0.525000
0.671020 0.581650 0.610733
0.814000 0.656520 0.689346
0.393307 0.695192 0.640177
0.594856 0.756964 0.716199
0.747717 0.811957 0.785103
0.860169 0.860169 0.846887
0.944582 0.901602 0.901553
0.677342 0.925778 0.867613
0.836782 0.954112 0.919687
0.918707 0.975667 0.964642
0.972591 0.990441 1.000000
0.998436 0.998436 1.000000
0.003519 0.003519 0.037809
0.035276 0.013816 0.082106
0.095073 0.030893 0.133521
0.182910 0.054750 0.192055
0.354813 0.085387 0.257709
0.065119 0.111709 0.215133
0.155444 0.155444 0.283378
0.273809 0.205959 0.361138
0.435467 0.263253 0.457240
0.631102 0.327328 0.546223
0.203446 0.368146 0.490460
0.352338 0.445318 0.576851
0.528489 0.528489 0.656123
0.693597 0.607837 0.728277
0.830664 0.680404 0.793311
0.418499 0.716931 0.752777
0.625960 0.776400 0.815220
0.768460 0.829090 0.870545
0.875000 0.875000 0.918750
0.953500 0.914130 0.959837
0.710279 0.936161 0.934532
0.855692 0.962193 0.973027
0.931704 0.981444 1.000000
0.979677 0.993917 1.000000
0.999609 0.999609 1.000000
0.006255 0.006255 0.067216
0.043925 0.018855 0.125092
0.109635 0.038235 0.199674
0.203384 0.064394 0.306144
0.386187 0.097333 0.405496
0.075601 0.125801 0.343139
0.171839 0.171839 0.439899
0.296116 0.224656 0.529540
0.465007 0.284253 0.612063
0.654730 0.350630 0.687467
0.221674 0.393594 0.640339
0.376479 0.473069 0.713151
0.556196 0.556196 0.778844
0.715391 0.633241 0.837418
0.846547 0.703507 0.888874
0.444473 0.737887 0.856976
0.657846 0.795054 0.905840
0.788422 0.845442 0.947585
0.889049 0.889049 0.982211
0.961637 0.925877 1.000000
0.743999 0.945761 0.993050
0.873821 0.969491 1.000000
0.943920 0.986440 1.000000
0.985980 0.996610 1.000000
1.000000 1.000000 1.000000
