dist/luts/bleach_bypass.cube
# Video Color Grader Preset
TITLE "Bleach Bypass"
LUT_3D_SIZE 17
DOMAIN_MIN 0.0 0.0 0.0
DOMAIN_MAX 1.0 1.0 1.0
0.000000 0.000000 0.000000
0.000876 0.000212 0.000222
0.003505 0.000847 0.000890
0.007886 0.001907 0.002002
0.014020 0.003390 0.003559
0.021906 0.005297 0.005562
0.031545 0.007627 0.008009
0.042936 0.010382 0.010901
0.056080 0.013560 0.014238
0.070976 0.017161 0.018019
0.087624 0.021187 0.022246
0.106026 0.025636 0.026918
0.126179 0.030509 0.032035
0.148085 0.035806 0.037596
0.171744 0.041526 0.043603
0.197155 0.047671 0.050054
0.256001 0.054239 0.056950
0.002398 0.004633 0.002518
0.006934 0.006934 0.004237
0.013224 0.009660 0.006401
0.021265 0.012809 0.009010
0.031060 0.016382 0.012064
0.042606 0.020379 0.015563
0.055905 0.024799 0.019507
0.070957 0.029643 0.023896
0.087761 0.034911 0.028729
0.106318 0.040603 0.034008
0.126627 0.046718 0.039731
0.148689 0.053257 0.045900
0.172503 0.060220 0.052513
0.198069 0.067607 0.059572
0.225388 0.075417 0.067075
0.276380 0.083651 0.075023
0.338076 0.092309 0.083416
0.009591 0.018531 0.010070
0.017788 0.022922 0.013286
0.027738 0.027738 0.016947
0.039440 0.032977 0.021053
0.052895 0.038640 0.025604
0.068102 0.044726 0.030600
0.085061 0.051236 0.036040
0.103774 0.058170 0.041926
0.124238 0.065528 0.048256
0.146455 0.073310 0.055031
0.170425 0.081515 0.062252
0.196147 0.090144 0.069917
0.223622 0.099197 0.078027
0.252849 0.108673 0.086582
0.297532 0.118573 0.095582
0.357320 0.128897 0.105027
0.415355 0.139645 0.114917
0.021579 0.041694 0.022658
0.033437 0.048176 0.027371
0.047047 0.055081 0.032529
0.062410 0.062410 0.038131
0.079525 0.070163 0.044179
0.098393 0.078339 0.050671
0.119013 0.086939 0.057609
0.141385 0.095963 0.064991
0.165511 0.105411 0.072818
0.191388 0.115282 0.081090
0.219018 0.125577 0.089807
0.248401 0.136296 0.098969
0.279536 0.147438 0.108576
0.319457 0.159005 0.118628
0.377336 0.170995 0.129125
0.433464 0.183409 0.140067
0.487839 0.196246 0.151453
0.038363 0.074123 0.040281
0.053882 0.082695 0.046491
0.071152 0.091690 0.053145
0.090175 0.101108 0.060245
0.110951 0.110951 0.067789
0.133479 0.121217 0.075778
0.157760 0.131907 0.084212
0.183793 0.143021 0.093091
0.211578 0.154558 0.102415
0.241116 0.166520 0.112184
0.272407 0.178905 0.122398
0.305450 0.191713 0.133057
0.342154 0.204946 0.144160
0.398126 0.218602 0.155709
0.452346 0.232682 0.167703
0.504813 0.247185 0.180141
0.555527 0.262113 0.193024
0.059943 0.115818 0.062940
0.079121 0.126479 0.070646
0.100053 0.137564 0.078797
0.122736 0.149072 0.087393
0.147172 0.161005 0.096434
0.173361 0.173361 0.105920
0.201302 0.186141 0.115851
0.230996 0.199344 0.126227
0.262442 0.212972 0.137048
0.295640 0.227023 0.148313
0.330591 0.241498 0.160024
0.367295 0.256396 0.172179
0.419689 0.271718 0.184780
0.472001 0.287464 0.197825
0.522560 0.303634 0.211316
0.571366 0.320228 0.225251
0.618420 0.337245 0.239631
0.086317 0.166777 0.090633
0.109157 0.179529 0.099836
0.133748 0.192703 0.109484
0.160092 0.206302 0.119577
0.188189 0.220324 0.130115
0.218038 0.234770 0.141098
0.249640 0.249640 0.152525
0.282994 0.264933 0.164398
0.318100 0.280650 0.176715
0.354959 0.296791 0.189478
0.393571 0.313356 0.202685
0.442025 0.330344 0.216337
0.492429 0.347756 0.230434
0.541080 0.365592 0.244977
0.587978 0.383852 0.259964
0.633124 0.402535 0.275396
0.676518 0.421642 0.291272
0.117488 0.227003 0.123362
0.143987 0.241844 0.134062
0.172239 0.257108 0.145207
0.202244 0.272797 0.156796
0.234001 0.288909 0.168831
0.267511 0.305444 0.181310
0.302773 0.322404 0.194235
0.339787 0.339787 0.207604
0.378554 0.357594 0.221418
0.419074 0.375825 0.235677
0.465134 0.394480 0.250381
0.513630 0.413558 0.265530
0.560373 0.433060 0.281124
0.605363 0.452986 0.297163
0.648601 0.473335 0.313647
0.690087 0.494108 0.330576
0.729820 0.515305 0.347949
0.153453 0.296493 0.161126
0.183613 0.313424 0.173322
0.215526 0.330779 0.185964
0.249191 0.348557 0.199050
0.284609 0.366759 0.212582
0.321779 0.385384 0.226558
0.360701 0.404434 0.240979
0.401376 0.423907 0.255845
0.443804 0.443804 0.271156
0.489016 0.464124 0.286912
0.535604 0.484869 0.303113
0.580439 0.506003 0.319759
0.623521 0.526931 0.336849
0.664851 0.547436 0.354385
0.704429 0.567516 0.372365
0.742254 0.587173 0.390791
0.778326 0.606406 0.409661
0.194214 0.375249 0.203925
0.228035 0.394270 0.217618
0.263608 0.413714 0.231757
0.300934 0.433582 0.246340
0.340012 0.453874 0.261368
0.380842 0.475370 0.276841
0.423425 0.496751 0.292759
0.467761 0.517708 0.309121
0.513671 0.538241 0.325929
0.558351 0.558351 0.343182
0.601278 0.578037 0.360879
0.642452 0.597299 0.379022
0.681874 0.616137 0.397609
0.719544 0.634551 0.416642
0.755461 0.652542 0.436119
0.789626 0.670109 0.456041
0.822038 0.687253 0.476409
0.239771 0.467129 0.251759
0.277252 0.488539 0.266949
0.316485 0.509525 0.282584
0.357471 0.530087 0.298664
0.400210 0.550225 0.315189
0.444701 0.569940 0.332159
0.490945 0.589230 0.349573
0.538941 0.608098 0.367433
0.581871 0.626541 0.385738
0.622890 0.644561 0.404487
0.662156 0.662156 0.423681
0.699671 0.679329 0.443321
0.735432 0.696077 0.463405
0.769441 0.712402 0.483934
0.801698 0.728303 0.504908
0.832202 0.743780 0.526327
0.860953 0.758833 0.548191
0.290123 0.562882 0.304629
0.331264 0.582202 0.321316
0.374158 0.601098 0.338447
0.418805 0.619570 0.356024
0.465204 0.637619 0.374046
0.513355 0.655243 0.392512
0.563259 0.672444 0.411423
0.606164 0.689222 0.430780
0.645275 0.705575 0.450581
0.682634 0.721505 0.470827
0.718240 0.737011 0.491518
0.752093 0.752093 0.512654
0.784194 0.766752 0.534235
0.814543 0.780987 0.556261
0.843139 0.794798 0.578732
0.869983 0.808185 0.601648
0.895074 0.821149 0.625008
0.345270 0.649370 0.362533
0.390072 0.666600 0.380717
0.436627 0.683406 0.399345
0.484934 0.699788 0.418419
0.534993 0.715747 0.437937
0.586805 0.731282 0.457900
0.631230 0.746393 0.478309
0.668434 0.761080 0.499162
0.703884 0.775344 0.520460
0.737582 0.789184 0.542203
0.769528 0.802600 0.564391
0.799721 0.815593 0.587023
0.828161 0.828161 0.610101
0.854849 0.840306 0.633624
0.879785 0.852028 0.657591
0.902968 0.863325 0.682004
0.924399 0.874199 0.706861
0.405213 0.726592 0.425473
0.453675 0.741732 0.445154
0.503890 0.756449 0.465279
0.555858 0.770741 0.485849
0.609578 0.784610 0.506864
0.657070 0.798055 0.528324
0.692365 0.811076 0.550229
0.725907 0.823674 0.572579
0.757697 0.835847 0.595374
0.787735 0.847598 0.618613
0.816020 0.858924 0.642298
0.842553 0.869826 0.666428
0.867333 0.880305 0.691002
0.890360 0.890360 0.716021
0.911636 0.899992 0.741486
0.931158 0.909199 0.767395
0.948928 0.917983 0.793749
0.469951 0.794549 0.493448
0.522074 0.807599 0.514625
0.575949 0.820226 0.536247
0.631577 0.832428 0.558314
0.683682 0.844207 0.580826
0.717069 0.855562 0.603783
0.748704 0.866494 0.627185
0.778586 0.877002 0.651031
0.806716 0.887086 0.675323
0.833093 0.896746 0.700059
0.857717 0.905982 0.725241
0.880589 0.914795 0.750867
0.901709 0.923184 0.776938
0.921076 0.931149 0.803454
0.938691 0.938691 0.830415
0.954553 0.945808 0.857821
0.968663 0.952503 0.881352
0.539484 0.853241 0.566459
0.595268 0.864201 0.589132
0.652804 0.874737 0.612251
0.711068 0.884850 0.635815
0.742547 0.894539 0.659823
0.772273 0.903805 0.684277
0.800247 0.912646 0.709175
0.826469 0.921064 0.734519
0.850938 0.929058 0.760307
0.873655 0.936628 0.786540
0.894619 0.943775 0.813218
0.913830 0.950498 0.840341
0.931290 0.956797 0.867909
0.946996 0.962672 0.887356
0.960950 0.968124 0.903544
0.973152 0.973152 0.919287
0.983601 0.977756 0.934585
0.613813 0.902667 0.644504
0.673257 0.911537 0.668674
0.734454 0.919984 0.693290
0.768797 0.928007 0.718350
0.796616 0.935606 0.743856
0.822682 0.942781 0.769806
0.846996 0.949533 0.796201
0.869557 0.955861 0.823041
0.890365 0.961765 0.850326
0.909421 0.967246 0.876830
0.926725 0.972303 0.893301
0.942276 0.976936 0.909327
0.956075 0.981145 0.924908
0.968121 0.984930 0.940044
0.978415 0.988292 0.954736
0.986956 0.991230 0.968982
0.993745 0.993745 0.982784
0.000024 0.000024 0.000263
0.001270 0.000380 0.001334
0.004268 0.001160 0.002850
0.009019 0.002363 0.004811
0.015522 0.003990 0.007217
0.023778 0.006041 0.010068
0.033786 0.008515 0.013363
0.045547 0.011413 0.017104
0.059060 0.014735 0.021290
0.074326 0.018481 0.025920
0.091344 0.022650 0.030996
0.110115 0.027244 0.036516
0.130638 0.032260 0.042481
0.152914 0.037701 0.048892
0.176942 0.043565 0.055747
0.202722 0.049854 0.063047
0.264505 0.056565 0.070792
0.002906 0.005367 0.005635
0.007813 0.007813 0.008203
0.014471 0.010682 0.011216
0.022882 0.013975 0.014674
0.033046 0.017692 0.018576
0.044962 0.021832 0.022924
0.058631 0.026397 0.027717
0.074052 0.031385 0.032954
0.091226 0.036797 0.038636
0.110152 0.042632 0.044764
0.130831 0.048891 0.051336
0.153262 0.055574 0.058353
0.177446 0.062681 0.065815
0.203382 0.070212 0.073722
0.231070 0.078166 0.082074
0.284769 0.086544 0.090871
0.346095 0.095346 0.100113
0.010583 0.019975 0.016043
0.019150 0.024510 0.020108
0.029469 0.029469 0.024617
0.041541 0.034852 0.029572
0.055365 0.040659 0.034971
0.070942 0.046890 0.040816
0.088271 0.053544 0.047105
0.107353 0.060622 0.053839
0.128187 0.068123 0.061018
0.150774 0.076049 0.068642
0.175113 0.084398 0.076711
0.201204 0.093171 0.085225
0.229049 0.102367 0.094184
0.258645 0.111988 0.103588
0.305806 0.122032 0.113437
0.365224 0.132500 0.123730
0.422890 0.143391 0.134469
0.023056 0.043848 0.031486
0.035283 0.050473 0.037047
0.049263 0.057522 0.043054
0.064995 0.064995 0.049505
0.082480 0.072892 0.056401
0.101717 0.081212 0.063742
0.122707 0.089956 0.071529
0.145449 0.099124 0.079759
0.169944 0.108715 0.088435
0.196191 0.118731 0.097556
0.224190 0.129170 0.107122
0.253942 0.140032 0.117133
0.285447 0.151319 0.127588
0.327616 0.163029 0.138489
0.385126 0.175163 0.149834
0.440884 0.187721 0.161625
0.494890 0.200702 0.173860
0.040324 0.076987 0.051964
0.056212 0.085702 0.059022
0.073852 0.094841 0.066526
0.093245 0.104403 0.074474
0.114390 0.114390 0.082867
0.137288 0.124800 0.091704
0.161938 0.135634 0.100987
0.188340 0.146892 0.110715
0.216495 0.158573 0.120888
0.246403 0.170678 0.131505
0.278063 0.183207 0.142568
0.311476 0.196160 0.154075
0.350199 0.209536 0.166028
0.405802 0.223336 0.178425
0.459652 0.237560 0.191267
0.511749 0.252207 0.204554
0.562094 0.267279 0.218286
0.062388 0.119391 0.077478
0.081936 0.130196 0.086033
0.103237 0.141425 0.095032
0.126290 0.153077 0.104477
0.151095 0.165153 0.114367
0.177653 0.177653 0.124702
0.205964 0.190577 0.135481
0.236027 0.203925 0.146706
0.267843 0.217696 0.158375
0.301411 0.231891 0.170489
0.336731 0.246510 0.183049
0.373805 0.261552 0.196053
0.427250 0.277018 0.209502
0.479192 0.292908 0.223396
0.529381 0.309222 0.237735
0.577818 0.325959 0.252519
0.624503 0.343120 0.267748
0.089247 0.171060 0.108026
0.112455 0.183955 0.118078
0.137416 0.197274 0.128575
0.164130 0.211016 0.139516
0.192596 0.225182 0.150903
0.222815 0.239772 0.162734
0.254786 0.254786 0.175010
0.288509 0.270223 0.187732
0.323986 0.286084 0.200898
0.361214 0.302369 0.214509
0.400195 0.319078 0.228565
0.449471 0.336210 0.243066
0.499505 0.353766 0.258012
0.547787 0.371746 0.273403
0.594316 0.390149 0.289238
0.639092 0.408977 0.305519
0.682116 0.428228 0.322244
0.120901 0.231995 0.143610
0.147770 0.246980 0.155158
0.176392 0.262389 0.167152
0.206766 0.278221 0.179590
0.238892 0.294477 0.192473
0.272771 0.311156 0.205802
0.308403 0.328260 0.219575
0.345787 0.345787 0.233793
0.384924 0.363738 0.248456
0.425813 0.382113 0.263563
0.472466 0.400911 0.279116
0.520592 0.420133 0.295114
0.566965 0.439779 0.311557
0.611586 0.459849 0.328444
0.654455 0.480342 0.345777
0.695571 0.501259 0.363554
0.734934 0.522600 0.381776
0.157351 0.302196 0.184229
0.187880 0.319270 0.197274
0.220162 0.336769 0.210764
0.254197 0.354691 0.224699
0.289984 0.373037 0.239079
0.327524 0.391806 0.253904
0.366816 0.410999 0.269174
0.407860 0.430617 0.284889
0.450657 0.450657 0.301049
0.496233 0.471122 0.317653
0.542451 0.492010 0.334703
0.586917 0.513158 0.352197
0.629630 0.533942 0.370137
0.670590 0.554303 0.388521
0.709798 0.574239 0.407350
0.747254 0.593752 0.426624
0.782957 0.612842 0.446343
0.198596 0.381661 0.229883
0.232786 0.400826 0.244425
0.268728 0.420414 0.259412
0.306424 0.440426 0.274844
0.345871 0.461018 0.290721
0.387071 0.482679 0.307042
0.430024 0.503916 0.323809
0.474729 0.524729 0.341020
0.520774 0.545118 0.358677
0.565084 0.565084 0.376778
0.607641 0.584626 0.395324
0.648446 0.603744 0.414316
0.687499 0.622438 0.433752
0.724799 0.640709 0.453633
0.760346 0.658556 0.473959
0.794141 0.675979 0.494730
0.826184 0.692978 0.515946
0.244636 0.474448 0.280572
0.282487 0.495713 0.296611
0.322090 0.516555 0.313095
0.363446 0.536973 0.330023
0.406554 0.556968 0.347397
0.451414 0.576538 0.365215
0.498027 0.595685 0.383479
0.546087 0.614409 0.402187
0.588489 0.632708 0.421340
0.629139 0.650584 0.440938
0.668036 0.668036 0.460981
0.705180 0.685064 0.481469
0.740572 0.701669 0.502402
0.774212 0.717849 0.523780
0.806099 0.733606 0.545603
0.836233 0.748940 0.567871
0.864616 0.763849 0.590583
0.295472 0.569491 0.336297
0.336983 0.588667 0.353832
0.380247 0.607419 0.371813
0.425263 0.625747 0.390238
0.472031 0.643652 0.409108
0.520553 0.661132 0.428424
0.570826 0.678190 0.448184
0.612668 0.694823 0.468389
0.651409 0.711033 0.489039
0.688398 0.726818 0.510134
0.723635 0.742181 0.531673
0.757119 0.757119 0.553658
0.788851 0.771634 0.576088
0.818830 0.785725 0.598962
0.847056 0.799392 0.622282
0.873530 0.812635 0.646046
0.898252 0.825455 0.670256
0.351104 0.655269 0.397057
0.396275 0.672355 0.416089
0.443199 0.689017 0.435566
0.491876 0.705255 0.455488
0.542305 0.721070 0.475855
0.594486 0.736461 0.496667
0.637620 0.751428 0.517924
0.674453 0.765972 0.539626
0.709534 0.780092 0.561773
0.742863 0.793788 0.584364
0.774439 0.807060 0.607401
0.804262 0.819909 0.630882
0.832333 0.832333 0.654809
0.858652 0.844334 0.679180
0.883218 0.855912 0.703996
0.906032 0.867065 0.729257
0.927093 0.877795 0.754964
0.411530 0.731781 0.462852
0.460362 0.746778 0.483381
0.510947 0.761350 0.504354
0.563284 0.775498 0.525773
0.617374 0.789223 0.547637
0.663344 0.802524 0.569946
0.698270 0.815402 0.592699
0.731443 0.827855 0.615898
0.762864 0.839885 0.639541
0.792532 0.851492 0.663630
0.820447 0.862674 0.688163
0.846610 0.873433 0.713141
0.871021 0.883768 0.738565
0.893679 0.893679 0.764433
0.914584 0.903166 0.790746
0.933738 0.912230 0.817504
0.951138 0.920870 0.839787
0.476753 0.799029 0.533682
0.529245 0.811935 0.555707
0.583490 0.824417 0.578178
0.639488 0.836476 0.601094
0.689842 0.848111 0.624454
0.722860 0.859322 0.648260
0.754125 0.870110 0.672510
0.783637 0.880474 0.697205
0.811397 0.890414 0.722346
0.837405 0.899930 0.747931
0.861660 0.909023 0.773961
0.884163 0.917691 0.800436
0.904913 0.925936 0.827356
0.923910 0.933758 0.846027
0.941155 0.941155 0.862864
0.956648 0.948129 0.879255
0.970388 0.954679 0.895201
0.546770 0.857010 0.609547
0.602923 0.867827 0.633069
0.660829 0.878219 0.657037
0.717113 0.888188 0.681449
0.748223 0.897733 0.706307
0.777580 0.906855 0.731609
0.805184 0.915552 0.757356
0.831036 0.923826 0.783548
0.855136 0.931677 0.810185
0.877483 0.939103 0.835089
0.898078 0.946106 0.852208
0.916920 0.952685 0.868883
0.934009 0.958840 0.885112
0.949346 0.964571 0.900896
0.962931 0.969879 0.916236
0.974763 0.974763 0.931130
0.984843 0.979223 0.945580
0.621583 0.905727 0.690447
0.681397 0.914453 0.715467
0.742963 0.922756 0.740931
0.774359 0.930635 0.766840
0.801808 0.938090 0.793194
0.827504 0.945122 0.819993
0.851448 0.951730 0.841373
0.873640 0.957914 0.858330
0.894079 0.963674 0.874843
0.912766 0.969011 0.890910
0.929700 0.973923 0.906532
0.944881 0.978413 0.921710
0.958310 0.982478 0.936442
0.969987 0.986120 0.950730
0.979911 0.989337 0.964573
0.988083 0.992132 0.977970
0.994502 0.994502 0.990923
0.000098 0.000098 0.001050
0.001713 0.000597 0.002970
0.005081 0.001521 0.005335
0.010201 0.002868 0.008145
0.017074 0.004639 0.011399
0.025699 0.006834 0.015099
0.036077 0.009452 0.019243
0.048207 0.012494 0.023833
0.062090 0.015960 0.028867
0.077725 0.019849 0.034346
0.095113 0.024163 0.040270
0.114253 0.028900 0.046639
0.135146 0.034061 0.053453
0.157791 0.039645 0.060712
0.182188 0.045653 0.068416
0.208341 0.052085 0.076565
0.272959 0.058941 0.085159
0.003464 0.006150 0.009278
0.008739 0.008739 0.012695
0.015768 0.011753 0.016556
0.024548 0.015190 0.020863
0.035082 0.019050 0.025614
0.047367 0.023335 0.030810
0.061406 0.028043 0.036451
0.077196 0.033175 0.042538
0.094740 0.038731 0.049069
0.114035 0.044710 0.056045
0.135083 0.051113 0.063466
0.157884 0.057940 0.071332
0.182437 0.065191 0.079642
0.208743 0.072865 0.088398
0.236801 0.080964 0.097599
0.293108 0.089485 0.107244
0.354065 0.098431 0.117335
0.011625 0.021467 0.022541
0.020561 0.026147 0.027454
0.031250 0.031250 0.032813
0.043691 0.036777 0.038616
0.057885 0.042727 0.044864
0.073831 0.049102 0.051557
0.091530 0.055900 0.058695
0.110981 0.063122 0.066278
0.132185 0.070767 0.074306
0.155141 0.078837 0.082778
0.179850 0.087330 0.091696
0.206311 0.096246 0.101059
0.234524 0.105587 0.110866
0.264491 0.115351 0.121119
0.314031 0.125539 0.131816
0.373080 0.136151 0.142958
0.430376 0.147186 0.154546
0.024582 0.046050 0.040839
0.037178 0.052820 0.047249
0.051528 0.060013 0.054104
0.067629 0.067629 0.061404
0.085484 0.075670 0.069149
0.105090 0.084134 0.077339
0.126450 0.093022 0.085974
0.149561 0.102334 0.095053
0.174425 0.112069 0.104578
0.201042 0.122228 0.114547
0.229411 0.132811 0.124962
0.259533 0.143818 0.135821
0.291407 0.155248 0.147125
0.335726 0.167102 0.158875
0.392867 0.179380 0.171069
0.448256 0.192082 0.183708
0.501892 0.205207 0.196792
0.042334 0.079899 0.064172
0.058591 0.088758 0.072079
0.076601 0.098041 0.080431
0.096363 0.107747 0.089228
0.117878 0.117878 0.098469
0.141145 0.128432 0.108156
0.166165 0.139410 0.118287
0.192937 0.150811 0.128864
0.221461 0.162636 0.139885
0.251739 0.174885 0.151351
0.283768 0.187558 0.163263
0.317550 0.200655 0.175619
0.358195 0.214175 0.188420
0.413428 0.228119 0.201666
0.466908 0.242487 0.215357
0.518636 0.257278 0.229492
0.568612 0.272493 0.244073
0.064881 0.123013 0.092541
0.084799 0.133962 0.101944
0.106469 0.145334 0.111793
0.129892 0.157131 0.122086
0.155067 0.169351 0.132825
0.181995 0.181995 0.144008
0.210675 0.195063 0.155636
0.241108 0.208554 0.167710
0.273293 0.222469 0.180228
0.307230 0.236808 0.193191
0.342921 0.251571 0.206599
0.381437 0.266757 0.220452
0.434762 0.282367 0.234749
0.486334 0.298401 0.249492
0.536154 0.314858 0.264680
0.584222 0.331740 0.280312
0.630536 0.349045 0.296390
0.092224 0.175392 0.125944
0.115803 0.188431 0.136845
0.141133 0.201893 0.148190
0.168217 0.215780 0.159980
0.197052 0.230090 0.172215
0.227640 0.244823 0.184895
0.259981 0.259981 0.198021
0.294074 0.275562 0.211590
0.329920 0.291567 0.225605
0.367518 0.307996 0.240065
0.406868 0.324848 0.254970
0.456869 0.342125 0.270319
0.506533 0.359825 0.286114
0.554445 0.377948 0.302354
0.600604 0.396496 0.319038
0.645011 0.415467 0.336167
0.687666 0.434862 0.353742
0.124363 0.237037 0.164383
0.151602 0.252165 0.176780
0.180593 0.267718 0.189622
0.211336 0.283694 0.202909
0.243833 0.300094 0.216641
0.278081 0.316917 0.230818
0.314082 0.334165 0.245440
0.351836 0.351836 0.260507
0.391342 0.369931 0.276018
0.432601 0.388449 0.291975
0.479748 0.407392 0.308376
0.527505 0.426758 0.325223
0.573509 0.446548 0.342514
0.617760 0.466761 0.360250
0.660259 0.487398 0.378431
0.701006 0.508459 0.397057
0.740000 0.529944 0.416129
0.161297 0.307947 0.207857
0.192196 0.325165 0.221751
0.224847 0.342807 0.236090
0.259252 0.360874 0.250874
0.295408 0.379363 0.266102
0.333317 0.398277 0.281776
0.372979 0.417614 0.297894
0.414393 0.437375 0.314458
0.457560 0.457560 0.331466
0.503401 0.478168 0.348920
0.549250 0.499200 0.366818
0.593346 0.520264 0.385161
0.635689 0.540904 0.403949
0.676280 0.561121 0.423182
0.715119 0.580914 0.442860
0.752205 0.600283 0.462983
0.787538 0.619228 0.483551
0.203026 0.388122 0.256366
0.237586 0.407431 0.271757
0.273898 0.427163 0.287593
0.311962 0.447319 0.303873
0.351779 0.468422 0.320599
0.393349 0.489938 0.337769
0.436671 0.511031 0.355384
0.481746 0.531701 0.373444
0.527827 0.551946 0.391950
0.571768 0.571768 0.410900
0.613956 0.591166 0.430295
0.654391 0.610140 0.450135
0.693074 0.628690 0.470419
0.730005 0.646817 0.491149
0.765183 0.664520 0.512324
0.798608 0.681799 0.533943
0.830281 0.698655 0.556008
0.249551 0.481717 0.309911
0.287771 0.502839 0.326798
0.327743 0.523537 0.344130
0.369468 0.543811 0.361908
0.412946 0.563661 0.380130
0.458176 0.583088 0.398797
0.505159 0.602091 0.417909
0.553026 0.620671 0.437466
0.595059 0.638826 0.457468
0.635339 0.656558 0.477915
0.673866 0.673866 0.498807
0.710641 0.690751 0.520143
0.745664 0.707211 0.541925
0.778934 0.723248 0.564151
0.810451 0.738861 0.586823
0.840216 0.754051 0.609939
0.868229 0.768816 0.633500
0.300871 0.576051 0.368490
0.342751 0.595083 0.386874
0.386384 0.613691 0.405704
0.431770 0.631875 0.424978
0.478908 0.649636 0.444697
0.527799 0.666973 0.464860
0.578442 0.683886 0.485469
0.619123 0.700375 0.506523
0.657495 0.716441 0.528022
0.694114 0.732083 0.549965
0.728981 0.747301 0.572354
0.762096 0.762096 0.595187
0.793458 0.776467 0.618465
0.823067 0.790414 0.642189
0.850924 0.803937 0.666357
0.877029 0.817036 0.690970
0.901381 0.829712 0.716028
0.356986 0.661119 0.432105
0.402527 0.678061 0.451986
0.449821 0.694579 0.472312
0.498867 0.710674 0.493083
0.549665 0.726345 0.514298
0.602216 0.741592 0.535959
0.643960 0.756415 0.558065
0.680424 0.770815 0.580615
0.715135 0.784790 0.603610
0.748094 0.798343 0.627051
0.779301 0.811471 0.650936
0.808755 0.824176 0.675266
0.836456 0.836456 0.700041
0.862406 0.848314 0.725261
0.886602 0.859747 0.750926
0.909046 0.870757 0.777036
0.929738 0.881343 0.798373
0.417897 0.736922 0.500755
0.467099 0.751774 0.522133
0.518053 0.766202 0.543955
0.570759 0.780207 0.566223
0.625218 0.793788 0.588935
0.669570 0.806945 0.612093
0.704126 0.819679 0.635695
0.736930 0.831988 0.659742
0.767981 0.843874 0.684234
0.797279 0.855337 0.709172
0.824825 0.866375 0.734554
0.850619 0.876990 0.760380
0.874660 0.887181 0.786652
0.896948 0.896948 0.804849
0.917484 0.906292 0.822333
0.936268 0.915212 0.839372
0.953299 0.923708 0.855967
0.483603 0.803459 0.574440
0.536465 0.816221 0.597315
0.591080 0.828560 0.620634
0.647447 0.840475 0.644398
0.695953 0.851966 0.668607
0.728601 0.863033 0.693262
0.759497 0.873677 0.718361
0.788640 0.883897 0.743905
0.816030 0.893693 0.769894
0.841669 0.903065 0.793499
0.865554 0.912014 0.811266
0.887687 0.920539 0.828588
0.908068 0.928640 0.845465
0.926696 0.936318 0.861898
0.943571 0.943571 0.877885
0.958694 0.950401 0.893428
0.972065 0.956808 0.908526
0.554105 0.860731 0.653160
0.610628 0.871404 0.677532
0.668903 0.881652 0.702348
0.723110 0.891477 0.727609
0.753850 0.900879 0.753315
0.782837 0.909856 0.779466
0.810072 0.918410 0.800018
0.835555 0.926540 0.817624
0.859285 0.934246 0.834784
0.881262 0.941529 0.851499
0.901487 0.948387 0.867770
0.919960 0.954823 0.883595
0.936680 0.960834 0.898976
0.951648 0.966421 0.913912
0.964863 0.971585 0.928402
0.976325 0.976325 0.942448
0.986036 0.980642 0.956049
0.629402 0.908738 0.736916
0.689585 0.917320 0.762784
0.751039 0.925479 0.788591
0.779871 0.933214 0.806479
0.806951 0.940526 0.823923
0.832278 0.947413 0.840921
0.855852 0.953877 0.857474
0.877674 0.959917 0.873583
0.897744 0.965534 0.889246
0.916061 0.970727 0.904465
0.932626 0.975496 0.919239
0.947438 0.979841 0.933568
0.960497 0.983762 0.947451
0.971804 0.987260 0.960890
0.981359 0.990334 0.973884
0.989161 0.992984 0.986433
0.995211 0.995211 0.998538
0.000220 0.000220 0.002363
0.002205 0.000863 0.005132
0.005942 0.001931 0.008345
0.011432 0.003422 0.012003
0.018674 0.005337 0.016107
0.027669 0.007675 0.020655
0.038416 0.010437 0.025648
0.050916 0.013623 0.031086
0.065168 0.017233 0.036969
0.081173 0.021267 0.043297
0.098930 0.025724 0.050070
0.118440 0.030605 0.057288
0.139702 0.035910 0.064951
0.162717 0.041638 0.073058
0.187484 0.047790 0.081611
0.217116 0.054366 0.090608
0.281364 0.061366 0.100051
