dist/luts/teal_orange.cube
# Video Color Grader Preset
TITLE "Teal & Orange"
LUT_3D_SIZE 9
DOMAIN_MIN 0.0 0.0 0.0
DOMAIN_MAX 1.0 1.0 1.0
0.000000 0.007200 0.258000
0.000000 0.004408 0.242375
0.059674 0.002006 0.226197
0.214183 0.000000 0.209770
0.369057 0.000000 0.193204
0.524220 0.000000 0.176564
0.679621 0.000000 0.159894
0.835223 0.000000 0.143226
0.990996 0.000000 0.126587
0.000000 0.139170 0.203751
0.000000 0.137366 0.187152
0.097186 0.135772 0.170497
0.252665 0.134375 0.153824
0.408332 0.133164 0.137164
0.564161 0.132132 0.120541
0.720128 0.131272 0.103976
0.876215 0.130580 0.087485
1.000000 0.130051 0.071084
0.000000 0.273913 0.147756
0.000000 0.272768 0.131107
0.137344 0.271799 0.114503
0.293357 0.271001 0.097963
0.449483 0.270369 0.081503
0.605708 0.269899 0.065137
0.762016 0.269587 0.048880
0.918395 0.269432 0.032742
1.000000 0.269430 0.016736
0.000000 0.410752 0.091960
0.022764 0.410179 0.075533
0.179021 0.409767 0.059206
0.335356 0.409513 0.042991
0.491759 0.409413 0.026899
0.648218 0.409467 0.010943
0.804723 0.409670 0.000000
0.961264 0.410023 0.000000
1.000000 0.410524 0.000000
0.000000 0.549459 0.037117
0.065130 0.549415 0.021074
0.221606 0.549523 0.005169
0.378126 0.549782 0.000000
0.534679 0.550189 0.000000
0.691257 0.550742 0.000000
0.847851 0.551442 0.000000
1.000000 0.552287 0.000000
1.000000 0.553276 0.000000
0.000000 0.689913 0.000000
0.108097 0.690373 0.000000
0.264681 0.690980 0.000000
0.421280 0.691733 0.000000
0.577885 0.692631 0.000000
0.734488 0.693672 0.000000
0.891083 0.694858 0.000000
1.000000 0.696186 0.000000
1.000000 0.697658 0.000000
0.000000 0.832043 0.000000
0.151315 0.832993 0.000000
0.307916 0.834087 0.000000
0.464506 0.835325 0.000000
0.621077 0.836706 0.000000
0.777623 0.838229 0.000000
0.934136 0.839897 0.000000
1.000000 0.841707 0.000000
1.000000 0.843662 0.000000
0.037926 0.975811 0.000000
0.194489 0.977244 0.000000
0.351024 0.978820 0.000000
0.507523 0.980539 0.000000
0.663980 0.982402 0.000000
0.820386 0.984410 0.000000
0.976734 0.986563 0.000000
1.000000 0.988863 0.000000
1.000000 0.991310 0.000000
0.080905 1.000000 0.000000
0.237344 1.000000 0.000000
0.393730 1.000000 0.000000
0.550054 1.000000 0.000000
0.706309 1.000000 0.000000
0.862484 1.000000 0.000000
1.000000 1.000000 0.000000
1.000000 1.000000 0.000000
1.000000 1.000000 0.000000
0.000000 0.006189 0.390307
0.000000 0.003557 0.374420
0.063280 0.001256 0.358139
0.217924 0.000000 0.341656
0.372903 0.000000 0.325059
0.528152 0.000000 0.308404
0.683626 0.000000 0.291732
0.839289 0.000000 0.275071
0.995114 0.000000 0.258447
0.000000 0.138533 0.335623
0.000000 0.136802 0.319000
0.101146 0.135276 0.302335
0.256692 0.133943 0.285663
0.412417 0.132794 0.269014
0.568295 0.131821 0.252408
0.724305 0.131018 0.235866
0.880429 0.130382 0.219404
1.000000 0.129908 0.203036
0.000000 0.273504 0.279598
0.000000 0.272419 0.262962
0.141494 0.271509 0.246378
0.297548 0.270768 0.229863
0.453709 0.270191 0.213434
0.609964 0.269775 0.197104
0.766297 0.269517 0.180886
0.922698 0.269414 0.164791
1.000000 0.269463 0.148831
0.000000 0.410539 0.223871
0.027002 0.410021 0.207476
0.183286 0.409663 0.191186
0.339646 0.409462 0.175011
0.496069 0.409414 0.158965
0.652545 0.409519 0.143056
0.809063 0.409774 0.127295
0.965615 0.410177 0.111692
1.000000 0.410727 0.096254
0.000000 0.549427 0.169154
0.069446 0.549435 0.153156
0.225939 0.549594 0.137300
0.382471 0.549903 0.121596
0.539033 0.550360 0.106052
0.695617 0.550964 0.090677
0.852216 0.551713 0.075481
1.000000 0.552607 0.060472
1.000000 0.553645 0.045659
0.000000 0.690053 0.115918
0.112453 0.690563 0.100434
0.269044 0.691220 0.085124
0.425645 0.692022 0.069995
0.582251 0.692968 0.055056
0.738852 0.694059 0.040316
0.895442 0.695293 0.025783
1.000000 0.696670 0.011466
1.000000 0.698190 0.000000
0.000000 0.832350 0.064534
0.155680 0.833349 0.049666
0.312278 0.834491 0.035001
0.468863 0.835778 0.020545
0.625426 0.837207 0.006308
0.781962 0.838780 0.000000
0.938462 0.840495 0.000000
1.000000 0.842355 0.000000
1.000000 0.844359 0.000000
0.042280 0.976281 0.015336
0.198835 0.977763 0.001182
0.355358 0.979388 0.000000
0.511844 0.981156 0.000000
0.668284 0.983068 0.000000
0.824671 0.985125 0.000000
0.980998 0.987328 0.000000
1.000000 0.989677 0.000000
1.000000 0.992176 0.000000
0.085219 1.000000 0.000000
0.241641 1.000000 0.000000
0.398008 1.000000 0.000000
0.554309 1.000000 0.000000
0.710538 1.000000 0.000000
0.866683 1.000000 0.000000
1.000000 1.000000 0.000000
1.000000 1.000000 0.000000
1.000000 1.000000 0.000000
0.000000 0.005250 0.522479
0.000000 0.002743 0.506422
0.066937 0.000536 0.490059
0.221704 0.000000 0.473529
0.376780 0.000000 0.456907
0.532110 0.000000 0.440243
0.687652 0.000000 0.423571
0.843372 0.000000 0.406920
0.999247 0.000000 0.390314
0.000000 0.137921 0.467485
0.000000 0.136262 0.450843
0.105130 0.134803 0.434172
0.260740 0.133533 0.417505
0.416520 0.132444 0.400868
0.572445 0.131529 0.384283
0.728496 0.130784 0.367766
0.884655 0.130203 0.351334
1.000000 0.129784 0.335002
0.000000 0.273116 0.411444
0.000000 0.272091 0.394823
0.145660 0.271239 0.378261
0.301752 0.270554 0.361773
0.457946 0.270032 0.345376
0.614229 0.269670 0.329083
0.770587 0.269465 0.312906
0.927008 0.269414 0.296856
1.000000 0.269515 0.280943
0.000000 0.410345 0.355792
0.031249 0.409882 0.339432
0.187561 0.409577 0.323179
0.343943 0.409428 0.307047
0.500385 0.409433 0.291046
0.656876 0.409589 0.275186
0.813407 0.409894 0.259478
0.969969 0.410347 0.243930
1.000000 0.410947 0.228551
0.000000 0.549412 0.301206
0.073769 0.549472 0.285255
0.230275 0.549683 0.269450
0.386819 0.550042 0.253798
0.543389 0.550549 0.238311
0.699980 0.551202 0.222996
0.856581 0.552000 0.207863
1.000000 0.552943 0.192919
1.000000 0.554030 0.178174
0.000000 0.690209 0.248141
0.116812 0.690770 0.232715
0.273407 0.691476 0.217465
0.430011 0.692327 0.202400
0.586616 0.693323 0.187528
0.743214 0.694462 0.172857
0.899799 0.695744 0.158396
1.000000 0.697170 0.144154
1.000000 0.698739 0.130140
0.003441 0.832673 0.196963
0.160045 0.833721 0.182163
0.316639 0.834912 0.167567
0.473217 0.836247 0.153185
0.629772 0.837725 0.139025
0.786296 0.839346 0.125096
0.942783 0.841111 0.111408
1.000000 0.843020 0.097970
1.000000 0.845073 0.084794
0.046632 0.976769 0.148004
0.203176 0.978299 0.133927
0.359688 0.979972 0.120084
0.516159 0.981789 0.106486
0.672582 0.983750 0.093142
0.828950 0.985857 0.080064
0.985253 0.988109 0.067263
1.000000 0.990509 0.054753
1.000000 0.993058 0.042549
0.089529 1.000000 0.101598
0.245933 1.000000 0.088350
0.402278 1.000000 0.075371
0.558556 1.000000 0.062674
0.714757 1.000000 0.050274
0.870872 1.000000 0.038185
1.000000 1.000000 0.026427
1.000000 1.000000 0.015024
1.000000 1.000000 0.004006
0.000000 0.004360 0.654574
0.000000 0.001964 0.638390
0.070639 0.000000 0.621959
0.225519 0.000000 0.605392
0.380687 0.000000 0.588751
0.536093 0.000000 0.572080
0.691698 0.000000 0.555413
0.847474 0.000000 0.538775
1.000000 0.000000 0.522187
0.000000 0.137335 0.599339
0.000000 0.135744 0.582683
0.109137 0.134350 0.566010
0.264808 0.133143 0.549351
0.420639 0.132114 0.532729
0.576609 0.131257 0.516165
0.732698 0.130569 0.499675
0.888891 0.130043 0.483276
1.000000 0.129677 0.466980
0.000000 0.272748 0.543294
0.000000 0.271782 0.526691
0.149839 0.270988 0.510152
0.305967 0.270358 0.493694
0.462193 0.269891 0.477331
0.618503 0.269583 0.461075
0.774883 0.269430 0.444940
0.931324 0.269431 0.428936
1.000000 0.269583 0.413073
0.000000 0.410170 0.487725
0.035507 0.409761 0.471399
0.191843 0.409509 0.455187
0.348247 0.409413 0.439098
0.504707 0.409469 0.423144
0.661213 0.409676 0.407334
0.817755 0.410031 0.391679
0.974326 0.410535 0.376188
1.000000 0.411184 0.360869
0.000000 0.549416 0.433273
0.078096 0.549527 0.417371
0.234616 0.549788 0.401617
0.391170 0.550198 0.386020
0.547748 0.550754 0.370590
0.704343 0.551457 0.355336
0.860947 0.552305 0.340266
1.000000 0.553296 0.325389
1.000000 0.554432 0.310713
0.000000 0.690383 0.380383
0.121173 0.690993 0.365016
0.277772 0.691749 0.349828
0.434377 0.692649 0.334827
0.590980 0.693693 0.320022
0.747575 0.694881 0.305422
0.904153 0.696213 0.291034
1.000000 0.697687 0.276869
1.000000 0.699305 0.262934
0.007807 0.833013 0.329414
0.164408 0.834109 0.314683
0.320997 0.835349 0.300159
0.477568 0.836733 0.285851
0.634114 0.838259 0.271768
0.790626 0.839929 0.257920
0.947098 0.841743 0.244316
1.000000 0.843701 0.230966
1.000000 0.845803 0.217881
0.050980 0.977272 0.280697
0.207514 0.978851 0.266699
0.364013 0.980573 0.252938
0.520469 0.982439 0.239425
0.676874 0.984449 0.226171
0.833221 0.986605 0.213185
0.989500 0.988907 0.200481
1.000000 0.991358 0.188073
1.000000 0.993959 0.175977
0.093832 1.000000 0.234569
0.250217 1.000000 0.221411
0.406540 1.000000 0.208527
0.562793 1.000000 0.195929
0.718967 1.000000 0.183632
0.875049 1.000000 0.171654
1.000000 1.000000 0.160013
1.000000 1.000000 0.148737
1.000000 1.000000 0.137860
0.000000 0.003511 0.786616
0.000000 0.001216 0.770331
0.074382 0.000000 0.753845
0.229367 0.000000 0.737246
0.384621 0.000000 0.720591
0.540098 0.000000 0.703918
0.695764 0.000000 0.687258
0.851592 0.000000 0.670635
1.000000 0.000000 0.654069
0.000000 0.136772 0.731187
0.000000 0.135250 0.714521
0.113166 0.133920 0.697850
0.268894 0.132774 0.681201
0.424775 0.131804 0.664596
0.580787 0.131005 0.648056
0.736913 0.130372 0.631595
0.893137 0.129901 0.615230
1.000000 0.129589 0.598972
0.000000 0.272401 0.675149
0.000000 0.271494 0.658566
0.154031 0.270756 0.642053
0.310194 0.270182 0.625625
0.466450 0.269769 0.609297
0.622785 0.269514 0.593082
0.779187 0.269413 0.576990
0.935646 0.269466 0.561032
1.000000 0.269669 0.545219
0.000000 0.410013 0.619669
0.039773 0.409658 0.603380
0.196134 0.409459 0.587208
0.352558 0.409415 0.571164
0.509034 0.409522 0.555258
0.665554 0.409780 0.539500
0.822107 0.410186 0.523900
0.978684 0.410739 0.508466
1.000000 0.411438 0.493207
0.000000 0.549437 0.565357
0.082429 0.549599 0.549503
0.238961 0.549911 0.533802
0.395524 0.550370 0.518261
0.552109 0.550977 0.502890
0.708708 0.551728 0.487697
0.865312 0.552625 0.472692
1.000000 0.553666 0.457882
1.000000 0.554851 0.443276
0.000000 0.690574 0.512645
0.125536 0.691233 0.497338
0.282137 0.692038 0.482212
0.438742 0.692988 0.467277
0.595344 0.694081 0.452541
0.751934 0.695317 0.438011
0.908505 0.696697 0.423698
1.000000 0.698220 0.409610
1.000000 0.699887 0.395756
0.012172 0.833369 0.461889
0.168770 0.834514 0.447227
0.325354 0.835803 0.432775
0.481917 0.837235 0.418543
0.638452 0.838811 0.404539
0.794951 0.840529 0.390772
0.951408 0.842392 0.377253
1.000000 0.844398 0.363992
1.000000 0.846551 0.350999
0.055325 0.977792 0.413417
0.211848 0.979420 0.399499
0.368333 0.981191 0.385821
0.524772 0.983105 0.372395
0.681159 0.985165 0.359230
0.837484 0.987370 0.346339
0.993739 0.989723 0.333734
1.000000 0.992224 0.321429
1.000000 0.994877 0.309443
0.098129 1.000000 0.367571
0.254494 1.000000 0.354504
0.410795 1.000000 0.341716
0.567022 1.000000 0.329218
0.723166 1.000000 0.317028
0.879215 1.000000 0.305162
1.000000 1.000000 0.293642
1.000000 1.000000 0.282496
1.000000 1.000000 0.271765
0.000000 0.002699 0.918616
0.000000 0.000497 0.902249
0.078164 0.000000 0.885717
0.233246 0.000000 0.869094
0.388580 0.000000 0.852429
0.544125 0.000000 0.835757
0.699849 0.000000 0.819108
0.855726 0.000000 0.802502
1.000000 0.000000 0.785959
0.000000 0.136233 0.863030
0.000000 0.134777 0.846359
0.117215 0.133510 0.829692
0.272998 0.132425 0.813056
0.428925 0.131514 0.796471
0.584978 0.130772 0.779956
0.741139 0.130194 0.763526
0.897393 0.129777 0.747196
1.000000 0.129518 0.730977
0.000000 0.272073 0.807011
0.002141 0.271224 0.790450
0.158235 0.270542 0.773964
0.314431 0.270024 0.757569
0.470715 0.269665 0.741277
0.627075 0.269462 0.725102
0.783497 0.269414 0.709055
0.939973 0.269518 0.693145
1.000000 0.269772 0.677384
0.000000 0.409875 0.751625
0.044048 0.409573 0.735375
0.200431 0.409427 0.719245
0.356874 0.409435 0.703246
0.513367 0.409593 0.687389
0.669898 0.409901 0.671684
0.826461 0.410357 0.656139
0.983045 0.410960 0.640764
1.000000 0.411708 0.625567
0.000000 0.549475 0.697456
0.086766 0.549688 0.681654
0.243310 0.550050 0.666006
0.399881 0.550560 0.650521
0.556471 0.551216 0.635210
0.713073 0.552017 0.620080
0.869678 0.552963 0.605140
1.000000 0.554052 0.590399
1.000000 0.555285 0.575864
0.000000 0.690782 0.644927
0.129899 0.691491 0.629680
0.286503 0.692344 0.614618
0.443108 0.693343 0.599750
0.599706 0.694485 0.585083
0.756290 0.695770 0.570626
0.912854 0.697199 0.556388
1.000000 0.698770 0.542378
1.000000 0.700485 0.528606
0.016536 0.833742 0.594386
0.173130 0.834936 0.579795
0.329708 0.836273 0.565417
0.486262 0.837754 0.551261
0.642786 0.839378 0.537336
0.799272 0.841145 0.523653
0.955713 0.843057 0.510220
1.000000 0.845113 0.497049
1.000000 0.847315 0.484150
0.059667 0.978329 0.546164
0.216178 0.980005 0.532326
0.372648 0.981825 0.518733
0.529070 0.983789 0.505394
0.685437 0.985898 0.492321
0.841739 0.988153 0.479525
0.997968 0.990555 0.467020
1.000000 0.993108 0.454822
1.000000 0.995812 0.442948
0.102420 1.000000 0.500603
0.258764 1.000000 0.487629
0.415041 1.000000 0.474938
0.571241 1.000000 0.462543
0.727354 1.000000 0.450461
0.883367 1.000000 0.438709
1.000000 1.000000 0.427313
1.000000 1.000000 0.416303
1.000000 1.000000 0.405726
0.000000 0.001921 1.000000
0.000000 0.000000 1.000000
0.081981 0.000000 1.000000
0.237154 0.000000 1.000000
0.392564 0.000000 0.984266
0.548173 0.000000 0.967599
0.703952 0.000000 0.950962
0.859876 0.000000 0.934376
1.000000 0.000000 0.917859
0.000000 0.135716 0.994869
0.000000 0.134326 0.978197
0.121284 0.133122 0.961538
0.277118 0.132096 0.944917
0.433090 0.131243 0.928354
0.589182 0.130557 0.911866
0.745376 0.130035 0.895468
0.901658 0.129672 0.879174
1.000000 0.129466 0.862997
0.000000 0.271766 0.938879
0.006321 0.270974 0.922342
0.162451 0.270348 0.905885
0.318679 0.269884 0.889524
0.474990 0.269579 0.873271
0.631372 0.269429 0.857138
0.787813 0.269433 0.841136
0.944304 0.269587 0.825276
1.000000 0.269892 0.809566
0.000000 0.409755 0.883593
0.048331 0.409506 0.867383
0.204736 0.409413 0.851296
0.361197 0.409471 0.835345
0.517703 0.409681 0.819538
0.674246 0.410039 0.803886
0.830817 0.410545 0.788398
0.987407 0.411198 0.773082
1.000000 0.411996 0.757948
0.000000 0.549530 0.829573
0.091107 0.549794 0.813822
0.247661 0.550207 0.798228
0.404240 0.550766 0.782802
0.560835 0.551471 0.767551
0.717439 0.552322 0.752485
0.874043 0.553317 0.737611
1.000000 0.554455 0.722939
1.000000 0.555737 0.708477
0.000000 0.691006 0.777229
0.134264 0.691764 0.762044
0.290869 0.692667 0.747047
0.447472 0.693714 0.732246
0.604066 0.694905 0.717649
0.760645 0.696239 0.703266
0.917199 0.697716 0.689104
1.000000 0.699337 0.675174
1.000000 0.701101 0.661484
0.020900 0.834131 0.726907
0.177489 0.835374 0.712387
0.334059 0.836760 0.698084
0.490604 0.838290 0.684006
0.647116 0.839962 0.670162
0.803587 0.841778 0.656562
0.960011 0.843739 0.643217
1.000000 0.845844 0.630137
1.000000 0.848096 0.617335
0.064004 0.978882 0.678938
0.220502 0.980607 0.665182
0.376957 0.982475 0.651674
0.533361 0.984489 0.638424
0.689707 0.986647 0.625443
0.845985 0.988952 0.612745
1.000000 0.991405 0.600343
1.000000 0.994009 0.588252
1.000000 0.996766 0.576493
0.106704 1.000000 0.633666
0.263026 1.000000 0.620787
0.419278 1.000000 0.608195
0.575450 1.000000 0.595904
0.731530 1.000000 0.583932
0.887507 1.000000 0.572298
1.000000 1.000000 0.561029
1.000000 1.000000 0.550159
1.000000 1.000000 0.539746
0.000000 0.001175 1.000000
0.000000 0.000000 1.000000
0.085831 0.000000 1.000000
0.241089 0.000000 1.000000
0.396571 0.000000 1.000000
0.552240 0.000000 1.000000
0.708071 0.000000 1.000000
0.864040 0.000000 1.000000
1.000000 0.000000 1.000000
0.000000 0.135223 1.000000
0.000000 0.133897 1.000000
0.125371 0.132754 1.000000
0.281254 0.131787 1.000000
0.437269 0.130992 1.000000
0.593397 0.130362 1.000000
0.749622 0.129894 1.000000
0.905932 0.129584 1.000000
1.000000 0.129431 0.995031
0.000000 0.271478 1.000000
0.010513 0.270743 1.000000
0.166678 0.270173 1.000000
0.322936 0.269763 1.000000
0.479272 0.269510 1.000000
0.635676 0.269413 0.989188
0.792135 0.269468 0.973233
0.948641 0.269674 0.957423
1.000000 0.270029 0.941767
0.000000 0.409653 1.000000
0.052622 0.409457 0.999405
0.209047 0.409416 0.983363
0.365524 0.409526 0.967460
0.522044 0.409786 0.951705
0.678598 0.410195 0.936108
0.835176 0.410751 0.920677
0.991771 0.411452 0.905422
1.000000 0.412299 0.890351
0.000000 0.549603 0.961707
0.095452 0.549918 0.946008
0.252015 0.550380 0.930470
0.408601 0.550989 0.915102
0.565199 0.551744 0.899913
0.721804 0.552643 0.884911
0.878408 0.553687 0.870105
1.000000 0.554874 0.855504
1.000000 0.556205 0.841115
0.000000 0.691247 0.909551
0.138629 0.692055 0.894429
0.295234 0.693007 0.879498
0.451835 0.694103 0.864765
0.608425 0.695342 0.850240
0.764996 0.696725 0.835931
0.921542 0.698250 0.821847
1.000000 0.699920 0.807998
1.000000 0.701732 0.794392
0.025262 0.834537 0.859453
0.181845 0.835829 0.845005
0.338408 0.837264 0.830777
0.494942 0.838842 0.816777
0.651441 0.840563 0.803015
0.807897 0.842428 0.789501
0.964303 0.844438 0.776245
1.000000 0.846592 0.763258
1.000000 0.848894 0.750552
0.068338 0.979452 0.811739
0.224822 0.981225 0.798066
0.381261 0.983143 0.784644
0.537646 0.985205 0.771485
0.693970 0.987413 0.758599
0.850223 0.989769 0.745999
1.000000 0.992273 0.733701
1.000000 0.994928 0.721720
1.000000 0.997738 0.710078
0.110981 1.000000 0.766761
0.267280 1.000000 0.753978
0.423506 1.000000 0.741486
0.579648 1.000000 0.729301
0.735695 1.000000 0.717442
0.891633 1.000000 0.705928
1.000000 1.000000 0.694790
1.000000 1.000000 0.684068
1.000000 1.000000 0.673833
0.000000 0.000458 1.000000
0.000000 0.000000 1.000000
0.089712 0.000000 1.000000
0.245050 0.000000 1.000000
0.400599 0.000000 1.000000
0.556326 0.000000 1.000000
0.712206 0.000000 1.000000
0.868218 0.000000 1.000000
1.000000 0.000000 1.000000
0.000000 0.134751 1.000000
0.000000 0.133488 1.000000
0.129476 0.132406 1.000000
0.285406 0.131498 1.000000
0.441461 0.130759 1.000000
0.597623 0.130185 1.000000
0.753879 0.129771 1.000000
0.910214 0.129515 1.000000
1.000000 0.129414 1.000000
0.000000 0.271210 1.000000
0.014718 0.270531 1.000000
0.170916 0.270016 1.000000
0.327202 0.269660 1.000000
0.483562 0.269460 1.000000
0.639986 0.269415 1.000000
0.796462 0.269521 1.000000
0.952982 0.269778 1.000000
1.000000 0.270183 1.000000
0.000000 0.409569 1.000000
0.056920 0.409426 1.000000
0.213364 0.409436 1.000000
0.369857 0.409598 1.000000
0.526389 0.409908 1.000000
0.682952 0.410367 1.000000
0.839536 0.410973 1.000000
0.996135 0.411724 1.000000
1.000000 0.412620 1.000000
0.000000 0.549693 1.000000
0.099801 0.550058 1.000000
0.256372 0.550571 1.000000
0.412963 0.551229 1.000000
0.569565 0.552033 1.000000
0.726170 0.552982 1.000000
0.882771 0.554074 1.000000
1.000000 0.555310 0.988093
1.000000 0.556689 0.973778
0.000000 0.691505 1.000000
0.142995 0.692362 1.000000
0.299599 0.693363 1.000000
0.456197 0.694507 0.997309
0.612782 0.695796 0.982856
0.769345 0.697227 0.968622
0.925880 0.698801 0.954617
1.000000 0.700519 0.940849
1.000000 0.702381 0.927328
0.029622 0.834960 0.992022
0.186199 0.836300 0.977648
0.342753 0.837783 0.963497
0.499276 0.839410 0.949577
0.655761 0.841180 0.935898
0.812201 0.843094 0.922470
0.968588 0.845153 0.909303
1.000000 0.847358 0.896410
1.000000 0.849709 0.883804
0.072667 0.980038 0.944568
0.229137 0.981860 0.930979
0.385558 0.983827 0.917645
0.541923 0.985939 0.904577
0.698224 0.988197 0.891787
0.854452 0.990602 0.879288
1.000000 0.993157 0.867096
1.000000 0.995865 0.855228
1.000000 0.998728 0.843706
0.115251 1.000000 0.899888
0.271526 1.000000 0.887202
0.427724 1.000000 0.874813
0.583835 1.000000 0.862736
0.739847 1.000000 0.850991
0.895745 1.000000 0.839602
1.000000 1.000000 0.828600
1.000000 1.000000 0.818032
1.000000 1.000000 0.808000
