dist/luts/teal_orange.cube
# Video Color Grader Preset
TITLE "Teal & Orange"
LUT_3D_SIZE 17
DOMAIN_MIN 0.0 0.0 0.0
DOMAIN_MAX 1.0 1.0 1.0
0.000000 0.007200 0.258000
0.000000 0.005739 0.250302
0.000000 0.004408 0.242375
0.000000 0.003168 0.234328
0.059674 0.002006 0.226197
0.136876 0.000913 0.218006
0.214183 0.000000 0.209770
0.291580 0.000000 0.201500
0.369057 0.000000 0.193204
0.446606 0.000000 0.184890
0.524220 0.000000 0.176564
0.601893 0.000000 0.168231
0.679621 0.000000 0.159894
0.757399 0.000000 0.151558
0.835223 0.000000 0.143226
0.913090 0.000000 0.134902
0.990996 0.000000 0.126587
0.000000 0.072737 0.231376
0.000000 0.071600 0.223221
0.000000 0.070531 0.215012
0.000558 0.069523 0.206763
0.077985 0.068573 0.198482
0.155489 0.067679 0.190179
0.233063 0.066838 0.181860
0.310699 0.066048 0.173531
0.388393 0.065307 0.165196
0.466140 0.064615 0.156859
0.543935 0.063970 0.148524
0.621775 0.063371 0.140195
0.699656 0.062817 0.131874
0.777576 0.062307 0.123563
0.855531 0.061840 0.115267
0.933520 0.061416 0.106986
1.000000 0.061034 0.098723
0.000000 0.139170 0.203751
0.000000 0.138241 0.195462
0.000000 0.137366 0.187152
0.019528 0.136544 0.178829
0.097186 0.135772 0.170497
0.174900 0.135050 0.162160
0.252665 0.134375 0.153824
0.330477 0.133747 0.145491
0.408332 0.133164 0.137164
0.486228 0.132626 0.128847
0.564161 0.132132 0.120541
0.642128 0.131681 0.112250
0.720128 0.131272 0.103976
0.798158 0.130905 0.095720
0.876215 0.130580 0.087485
0.954299 0.130295 0.079272
1.000000 0.130051 0.071084
0.000000 0.206257 0.175796
0.000000 0.205504 0.167462
0.000000 0.204799 0.159125
0.039196 0.204141 0.150790
0.117024 0.203529 0.142458
0.194894 0.202963 0.134135
0.272804 0.202441 0.125822
0.350750 0.201962 0.117521
0.428730 0.201527 0.109236
0.506741 0.201134 0.100968
0.584781 0.200782 0.092719
0.662848 0.200472 0.084492
0.740940 0.200202 0.076288
0.819055 0.199972 0.068109
0.897192 0.199783 0.059956
0.975349 0.199632 0.051831
1.000000 0.199521 0.043735
0.000000 0.273913 0.147756
0.000000 0.273318 0.139427
0.000000 0.272768 0.131107
0.059385 0.272262 0.122798
0.137344 0.271799 0.114503
0.215335 0.271379 0.106224
0.293357 0.271001 0.097963
0.371407 0.270664 0.089722
0.449483 0.270369 0.081503
0.527584 0.270114 0.073307
0.605708 0.269899 0.065137
0.683852 0.269723 0.056995
0.762016 0.269587 0.048880
0.840197 0.269490 0.040796
0.918395 0.269432 0.032742
0.996608 0.269412 0.024722
1.000000 0.269430 0.016736
0.000000 0.342088 0.119776
0.000000 0.341641 0.111487
0.001944 0.341236 0.103214
0.079977 0.340874 0.094960
0.158037 0.340552 0.086727
0.236122 0.340271 0.078516
0.314231 0.340031 0.070330
0.392363 0.339830 0.062170
0.470514 0.339669 0.054037
0.548685 0.339547 0.045933
0.626872 0.339464 0.037860
0.705076 0.339420 0.029819
0.783294 0.339414 0.021810
0.861525 0.339446 0.013837
0.939769 0.339515 0.005899
1.000000 0.339622 0.000000
1.000000 0.339767 0.000000
0.000000 0.410752 0.091960
0.000000 0.410445 0.083735
0.022764 0.410179 0.075533
0.100882 0.409953 0.067356
0.179021 0.409767 0.059206
0.257179 0.409620 0.051083
0.335356 0.409513 0.042991
0.413550 0.409444 0.034929
0.491759 0.409413 0.026899
0.569982 0.409421 0.018903
0.648218 0.409467 0.010943
0.726465 0.409550 0.003018
0.804723 0.409670 0.000000
0.882989 0.409828 0.000000
0.961264 0.410023 0.000000
1.000000 0.410255 0.000000
1.000000 0.410524 0.000000
0.000000 0.479881 0.064386
0.000000 0.479709 0.056245
0.043846 0.479577 0.048134
0.122030 0.479483 0.040052
0.200229 0.479428 0.032002
0.278443 0.479412 0.023984
0.356671 0.479433 0.016001
0.434911 0.479492 0.008053
0.513162 0.479589 0.000142
0.591424 0.479724 0.000000
0.669694 0.479895 0.000000
0.747971 0.480103 0.000000
0.826255 0.480349 0.000000
0.904545 0.480631 0.000000
0.982839 0.480949 0.000000
1.000000 0.481304 0.000000
1.000000 0.481695 0.000000
0.000000 0.549459 0.037117
0.000000 0.549418 0.029079
0.065130 0.549415 0.021074
0.143362 0.549450 0.013103
0.221606 0.549523 0.005169
0.299861 0.549634 0.000000
0.378126 0.549782 0.000000
0.456399 0.549967 0.000000
0.534679 0.550189 0.000000
0.612965 0.550447 0.000000
0.691257 0.550742 0.000000
0.769552 0.551074 0.000000
0.847851 0.551442 0.000000
0.926152 0.551847 0.000000
1.000000 0.552287 0.000000
1.000000 0.552764 0.000000
1.000000 0.553276 0.000000
0.000000 0.619473 0.010210
0.008303 0.619559 0.002289
0.086562 0.619683 0.000000
0.164829 0.619845 0.000000
0.243105 0.620043 0.000000
0.321387 0.620278 0.000000
0.399676 0.620550 0.000000
0.477969 0.620859 0.000000
0.556266 0.621204 0.000000
0.634566 0.621585 0.000000
0.712867 0.622003 0.000000
0.791170 0.622457 0.000000
0.869473 0.622946 0.000000
0.947774 0.623472 0.000000
1.000000 0.624034 0.000000
1.000000 0.624631 0.000000
1.000000 0.625265 0.000000
0.000000 0.689913 0.000000
0.029812 0.690125 0.000000
0.108097 0.690373 0.000000
0.186387 0.690659 0.000000
0.264681 0.690980 0.000000
0.342980 0.691339 0.000000
0.421280 0.691733 0.000000
0.499582 0.692164 0.000000
0.577885 0.692631 0.000000
0.656187 0.693134 0.000000
0.734488 0.693672 0.000000
0.812787 0.694247 0.000000
0.891083 0.694858 0.000000
0.969375 0.695504 0.000000
1.000000 0.696186 0.000000
1.000000 0.696904 0.000000
1.000000 0.697658 0.000000
0.000000 0.760771 0.000000
0.051395 0.761107 0.000000
0.129694 0.761478 0.000000
0.207995 0.761886 0.000000
0.286297 0.762330 0.000000
0.364600 0.762810 0.000000
0.442902 0.763326 0.000000
0.521202 0.763877 0.000000
0.599500 0.764465 0.000000
0.677795 0.765089 0.000000
0.756085 0.765748 0.000000
0.834370 0.766444 0.000000
0.912649 0.767175 0.000000
0.990921 0.767941 0.000000
1.000000 0.768744 0.000000
1.000000 0.769582 0.000000
1.000000 0.770457 0.000000
0.000000 0.832043 0.000000
0.073012 0.832500 0.000000
0.151315 0.832993 0.000000
0.229617 0.833522 0.000000
0.307916 0.834087 0.000000
0.386213 0.834688 0.000000
0.464506 0.835325 0.000000
0.542794 0.835997 0.000000
0.621077 0.836706 0.000000
0.699354 0.837450 0.000000
0.777623 0.838229 0.000000
0.855884 0.839045 0.000000
0.934136 0.839897 0.000000
1.000000 0.840784 0.000000
1.000000 0.841707 0.000000
1.000000 0.842667 0.000000
1.000000 0.843662 0.000000
0.016331 0.903724 0.000000
0.094629 0.904302 0.000000
0.172925 0.904916 0.000000
0.251217 0.905565 0.000000
0.329503 0.906251 0.000000
0.407784 0.906972 0.000000
0.486058 0.907729 0.000000
0.564324 0.908522 0.000000
0.642582 0.909351 0.000000
0.720831 0.910216 0.000000
0.799069 0.911116 0.000000
0.877295 0.912053 0.000000
0.955510 0.913025 0.000000
1.000000 0.914034 0.000000
1.000000 0.915079 0.000000
1.000000 0.916160 0.000000
1.000000 0.917278 0.000000
0.037926 0.975811 0.000000
0.116211 0.976509 0.000000
0.194489 0.977244 0.000000
0.272761 0.978014 0.000000
0.351024 0.978820 0.000000
0.429279 0.979662 0.000000
0.507523 0.980539 0.000000
0.585757 0.981453 0.000000
0.663980 0.982402 0.000000
0.742190 0.983388 0.000000
0.820386 0.984410 0.000000
0.898568 0.985468 0.000000
0.976734 0.986563 0.000000
1.000000 0.987694 0.000000
1.000000 0.988863 0.000000
1.000000 0.990068 0.000000
1.000000 0.991310 0.000000
0.059462 1.000000 0.000000
0.137723 1.000000 0.000000
0.215974 1.000000 0.000000
0.294215 1.000000 0.000000
0.372445 1.000000 0.000000
0.450663 1.000000 0.000000
0.528868 1.000000 0.000000
0.607059 1.000000 0.000000
0.685235 1.000000 0.000000
0.763395 1.000000 0.000000
0.841539 1.000000 0.000000
0.919663 1.000000 0.000000
0.997769 1.000000 0.000000
1.000000 1.000000 0.000000
1.000000 1.000000 0.000000
1.000000 1.000000 0.000000
1.000000 1.000000 0.000000
0.080905 1.000000 0.000000
0.159130 1.000000 0.000000
0.237344 1.000000 0.000000
0.315544 1.000000 0.000000
0.393730 1.000000 0.000000
0.471900 1.000000 0.000000
0.550054 1.000000 0.000000
0.628191 1.000000 0.000000
0.706309 1.000000 0.000000
0.784407 1.000000 0.000000
0.862484 1.000000 0.000000
0.940538 1.000000 0.000000
1.000000 1.000000 0.000000
1.000000 1.000000 0.000000
1.000000 1.000000 0.000000
1.000000 1.000000 0.000000
1.000000 1.000000 0.000000
0.000000 0.006682 0.324179
0.000000 0.005275 0.316377
0.000000 0.003978 0.308403
0.000000 0.002766 0.300324
0.061471 0.001627 0.292171
0.138710 0.000556 0.283964
0.216048 0.000000 0.275715
0.293473 0.000000 0.267435
0.370976 0.000000 0.259133
0.448548 0.000000 0.250814
0.526183 0.000000 0.242485
0.603875 0.000000 0.234149
0.681621 0.000000 0.225813
0.759415 0.000000 0.217478
0.837254 0.000000 0.209148
0.915134 0.000000 0.200827
0.993053 0.000000 0.192517
0.000000 0.072343 0.297363
0.000000 0.071230 0.289189
0.000000 0.070181 0.280965
0.002434 0.069194 0.272704
0.079889 0.068263 0.264415
0.157417 0.067387 0.256106
0.235013 0.066564 0.247782
0.312669 0.065791 0.239451
0.390382 0.065067 0.231114
0.468145 0.064391 0.222778
0.545956 0.063761 0.214445
0.623810 0.063178 0.206118
0.701705 0.062638 0.197800
0.779637 0.062143 0.189494
0.857604 0.061691 0.181203
0.935603 0.061282 0.172928
1.000000 0.060914 0.164672
0.000000 0.138848 0.269689
0.000000 0.137938 0.261392
0.000000 0.137081 0.253077
0.021486 0.136276 0.244750
0.099163 0.135522 0.236416
0.176895 0.134815 0.228079
0.254676 0.134156 0.219743
0.332503 0.133544 0.211412
0.410372 0.132976 0.203088
0.488281 0.132453 0.194775
0.566226 0.131974 0.186474
0.644205 0.131537 0.178188
0.722215 0.131143 0.169920
0.800254 0.130790 0.161671
0.878321 0.130479 0.153443
0.956412 0.130208 0.145238
1.000000 0.129978 0.137059
0.000000 0.205996 0.241716
0.000000 0.205259 0.233381
0.000000 0.204570 0.225044
0.041213 0.203928 0.216710
0.119056 0.203332 0.208381
0.196940 0.202781 0.200060
0.274862 0.202274 0.191751
0.352819 0.201810 0.183456
0.430810 0.201389 0.175176
0.508831 0.201010 0.166914
0.586880 0.200672 0.158673
0.664956 0.200376 0.150453
0.743057 0.200119 0.142257
0.821179 0.199903 0.134087
0.899323 0.199727 0.125943
0.977487 0.199590 0.117828
1.000000 0.199492 0.109743
0.000000 0.273706 0.213677
0.000000 0.273126 0.205350
0.000000 0.272591 0.197034
0.061447 0.272100 0.188729
0.139417 0.271652 0.180439
0.217419 0.271246 0.172166
0.295451 0.270882 0.163912
0.373510 0.270559 0.155678
0.451595 0.270278 0.147467
0.529704 0.270036 0.139280
0.607834 0.269835 0.131119
0.685986 0.269673 0.122986
0.764156 0.269550 0.114881
0.842343 0.269466 0.106807
0.920546 0.269421 0.098765
0.998764 0.269413 0.090756
1.000000 0.269444 0.082781
0.000000 0.341932 0.185709
0.000000 0.341499 0.177425
0.004032 0.341109 0.169159
0.082074 0.340760 0.160911
0.160143 0.340452 0.152686
0.238237 0.340185 0.144483
0.316354 0.339958 0.136306
0.394492 0.339771 0.128155
0.472650 0.339624 0.120032
0.550827 0.339515 0.111938
0.629020 0.339445 0.103876
0.707229 0.339414 0.095845
0.785451 0.339420 0.087849
0.863687 0.339465 0.079887
0.941934 0.339547 0.071961
1.000000 0.339667 0.064073
1.000000 0.339824 0.056223
0.000000 0.410643 0.157914
0.000000 0.410350 0.149697
0.024882 0.410098 0.141503
0.103007 0.409886 0.133335
0.181152 0.409713 0.125194
0.259317 0.409579 0.117082
0.337500 0.409485 0.108999
0.415699 0.409429 0.100948
0.493913 0.409412 0.092930
0.572141 0.409432 0.084946
0.650380 0.409491 0.076997
0.728631 0.409587 0.069085
0.806892 0.409720 0.061211
0.885162 0.409890 0.053375
0.963440 0.410098 0.045580
1.000000 0.410342 0.037825
1.000000 0.410623 0.030114
0.000000 0.479818 0.130368
0.000000 0.479660 0.122237
0.045987 0.479541 0.114136
0.124176 0.479460 0.106064
0.202380 0.479418 0.098025
0.280599 0.479415 0.090019
0.358831 0.479449 0.082048
0.437075 0.479521 0.074112
0.515330 0.479631 0.066214
0.593594 0.479778 0.058353
0.671867 0.479962 0.050532
0.750147 0.480183 0.042752
0.828433 0.480440 0.035013
0.906725 0.480735 0.027317
0.985020 0.481066 0.019664
1.000000 0.481433 0.012057
1.000000 0.481836 0.004496
0.000000 0.549441 0.103134
0.000000 0.549413 0.095107
0.067287 0.549423 0.087113
0.145524 0.549471 0.079155
0.223772 0.549557 0.071232
0.302030 0.549680 0.063348
0.380298 0.549840 0.055501
0.458573 0.550038 0.047695
0.536856 0.550272 0.039929
0.615144 0.550543 0.032206
0.693437 0.550851 0.024526
0.771734 0.551195 0.016890
0.850033 0.551576 0.009299
0.928335 0.551992 0.001754
1.000000 0.552445 0.000000
1.000000 0.552934 0.000000
1.000000 0.553459 0.000000
0.000000 0.619498 0.076266
0.010470 0.619597 0.068357
0.088732 0.619734 0.060486
0.167002 0.619908 0.052655
0.245280 0.620119 0.044863
0.323565 0.620367 0.037113
0.401855 0.620651 0.029405
0.480149 0.620972 0.021740
0.558447 0.621329 0.014121
0.636748 0.621723 0.006547
0.715050 0.622153 0.000000
0.793353 0.622619 0.000000
0.871655 0.623121 0.000000
0.949956 0.623659 0.000000
1.000000 0.624233 0.000000
1.000000 0.624842 0.000000
1.000000 0.625488 0.000000
0.000000 0.689981 0.049813
0.031988 0.690205 0.042037
0.110275 0.690466 0.034302
0.188567 0.690764 0.026609
0.266862 0.691098 0.018961
0.345162 0.691469 0.011358
0.423463 0.691875 0.003801
0.501765 0.692318 0.000000
0.580068 0.692797 0.000000
0.658370 0.693313 0.000000
0.736670 0.693864 0.000000
0.814968 0.694450 0.000000
0.893263 0.695073 0.000000
0.971553 0.695732 0.000000
1.000000 0.696426 0.000000
1.000000 0.697156 0.000000
1.000000 0.697922 0.000000
0.000000 0.760881 0.023820
0.053576 0.761229 0.016188
0.131876 0.761612 0.008601
0.210178 0.762032 0.001061
0.288480 0.762489 0.000000
0.366783 0.762981 0.000000
0.445084 0.763509 0.000000
0.523384 0.764073 0.000000
0.601681 0.764673 0.000000
0.679974 0.765309 0.000000
0.758263 0.765980 0.000000
0.836546 0.766688 0.000000
0.914822 0.767431 0.000000
0.993092 0.768210 0.000000
1.000000 0.769025 0.000000
1.000000 0.769875 0.000000
1.000000 0.770762 0.000000
0.000000 0.832194 0.000000
0.075195 0.832664 0.000000
0.153498 0.833169 0.000000
0.231799 0.833710 0.000000
0.310097 0.834287 0.000000
0.388393 0.834900 0.000000
0.466685 0.835549 0.000000
0.544971 0.836234 0.000000
0.623252 0.836954 0.000000
0.701526 0.837710 0.000000
0.779793 0.838502 0.000000
0.858051 0.839330 0.000000
0.936300 0.840194 0.000000
1.000000 0.841094 0.000000
1.000000 0.842029 0.000000
1.000000 0.843001 0.000000
1.000000 0.844009 0.000000
0.018513 0.903916 0.000000
0.096810 0.904506 0.000000
0.175105 0.905132 0.000000
0.253394 0.905794 0.000000
0.331679 0.906492 0.000000
0.409958 0.907225 0.000000
0.488229 0.907995 0.000000
0.566493 0.908800 0.000000
0.644748 0.909641 0.000000
0.722993 0.910517 0.000000
0.801227 0.911430 0.000000
0.879450 0.912379 0.000000
0.957660 0.913364 0.000000
1.000000 0.914385 0.000000
1.000000 0.915442 0.000000
1.000000 0.916536 0.000000
1.000000 0.917666 0.000000
0.040104 0.976044 0.000000
0.118386 0.976755 0.000000
0.196662 0.977501 0.000000
0.274931 0.978284 0.000000
0.353192 0.979102 0.000000
0.431443 0.979956 0.000000
0.509684 0.980845 0.000000
0.587914 0.981771 0.000000
0.666133 0.982733 0.000000
0.744338 0.983731 0.000000
0.822530 0.984765 0.000000
0.900706 0.985836 0.000000
0.978867 0.986943 0.000000
1.000000 0.988087 0.000000
1.000000 0.989268 0.000000
1.000000 0.990486 0.000000
1.000000 0.991741 0.000000
0.061632 1.000000 0.000000
0.139889 1.000000 0.000000
0.218137 1.000000 0.000000
0.296374 1.000000 0.000000
0.374600 1.000000 0.000000
0.452814 1.000000 0.000000
0.531014 1.000000 0.000000
0.609201 1.000000 0.000000
0.687372 1.000000 0.000000
0.765526 1.000000 0.000000
0.843663 1.000000 0.000000
0.921781 1.000000 0.000000
0.999880 1.000000 0.000000
1.000000 1.000000 0.000000
1.000000 1.000000 0.000000
1.000000 1.000000 0.000000
1.000000 1.000000 0.000000
0.083063 1.000000 0.000000
0.161284 1.000000 0.000000
0.239493 1.000000 0.000000
0.317689 1.000000 0.000000
0.395870 1.000000 0.000000
0.474035 1.000000 0.000000
0.552183 1.000000 0.000000
0.630313 1.000000 0.000000
0.708425 1.000000 0.000000
0.786516 1.000000 0.000000
0.864585 1.000000 0.000000
0.942631 1.000000 0.000000
1.000000 1.000000 0.000000
1.000000 1.000000 0.000000
1.000000 1.000000 0.000000
1.000000 1.000000 0.000000
1.000000 1.000000 0.000000
0.000000 0.006189 0.390307
0.000000 0.004824 0.382434
0.000000 0.003557 0.374420
0.000000 0.002371 0.366313
0.063280 0.001256 0.358139
0.140555 0.000206 0.349916
0.217924 0.000000 0.341656
0.295376 0.000000 0.333368
0.372903 0.000000 0.325059
0.450497 0.000000 0.316736
0.528152 0.000000 0.308404
0.605863 0.000000 0.300068
0.683626 0.000000 0.291732
0.761435 0.000000 0.283398
0.839289 0.000000 0.275071
0.917182 0.000000 0.266753
0.995114 0.000000 0.258447
0.000000 0.071957 0.363344
0.000000 0.070867 0.355151
0.000000 0.069839 0.346913
0.004320 0.068871 0.338641
0.081801 0.067960 0.330345
0.159353 0.067102 0.322030
0.236970 0.066296 0.313704
0.314646 0.065539 0.305370
0.392376 0.064832 0.297033
0.470156 0.064172 0.288697
0.547982 0.063558 0.280366
0.625850 0.062990 0.272042
0.703758 0.062465 0.263728
0.781702 0.061985 0.255427
0.859680 0.061547 0.247141
0.937690 0.061152 0.238872
1.000000 0.060798 0.230622
0.000000 0.138533 0.335623
0.000000 0.137641 0.327320
0.000000 0.136802 0.319000
0.023450 0.136015 0.310670
0.101146 0.135276 0.302335
0.178895 0.134586 0.293998
0.256692 0.133943 0.285663
0.334534 0.133346 0.277334
0.412417 0.132794 0.269014
0.490338 0.132285 0.260704
0.568295 0.131821 0.252408
0.646285 0.131399 0.244128
0.724305 0.131018 0.235866
0.802354 0.130680 0.227624
0.880429 0.130382 0.219404
0.958529 0.130125 0.211208
1.000000 0.129908 0.203036
0.000000 0.205740 0.307636
0.000000 0.205020 0.299300
0.000000 0.204347 0.290963
0.043235 0.203720 0.282630
0.121092 0.203140 0.274304
0.198989 0.202604 0.265987
0.276924 0.202111 0.257682
0.354893 0.201662 0.249392
0.432894 0.201255 0.241118
0.510925 0.200890 0.232863
0.588983 0.200567 0.224629
0.667068 0.200284 0.216417
0.745176 0.200042 0.208230
0.823306 0.199839 0.200068
0.901457 0.199676 0.191934
0.979626 0.199553 0.183829
1.000000 0.199468 0.175754
0.000000 0.273504 0.279598
0.000000 0.272939 0.271275
0.000000 0.272419 0.262962
0.063513 0.271943 0.254662
0.141494 0.271509 0.246378
0.219507 0.271118 0.238111
0.297548 0.270768 0.229863
0.375616 0.270459 0.221637
0.453709 0.270191 0.213434
0.531826 0.269963 0.205255
0.609964 0.269775 0.197104
0.688121 0.269627 0.188980
0.766297 0.269517 0.180886
0.844490 0.269446 0.172822
0.922698 0.269414 0.164791
1.000000 0.269420 0.156794
1.000000 0.269463 0.148831
0.000000 0.341780 0.251644
0.000000 0.341362 0.243366
0.006123 0.340986 0.235106
0.084175 0.340651 0.226865
0.162252 0.340357 0.218647
0.240354 0.340104 0.210453
0.318478 0.339890 0.202285
0.396624 0.339717 0.194143
0.474788 0.339582 0.186030
0.552971 0.339487 0.177946
0.631169 0.339430 0.169895
0.709383 0.339412 0.161876
0.787610 0.339431 0.153891
0.865850 0.339489 0.145941
0.944100 0.339584 0.138028
1.000000 0.339716 0.130153
1.000000 0.339886 0.122316
0.000000 0.410539 0.223871
0.000000 0.410260 0.215661
0.027002 0.410021 0.207476
0.105134 0.409823 0.199317
0.183286 0.409663 0.191186
0.261458 0.409543 0.183083
0.339646 0.409462 0.175011
0.417850 0.409419 0.166971
0.496069 0.409414 0.158965
0.574301 0.409448 0.150992
0.652545 0.409519 0.143056
0.730799 0.409628 0.135156
0.809063 0.409774 0.127295
0.887336 0.409957 0.119473
0.965615 0.410177 0.111692
1.000000 0.410434 0.103952
1.000000 0.410727 0.096254
0.000000 0.479760 0.196354
0.000000 0.479615 0.188232
0.048129 0.479509 0.180141
0.126323 0.479442 0.172081
0.204533 0.479413 0.164053
0.282757 0.479422 0.156058
0.360993 0.479469 0.148099
0.439241 0.479554 0.140176
0.517499 0.479676 0.132290
0.595766 0.479836 0.124443
0.674042 0.480033 0.116635
0.752324 0.480266 0.108869
0.830612 0.480536 0.101144
0.908905 0.480843 0.093463
0.987202 0.481186 0.085826
1.000000 0.481566 0.078234
1.000000 0.481982 0.070688
0.000000 0.549427 0.169154
0.000000 0.549412 0.161138
0.069446 0.549435 0.153156
0.147687 0.549496 0.145210
0.225939 0.549594 0.137300
0.304200 0.549730 0.129429
0.382471 0.549903 0.121596
0.460748 0.550113 0.113803
0.539033 0.550360 0.106052
0.617323 0.550644 0.098343
0.695617 0.550964 0.090677
0.773915 0.551320 0.083057
0.852216 0.551713 0.075481
0.930518 0.552142 0.067953
1.000000 0.552607 0.060472
1.000000 0.553108 0.053041
1.000000 0.553645 0.045659
0.000000 0.619527 0.142326
0.012638 0.619640 0.134430
0.090903 0.619789 0.126572
0.169176 0.619975 0.118754
0.247456 0.620199 0.110976
0.325743 0.620459 0.103240
0.404035 0.620756 0.095547
0.482330 0.621089 0.087898
0.560629 0.621459 0.080293
0.638931 0.621865 0.072735
0.717233 0.622307 0.065224
0.795536 0.622785 0.057761
0.873838 0.623299 0.050347
0.952138 0.623850 0.042984
1.000000 0.624436 0.035672
1.000000 0.625058 0.028412
1.000000 0.625715 0.021207
0.000000 0.690053 0.115918
0.034165 0.690289 0.108155
0.112453 0.690563 0.100434
0.190747 0.690873 0.092757
0.269044 0.691220 0.085124
0.347344 0.691603 0.077536
0.425645 0.692022 0.069995
0.503948 0.692477 0.062501
0.582251 0.692968 0.055056
0.660552 0.693496 0.047661
0.738852 0.694059 0.040316
0.817149 0.694658 0.033023
0.895442 0.695293 0.025783
0.973731 0.695964 0.018597
1.000000 0.696670 0.011466
1.000000 0.697412 0.004391
1.000000 0.698190 0.000000
0.000000 0.760995 0.089973
0.055758 0.761355 0.082356
0.134058 0.761751 0.074785
0.212360 0.762183 0.067261
0.290663 0.762652 0.059785
0.368965 0.763156 0.052358
0.447267 0.763697 0.044981
0.525565 0.764273 0.037655
0.603861 0.764885 0.030381
0.682153 0.765533 0.023160
0.760440 0.766217 0.015994
0.838721 0.766936 0.008883
0.916995 0.767691 0.001829
0.995262 0.768483 0.000000
1.000000 0.769310 0.000000
1.000000 0.770172 0.000000
1.000000 0.771071 0.000000
0.000000 0.832350 0.064534
0.077378 0.832831 0.057075
0.155680 0.833349 0.049666
0.233980 0.833902 0.042308
0.312278 0.834491 0.035001
0.390573 0.835117 0.027746
0.468863 0.835778 0.020545
0.547147 0.836474 0.013399
0.625426 0.837207 0.006308
0.703698 0.837975 0.000000
0.781962 0.838780 0.000000
0.860217 0.839620 0.000000
0.938462 0.840495 0.000000
1.000000 0.841407 0.000000
1.000000 0.842355 0.000000
1.000000 0.843339 0.000000
1.000000 0.844359 0.000000
0.020694 0.904113 0.039641
0.098991 0.904715 0.032353
0.177284 0.905353 0.025118
0.255572 0.906027 0.017937
0.333855 0.906737 0.010811
0.412131 0.907483 0.003741
0.490400 0.908264 0.000000
0.568660 0.909081 0.000000
0.646912 0.909934 0.000000
0.725154 0.910823 0.000000
0.803384 0.911748 0.000000
0.881603 0.912709 0.000000
0.959809 0.913706 0.000000
1.000000 0.914740 0.000000
1.000000 0.915809 0.000000
1.000000 0.916916 0.000000
1.000000 0.918059 0.000000
0.042280 0.976281 0.015336
0.120561 0.977004 0.008230
0.198835 0.977763 0.001182
0.277101 0.978557 0.000000
0.355358 0.979388 0.000000
0.433606 0.980254 0.000000
0.511844 0.981156 0.000000
0.590070 0.982094 0.000000
0.668284 0.983068 0.000000
0.746485 0.984078 0.000000
0.824671 0.985125 0.000000
0.902843 0.986208 0.000000
0.980998 0.987328 0.000000
1.000000 0.988484 0.000000
1.000000 0.989677 0.000000
1.000000 0.990908 0.000000
1.000000 0.992176 0.000000
0.063800 1.000000 0.000000
0.142054 1.000000 0.000000
0.220299 1.000000 0.000000
0.298532 1.000000 0.000000
0.376754 1.000000 0.000000
0.454964 1.000000 0.000000
0.533159 1.000000 0.000000
0.611341 1.000000 0.000000
0.689506 1.000000 0.000000
0.767655 1.000000 0.000000
0.845786 1.000000 0.000000
0.923897 1.000000 0.000000
1.000000 1.000000 0.000000
1.000000 1.000000 0.000000
1.000000 1.000000 0.000000
1.000000 1.000000 0.000000
1.000000 1.000000 0.000000
0.085219 1.000000 0.000000
0.163437 1.000000 0.000000
0.241641 1.000000 0.000000
0.319832 1.000000 0.000000
0.398008 1.000000 0.000000
0.476167 1.000000 0.000000
0.554309 1.000000 0.000000
0.632433 1.000000 0.000000
0.710538 1.000000 0.000000
0.788622 1.000000 0.000000
0.866683 1.000000 0.000000
0.944721 1.000000 0.000000
1.000000 1.000000 0.000000
1.000000 1.000000 0.000000
1.000000 1.000000 0.000000
1.000000 1.000000 0.000000
1.000000 1.000000 0.000000
0.000000 0.005713 0.456404
0.000000 0.004384 0.448475
0.000000 0.003146 0.440425
0.000000 0.001985 0.432293
0.065103 0.000893 0.424102
0.142411 0.000000 0.415865
0.219809 0.000000 0.407594
0.297288 0.000000 0.399298
0.374838 0.000000 0.390984
0.452453 0.000000 0.382657
0.530128 0.000000 0.374324
0.607857 0.000000 0.365987
0.685636 0.000000 0.357651
0.763461 0.000000 0.349320
0.841328 0.000000 0.340995
0.919235 0.000000 0.332681
0.997178 0.000000 0.324380
