dist/luts/teal_orange.cube
# Video Color Grader Preset
TITLE "Teal & Orange"
LUT_3D_SIZE 5
DOMAIN_MIN 0.0 0.0 0.0
DOMAIN_MAX 1.0 1.0 1.0
0.000000 0.007200 0.258000
0.059674 0.002006 0.226197
0.369057 0.000000 0.193204
0.679621 0.000000 0.159894
0.990996 0.000000 0.126587
0.000000 0.273913 0.147756
0.137344 0.271799 0.114503
0.449483 0.270369 0.081503
0.762016 0.269587 0.048880
1.000000 0.269430 0.016736
0.000000 0.549459 0.037117
0.221606 0.549523 0.005169
0.534679 0.550189 0.000000
0.847851 0.551442 0.000000
1.000000 0.553276 0.000000
0.000000 0.832043 0.000000
0.307916 0.834087 0.000000
0.621077 0.836706 0.000000
0.934136 0.839897 0.000000
1.000000 0.843662 0.000000
0.080905 1.000000 0.000000
0.393730 1.000000 0.000000
0.706309 1.000000 0.000000
1.000000 1.000000 0.000000
1.000000 1.000000 0.000000
0.000000 0.005250 0.522479
0.066937 0.000536 0.490059
0.376780 0.000000 0.456907
0.687652 0.000000 0.423571
0.999247 0.000000 0.390314
0.000000 0.273116 0.411444
0.145660 0.271239 0.378261
0.457946 0.270032 0.345376
0.770587 0.269465 0.312906
1.000000 0.269515 0.280943
0.000000 0.549412 0.301206
0.230275 0.549683 0.269450
0.543389 0.550549 0.238311
0.856581 0.552000 0.207863
1.000000 0.554030 0.178174
0.003441 0.832673 0.196963
0.316639 0.834912 0.167567
0.629772 0.837725 0.139025
0.942783 0.841111 0.111408
1.000000 0.845073 0.084794
0.089529 1.000000 0.101598
0.402278 1.000000 0.075371
0.714757 1.000000 0.050274
1.000000 1.000000 0.026427
1.000000 1.000000 0.004006
0.000000 0.003511 0.786616
0.074382 0.000000 0.753845
0.384621 0.000000 0.720591
0.695764 0.000000 0.687258
1.000000 0.000000 0.654069
0.000000 0.272401 0.675149
0.154031 0.270756 0.642053
0.466450 0.269769 0.609297
0.779187 0.269413 0.576990
1.000000 0.269669 0.545219
0.000000 0.549437 0.565357
0.238961 0.549911 0.533802
0.552109 0.550977 0.502890
0.865312 0.552625 0.472692
1.000000 0.554851 0.443276
0.012172 0.833369 0.461889
0.325354 0.835803 0.432775
0.638452 0.838811 0.404539
0.951408 0.842392 0.377253
1.000000 0.846551 0.350999
0.098129 1.000000 0.367571
0.410795 1.000000 0.341716
0.723166 1.000000 0.317028
1.000000 1.000000 0.293642
1.000000 1.000000 0.271765
0.000000 0.001921 1.000000
0.081981 0.000000 1.000000
0.392564 0.000000 0.984266
0.703952 0.000000 0.950962
1.000000 0.000000 0.917859
0.000000 0.271766 0.938879
0.162451 0.270348 0.905885
0.474990 0.269579 0.873271
0.787813 0.269433 0.841136
1.000000 0.269892 0.809566
0.000000 0.549530 0.829573
0.247661 0.550207 0.798228
0.560835 0.551471 0.767551
0.874043 0.553317 0.737611
1.000000 0.555737 0.708477
0.020900 0.834131 0.726907
0.334059 0.836760 0.698084
0.647116 0.839962 0.670162
0.960011 0.843739 0.643217
1.000000 0.848096 0.617335
0.106704 1.000000 0.633666
0.419278 1.000000 0.608195
0.731530 1.000000 0.583932
1.000000 1.000000 0.561029
1.000000 1.000000 0.539746
0.000000 0.000458 1.000000
0.089712 0.000000 1.000000
0.400599 0.000000 1.000000
0.712206 0.000000 1.000000
1.000000 0.000000 1.000000
0.000000 0.271210 1.000000
0.170916 0.270016 1.000000
0.483562 0.269460 1.000000
0.796462 0.269521 1.000000
1.000000 0.270183 1.000000
0.000000 0.549693 1.000000
0.256372 0.550571 1.000000
0.569565 0.552033 1.000000
0.882771 0.554074 1.000000
1.000000 0.556689 0.973778
0.029622 0.834960 0.992022
0.342753 0.837783 0.963497
0.655761 0.841180 0.935898
0.968588 0.845153 0.909303
1.000000 0.849709 0.883804
0.115251 1.000000 0.899888
0.427724 1.000000 0.874813
0.739847 1.000000 0.850991
1.000000 1.000000 0.828600
1.000000 1.000000 0.808000
