public/luts/black_white.cube
# Video Color Grader Preset
TITLE "Black & White"
LUT_3D_SIZE 17
DOMAIN_MIN 0.0 0.0 0.0
DOMAIN_MAX 1.0 1.0 1.0
0.000000 0.000000 0.000000
0.000000 0.000000 0.000000
0.000000 0.000000 0.000000
0.000000 0.000000 0.000000
0.000000 0.000000 0.000000
0.000000 0.000000 0.000000
0.000000 0.000000 0.000000
0.000000 0.000000 0.000000
0.000000 0.000000 0.000000
0.000000 0.000000 0.000000
0.000000 0.000000 0.000000
0.011859 0.011859 0.011859
0.033329 0.033329 0.033329
0.055251 0.055251 0.055251
0.077600 0.077600 0.077600
0.100351 0.100351 0.100351
0.123485 0.123485 0.123485
0.000000 0.000000 0.000000
0.000000 0.000000 0.000000
0.000000 0.000000 0.000000
0.000000 0.000000 0.000000
0.000000 0.000000 0.000000
0.000000 0.000000 0.000000
0.000000 0.000000 0.000000
0.000000 0.000000 0.000000
0.000000 0.000000 0.000000
0.011078 0.011078 0.011078
0.032531 0.032531 0.032531
0.054437 0.054437 0.054437
0.076770 0.076770 0.076770
0.099507 0.099507 0.099507
0.122628 0.122628 0.122628
0.146113 0.146113 0.146113
0.169947 0.169947 0.169947
0.000000 0.000000 0.000000
0.000000 0.000000 0.000000
0.000000 0.000000 0.000000
0.000000 0.000000 0.000000
0.000000 0.000000 0.000000
0.000000 0.000000 0.000000
0.000000 0.000000 0.000000
0.010298 0.010298 0.010298
0.031733 0.031733 0.031733
0.053623 0.053623 0.053623
0.075941 0.075941 0.075941
0.098664 0.098664 0.098664
0.121770 0.121770 0.121770
0.145243 0.145243 0.145243
0.169064 0.169064 0.169064
0.193221 0.193221 0.193221
0.217699 0.217699 0.217699
0.000000 0.000000 0.000000
0.000000 0.000000 0.000000
0.000000 0.000000 0.000000
0.000000 0.000000 0.000000
0.000000 0.000000 0.000000
0.009518 0.009518 0.009518
0.030936 0.030936 0.030936
0.052810 0.052810 0.052810
0.075113 0.075113 0.075113
0.097821 0.097821 0.097821
0.120914 0.120914 0.120914
0.144373 0.144373 0.144373
0.168182 0.168182 0.168182
0.192326 0.192326 0.192326
0.216793 0.216793 0.216793
0.241568 0.241568 0.241568
0.266642 0.266642 0.266642
0.000000 0.000000 0.000000
0.000000 0.000000 0.000000
0.000000 0.000000 0.000000
0.008739 0.008739 0.008739
0.030140 0.030140 0.030140
0.051998 0.051998 0.051998
0.074285 0.074285 0.074285
0.096979 0.096979 0.096979
0.120058 0.120058 0.120058
0.143504 0.143504 0.143504
0.167300 0.167300 0.167300
0.191432 0.191432 0.191432
0.215887 0.215887 0.215887
0.240652 0.240652 0.240652
0.265715 0.265715 0.265715
0.291067 0.291067 0.291067
0.316697 0.316697 0.316697
0.000000 0.000000 0.000000
0.007961 0.007961 0.007961
0.029345 0.029345 0.029345
0.051186 0.051186 0.051186
0.073458 0.073458 0.073458
0.096137 0.096137 0.096137
0.119202 0.119202 0.119202
0.142635 0.142635 0.142635
0.166419 0.166419 0.166419
0.190539 0.190539 0.190539
0.214982 0.214982 0.214982
0.239735 0.239735 0.239735
0.264788 0.264788 0.264788
0.290129 0.290129 0.290129
0.315750 0.315750 0.315750
0.341641 0.341641 0.341641
0.367794 0.367794 0.367794
0.028550 0.028550 0.028550
0.050375 0.050375 0.050375
0.072631 0.072631 0.072631
0.095295 0.095295 0.095295
0.118347 0.118347 0.118347
0.141766 0.141766 0.141766
0.165538 0.165538 0.165538
0.189646 0.189646 0.189646
0.214077 0.214077 0.214077
0.238819 0.238819 0.238819
0.263861 0.263861 0.263861
0.289192 0.289192 0.289192
0.314802 0.314802 0.314802
0.340684 0.340684 0.340684
0.366827 0.366827 0.366827
0.393226 0.393226 0.393226
0.419872 0.419872 0.419872
0.071805 0.071805 0.071805
0.094455 0.094455 0.094455
0.117492 0.117492 0.117492
0.140898 0.140898 0.140898
0.164657 0.164657 0.164657
0.188753 0.188753 0.188753
0.213173 0.213173 0.213173
0.237903 0.237903 0.237903
0.262934 0.262934 0.262934
0.288255 0.288255 0.288255
0.313855 0.313855 0.313855
0.339727 0.339727 0.339727
0.365861 0.365861 0.365861
0.392250 0.392250 0.392250
0.418888 0.418888 0.418888
0.445766 0.445766 0.445766
0.472879 0.472879 0.472879
0.116638 0.116638 0.116638
0.140031 0.140031 0.140031
0.163777 0.163777 0.163777
0.187861 0.187861 0.187861
0.212269 0.212269 0.212269
0.236988 0.236988 0.236988
0.262008 0.262008 0.262008
0.287318 0.287318 0.287318
0.312909 0.312909 0.312909
0.338770 0.338770 0.338770
0.364895 0.364895 0.364895
0.391275 0.391275 0.391275
0.417903 0.417903 0.417903
0.444773 0.444773 0.444773
0.471878 0.471878 0.471878
0.499212 0.499212 0.499212
0.526769 0.526769 0.526769
0.162897 0.162897 0.162897
0.186969 0.186969 0.186969
0.211365 0.211365 0.211365
0.236073 0.236073 0.236073
0.261083 0.261083 0.261083
0.286382 0.286382 0.286382
0.311962 0.311962 0.311962
0.337814 0.337814 0.337814
0.363929 0.363929 0.363929
0.390300 0.390300 0.390300
0.416919 0.416919 0.416919
0.443780 0.443780 0.443780
0.470877 0.470877 0.470877
0.498202 0.498202 0.498202
0.525751 0.525751 0.525751
0.553519 0.553519 0.553519
0.581500 0.581500 0.581500
0.210462 0.210462 0.210462
0.235159 0.235159 0.235159
0.260157 0.260157 0.260157
0.285446 0.285446 0.285446
0.311016 0.311016 0.311016
0.336858 0.336858 0.336858
0.362964 0.362964 0.362964
0.389326 0.389326 0.389326
0.415936 0.415936 0.415936
0.442788 0.442788 0.442788
0.469876 0.469876 0.469876
0.497193 0.497193 0.497193
0.524734 0.524734 0.524734
0.552494 0.552494 0.552494
0.580467 0.580467 0.580467
0.608649 0.608649 0.608649
0.637035 0.637035 0.637035
0.259232 0.259232 0.259232
0.284511 0.284511 0.284511
0.310071 0.310071 0.310071
0.335903 0.335903 0.335903
0.361999 0.361999 0.361999
0.388351 0.388351 0.388351
0.414952 0.414952 0.414952
0.441796 0.441796 0.441796
0.468875 0.468875 0.468875
0.496184 0.496184 0.496184
0.523717 0.523717 0.523717
0.551469 0.551469 0.551469
0.579434 0.579434 0.579434
0.607608 0.607608 0.607608
0.635987 0.635987 0.635987
0.664566 0.664566 0.664566
0.693340 0.693340 0.693340
0.309126 0.309126 0.309126
0.334948 0.334948 0.334948
0.361034 0.361034 0.361034
0.387377 0.387377 0.387377
0.413969 0.413969 0.413969
0.440804 0.440804 0.440804
0.467875 0.467875 0.467875
0.495175 0.495175 0.495175
0.522700 0.522700 0.522700
0.550444 0.550444 0.550444
0.578401 0.578401 0.578401
0.606568 0.606568 0.606568
0.634939 0.634939 0.634939
0.663511 0.663511 0.663511
0.692278 0.692278 0.692278
0.721238 0.721238 0.721238
0.750386 0.750386 0.750386
0.360070 0.360070 0.360070
0.386404 0.386404 0.386404
0.412987 0.412987 0.412987
0.439813 0.439813 0.439813
0.466875 0.466875 0.466875
0.494167 0.494167 0.494167
0.521683 0.521683 0.521683
0.549419 0.549419 0.549419
0.577369 0.577369 0.577369
0.605528 0.605528 0.605528
0.633892 0.633892 0.633892
0.662456 0.662456 0.662456
0.691217 0.691217 0.691217
0.720169 0.720169 0.720169
0.749310 0.749310 0.749310
0.778637 0.778637 0.778637
0.808144 0.808144 0.808144
0.412005 0.412005 0.412005
0.438822 0.438822 0.438822
0.465875 0.465875 0.465875
0.493159 0.493159 0.493159
0.520667 0.520667 0.520667
0.548395 0.548395 0.548395
0.576337 0.576337 0.576337
0.604489 0.604489 0.604489
0.632845 0.632845 0.632845
0.661402 0.661402 0.661402
0.690155 0.690155 0.690155
0.719101 0.719101 0.719101
0.748235 0.748235 0.748235
0.777554 0.777554 0.777554
0.807055 0.807055 0.807055
0.836735 0.836735 0.836735
0.866589 0.866589 0.866589
0.464876 0.464876 0.464876
0.492151 0.492151 0.492151
0.519651 0.519651 0.519651
0.547371 0.547371 0.547371
0.575305 0.575305 0.575305
0.603449 0.603449 0.603449
0.631798 0.631798 0.631798
0.660348 0.660348 0.660348
0.689094 0.689094 0.689094
0.718032 0.718032 0.718032
0.747160 0.747160 0.747160
0.776473 0.776473 0.776473
0.805967 0.805967 0.805967
0.835640 0.835640 0.835640
0.865488 0.865488 0.865488
0.895508 0.895508 0.895508
0.925698 0.925698 0.925698
0.518636 0.518636 0.518636
0.546348 0.546348 0.546348
0.574274 0.574274 0.574274
0.602410 0.602410 0.602410
0.630752 0.630752 0.630752
0.659294 0.659294 0.659294
0.688033 0.688033 0.688033
0.716964 0.716964 0.716964
0.746085 0.746085 0.746085
0.775391 0.775391 0.775391
0.804879 0.804879 0.804879
0.834545 0.834545 0.834545
0.864387 0.864387 0.864387
0.894401 0.894401 0.894401
0.924584 0.924584 0.924584
0.954935 0.954935 0.954935
0.985449 0.985449 0.985449
0.000000 0.000000 0.000000
0.000000 0.000000 0.000000
0.000000 0.000000 0.000000
0.000000 0.000000 0.000000
0.000000 0.000000 0.000000
0.000000 0.000000 0.000000
0.000000 0.000000 0.000000
0.000000 0.000000 0.000000
0.000000 0.000000 0.000000
0.000000 0.000000 0.000000
0.000000 0.000000 0.000000
0.019990 0.019990 0.019990
0.041635 0.041635 0.041635
0.063723 0.063723 0.063723
0.086228 0.086228 0.086228
0.109127 0.109127 0.109127
0.132402 0.132402 0.132402
0.000000 0.000000 0.000000
0.000000 0.000000 0.000000
0.000000 0.000000 0.000000
0.000000 0.000000 0.000000
0.000000 0.000000 0.000000
0.000000 0.000000 0.000000
0.000000 0.000000 0.000000
0.000000 0.000000 0.000000
0.000000 0.000000 0.000000
0.019202 0.019202 0.019202
0.040831 0.040831 0.040831
0.062903 0.062903 0.062903
0.085393 0.085393 0.085393
0.108278 0.108278 0.108278
0.131540 0.131540 0.131540
0.155160 0.155160 0.155160
0.179123 0.179123 0.179123
0.000000 0.000000 0.000000
0.000000 0.000000 0.000000
0.000000 0.000000 0.000000
0.000000 0.000000 0.000000
0.000000 0.000000 0.000000
0.000000 0.000000 0.000000
0.000000 0.000000 0.000000
0.018415 0.018415 0.018415
0.040027 0.040027 0.040027
0.062083 0.062083 0.062083
0.084558 0.084558 0.084558
0.107429 0.107429 0.107429
0.130677 0.130677 0.130677
0.154285 0.154285 0.154285
0.178236 0.178236 0.178236
0.202516 0.202516 0.202516
0.227113 0.227113 0.227113
0.000000 0.000000 0.000000
0.000000 0.000000 0.000000
0.000000 0.000000 0.000000
0.000000 0.000000 0.000000
0.000000 0.000000 0.000000
0.017629 0.017629 0.017629
0.039224 0.039224 0.039224
0.061264 0.061264 0.061264
0.083724 0.083724 0.083724
0.106581 0.106581 0.106581
0.129816 0.129816 0.129816
0.153410 0.153410 0.153410
0.177349 0.177349 0.177349
0.201617 0.201617 0.201617
0.226203 0.226203 0.226203
0.251094 0.251094 0.251094
0.276279 0.276279 0.276279
0.000000 0.000000 0.000000
0.000000 0.000000 0.000000
0.000000 0.000000 0.000000
0.016843 0.016843 0.016843
0.038422 0.038422 0.038422
0.060446 0.060446 0.060446
0.082891 0.082891 0.082891
0.105734 0.105734 0.105734
0.128954 0.128954 0.128954
0.152536 0.152536 0.152536
0.176462 0.176462 0.176462
0.200719 0.200719 0.200719
0.225293 0.225293 0.225293
0.250173 0.250173 0.250173
0.275347 0.275347 0.275347
0.300807 0.300807 0.300807
0.326541 0.326541 0.326541
0.000000 0.000000 0.000000
0.016058 0.016058 0.016058
0.037620 0.037620 0.037620
0.059628 0.059628 0.059628
0.082058 0.082058 0.082058
0.104886 0.104886 0.104886
0.128094 0.128094 0.128094
0.151662 0.151662 0.151662
0.175576 0.175576 0.175576
0.199821 0.199821 0.199821
0.224383 0.224383 0.224383
0.249252 0.249252 0.249252
0.274416 0.274416 0.274416
0.299865 0.299865 0.299865
0.325590 0.325590 0.325590
0.351582 0.351582 0.351582
0.377833 0.377833 0.377833
0.036818 0.036818 0.036818
0.058811 0.058811 0.058811
0.081226 0.081226 0.081226
0.104040 0.104040 0.104040
0.127233 0.127233 0.127233
0.150789 0.150789 0.150789
0.174690 0.174690 0.174690
0.198923 0.198923 0.198923
0.223474 0.223474 0.223474
0.248332 0.248332 0.248332
0.273485 0.273485 0.273485
0.298924 0.298924 0.298924
0.324639 0.324639 0.324639
0.350621 0.350621 0.350621
0.376863 0.376863 0.376863
0.403357 0.403357 0.403357
0.430095 0.430095 0.430095
0.080394 0.080394 0.080394
0.103194 0.103194 0.103194
0.126374 0.126374 0.126374
0.149916 0.149916 0.149916
0.173805 0.173805 0.173805
0.198026 0.198026 0.198026
0.222566 0.222566 0.222566
0.247412 0.247412 0.247412
0.272555 0.272555 0.272555
0.297983 0.297983 0.297983
0.323688 0.323688 0.323688
0.349660 0.349660 0.349660
0.375893 0.375893 0.375893
0.402378 0.402378 0.402378
0.429108 0.429108 0.429108
0.456076 0.456076 0.456076
0.483277 0.483277 0.483277
0.125514 0.125514 0.125514
0.149044 0.149044 0.149044
0.172920 0.172920 0.172920
0.197129 0.197129 0.197129
0.221657 0.221657 0.221657
0.246493 0.246493 0.246493
0.271625 0.271625 0.271625
0.297043 0.297043 0.297043
0.322737 0.322737 0.322737
0.348700 0.348700 0.348700
0.374923 0.374923 0.374923
0.401399 0.401399 0.401399
0.428120 0.428120 0.428120
0.455080 0.455080 0.455080
0.482273 0.482273 0.482273
0.509692 0.509692 0.509692
0.537334 0.537334 0.537334
0.172036 0.172036 0.172036
0.196233 0.196233 0.196233
0.220749 0.220749 0.220749
0.245574 0.245574 0.245574
0.270695 0.270695 0.270695
0.296102 0.296102 0.296102
0.321787 0.321787 0.321787
0.347740 0.347740 0.347740
0.373954 0.373954 0.373954
0.400420 0.400420 0.400420
0.427133 0.427133 0.427133
0.454084 0.454084 0.454084
0.481268 0.481268 0.481268
0.508680 0.508680 0.508680
0.536313 0.536313 0.536313
0.564162 0.564162 0.564162
0.592223 0.592223 0.592223
0.219842 0.219842 0.219842
0.244655 0.244655 0.244655
0.269766 0.269766 0.269766
0.295163 0.295163 0.295163
0.320837 0.320837 0.320837
0.346781 0.346781 0.346781
0.372985 0.372985 0.372985
0.399442 0.399442 0.399442
0.426146 0.426146 0.426146
0.453088 0.453088 0.453088
0.480264 0.480264 0.480264
0.507667 0.507667 0.507667
0.535292 0.535292 0.535292
0.563134 0.563134 0.563134
0.591187 0.591187 0.591187
0.619448 0.619448 0.619448
0.647910 0.647910 0.647910
0.268837 0.268837 0.268837
0.294223 0.294223 0.294223
0.319888 0.319888 0.319888
0.345822 0.345822 0.345822
0.372016 0.372016 0.372016
0.398465 0.398465 0.398465
0.425159 0.425159 0.425159
0.452093 0.452093 0.452093
0.479260 0.479260 0.479260
0.506655 0.506655 0.506655
0.534272 0.534272 0.534272
0.562106 0.562106 0.562106
0.590152 0.590152 0.590152
0.618404 0.618404 0.618404
0.646860 0.646860 0.646860
0.675514 0.675514 0.675514
0.704362 0.704362 0.704362
0.318939 0.318939 0.318939
0.344863 0.344863 0.344863
0.371048 0.371048 0.371048
0.397487 0.397487 0.397487
0.424173 0.424173 0.424173
0.451098 0.451098 0.451098
0.478257 0.478257 0.478257
0.505643 0.505643 0.505643
0.533252 0.533252 0.533252
0.561078 0.561078 0.561078
0.589116 0.589116 0.589116
0.617361 0.617361 0.617361
0.645809 0.645809 0.645809
0.674456 0.674456 0.674456
0.703297 0.703297 0.703297
0.732329 0.732329 0.732329
0.761548 0.761548 0.761548
0.370080 0.370080 0.370080
0.396510 0.396510 0.396510
0.423186 0.423186 0.423186
0.450103 0.450103 0.450103
0.477253 0.477253 0.477253
0.504632 0.504632 0.504632
0.532233 0.532233 0.532233
0.560051 0.560051 0.560051
0.588081 0.588081 0.588081
0.616319 0.616319 0.616319
0.644759 0.644759 0.644759
0.673399 0.673399 0.673399
0.702233 0.702233 0.702233
0.731258 0.731258 0.731258
0.760470 0.760470 0.760470
0.789866 0.789866 0.789866
0.819442 0.819442 0.819442
0.422201 0.422201 0.422201
0.449109 0.449109 0.449109
0.476251 0.476251 0.476251
0.503621 0.503621 0.503621
0.531213 0.531213 0.531213
0.559024 0.559024 0.559024
0.587046 0.587046 0.587046
0.615276 0.615276 0.615276
0.643709 0.643709 0.643709
0.672342 0.672342 0.672342
0.701169 0.701169 0.701169
0.730187 0.730187 0.730187
0.759392 0.759392 0.759392
0.788781 0.788781 0.788781
0.818350 0.818350 0.818350
0.848097 0.848097 0.848097
0.878017 0.878017 0.878017
0.475248 0.475248 0.475248
0.502610 0.502610 0.502610
0.530194 0.530194 0.530194
0.557997 0.557997 0.557997
0.586011 0.586011 0.586011
0.614234 0.614234 0.614234
0.642660 0.642660 0.642660
0.671285 0.671285 0.671285
0.700105 0.700105 0.700105
0.729116 0.729116 0.729116
0.758314 0.758314 0.758314
0.787697 0.787697 0.787697
0.817259 0.817259 0.817259
0.846999 0.846999 0.846999
0.876914 0.876914 0.876914
0.906999 0.906999 0.906999
0.937252 0.937252 0.937252
0.529176 0.529176 0.529176
0.556970 0.556970 0.556970
0.584977 0.584977 0.584977
0.613192 0.613192 0.613192
0.641611 0.641611 0.641611
0.670228 0.670228 0.670228
0.699041 0.699041 0.699041
0.728045 0.728045 0.728045
0.757237 0.757237 0.757237
0.786612 0.786612 0.786612
0.816169 0.816169 0.816169
0.845902 0.845902 0.845902
0.875810 0.875810 0.875810
0.905889 0.905889 0.905889
0.936136 0.936136 0.936136
0.966549 0.966549 0.966549
0.997125 0.997125 0.997125
0.000000 0.000000 0.000000
0.000000 0.000000 0.000000
0.000000 0.000000 0.000000
0.000000 0.000000 0.000000
0.000000 0.000000 0.000000
0.000000 0.000000 0.000000
0.000000 0.000000 0.000000
0.000000 0.000000 0.000000
0.000000 0.000000 0.000000
0.000000 0.000000 0.000000
0.006830 0.006830 0.006830
0.028189 0.028189 0.028189
0.050006 0.050006 0.050006
0.072256 0.072256 0.072256
0.094913 0.094913 0.094913
0.117958 0.117958 0.117958
0.141372 0.141372 0.141372
0.000000 0.000000 0.000000
0.000000 0.000000 0.000000
0.000000 0.000000 0.000000
0.000000 0.000000 0.000000
0.000000 0.000000 0.000000
0.000000 0.000000 0.000000
0.000000 0.000000 0.000000
0.000000 0.000000 0.000000
0.006054 0.006054 0.006054
0.027394 0.027394 0.027394
0.049196 0.049196 0.049196
0.071430 0.071430 0.071430
0.094073 0.094073 0.094073
0.117104 0.117104 0.117104
0.140504 0.140504 0.140504
0.164257 0.164257 0.164257
0.188347 0.188347 0.188347
0.000000 0.000000 0.000000
0.000000 0.000000 0.000000
0.000000 0.000000 0.000000
0.000000 0.000000 0.000000
0.000000 0.000000 0.000000
0.000000 0.000000 0.000000
0.005278 0.005278 0.005278
0.026601 0.026601 0.026601
0.048386 0.048386 0.048386
0.070604 0.070604 0.070604
0.093233 0.093233 0.093233
0.116250 0.116250 0.116250
0.139637 0.139637 0.139637
0.163377 0.163377 0.163377
0.187455 0.187455 0.187455
0.211858 0.211858 0.211858
0.236572 0.236572 0.236572
0.000000 0.000000 0.000000
0.000000 0.000000 0.000000
0.000000 0.000000 0.000000
0.000000 0.000000 0.000000
0.004503 0.004503 0.004503
0.025808 0.025808 0.025808
0.047576 0.047576 0.047576
0.069779 0.069779 0.069779
0.092393 0.092393 0.092393
0.115396 0.115396 0.115396
0.138770 0.138770 0.138770
0.162497 0.162497 0.162497
0.186564 0.186564 0.186564
0.210954 0.210954 0.210954
0.235658 0.235658 0.235658
0.260662 0.260662 0.260662
0.285957 0.285957 0.285957
0.000000 0.000000 0.000000
0.000000 0.000000 0.000000
0.003728 0.003728 0.003728
0.025016 0.025016 0.025016
0.046768 0.046768 0.046768
0.068955 0.068955 0.068955
0.091554 0.091554 0.091554
0.114543 0.114543 0.114543
0.137904 0.137904 0.137904
0.161618 0.161618 0.161618
0.185672 0.185672 0.185672
0.210051 0.210051 0.210051
0.234744 0.234744 0.234744
0.259737 0.259737 0.259737
0.285021 0.285021 0.285021
0.310586 0.310586 0.310586
0.336424 0.336424 0.336424
0.002954 0.002954 0.002954
0.024224 0.024224 0.024224
0.045960 0.045960 0.045960
0.068132 0.068132 0.068132
0.090716 0.090716 0.090716
0.113691 0.113691 0.113691
0.137038 0.137038 0.137038
0.160740 0.160740 0.160740
0.184782 0.184782 0.184782
0.209149 0.209149 0.209149
0.233830 0.233830 0.233830
0.258812 0.258812 0.258812
0.284086 0.284086 0.284086
0.309641 0.309641 0.309641
0.335469 0.335469 0.335469
0.361560 0.361560 0.361560
0.387908 0.387908 0.387908
0.045152 0.045152 0.045152
0.067308 0.067308 0.067308
0.089878 0.089878 0.089878
0.112839 0.112839 0.112839
0.136173 0.136173 0.136173
0.159862 0.159862 0.159862
0.183891 0.183891 0.183891
0.208247 0.208247 0.208247
0.232916 0.232916 0.232916
0.257888 0.257888 0.257888
0.283151 0.283151 0.283151
0.308696 0.308696 0.308696
0.334514 0.334514 0.334514
0.360596 0.360596 0.360596
0.386935 0.386935 0.386935
0.413523 0.413523 0.413523
0.440353 0.440353 0.440353
0.089041 0.089041 0.089041
0.111988 0.111988 0.111988
0.135308 0.135308 0.135308
0.158984 0.158984 0.158984
0.183001 0.183001 0.183001
0.207345 0.207345 0.207345
0.232003 0.232003 0.232003
0.256964 0.256964 0.256964
0.282217 0.282217 0.282217
0.307751 0.307751 0.307751
0.333559 0.333559 0.333559
0.359632 0.359632 0.359632
0.385961 0.385961 0.385961
0.412540 0.412540 0.412540
0.439362 0.439362 0.439362
0.466420 0.466420 0.466420
0.493709 0.493709 0.493709
0.134443 0.134443 0.134443
0.158107 0.158107 0.158107
0.182112 0.182112 0.182112
0.206444 0.206444 0.206444
0.231091 0.231091 0.231091
0.256040 0.256040 0.256040
0.281282 0.281282 0.281282
0.306807 0.306807 0.306807
0.332605 0.332605 0.332605
0.358668 0.358668 0.358668
0.384988 0.384988 0.384988
0.411558 0.411558 0.411558
0.438371 0.438371 0.438371
0.465421 0.465421 0.465421
0.492701 0.492701 0.492701
0.520205 0.520205 0.520205
0.547930 0.547930 0.547930
0.181223 0.181223 0.181223
0.205543 0.205543 0.205543
0.230179 0.230179 0.230179
0.255117 0.255117 0.255117
0.280349 0.280349 0.280349
0.305863 0.305863 0.305863
0.331651 0.331651 0.331651
0.357705 0.357705 0.357705
0.384015 0.384015 0.384015
0.410576 0.410576 0.410576
0.437380 0.437380 0.437380
0.464421 0.464421 0.464421
0.491693 0.491693 0.491693
0.519190 0.519190 0.519190
0.546906 0.546906 0.546906
0.574837 0.574837 0.574837
0.602977 0.602977 0.602977
0.229267 0.229267 0.229267
0.254195 0.254195 0.254195
0.279415 0.279415 0.279415
0.304920 0.304920 0.304920
0.330698 0.330698 0.330698
0.356741 0.356741 0.356741
0.383043 0.383043 0.383043
0.409595 0.409595 0.409595
0.436390 0.436390 0.436390
0.463422 0.463422 0.463422
0.490686 0.490686 0.490686
0.518174 0.518174 0.518174
0.545882 0.545882 0.545882
0.573805 0.573805 0.573805
0.601938 0.601938 0.601938
0.630276 0.630276 0.630276
0.658815 0.658815 0.658815
0.278483 0.278483 0.278483
0.303976 0.303976 0.303976
0.329745 0.329745 0.329745
0.355779 0.355779 0.355779
0.382071 0.382071 0.382071
0.408614 0.408614 0.408614
0.435400 0.435400 0.435400
0.462424 0.462424 0.462424
0.489679 0.489679 0.489679
0.517159 0.517159 0.517159
0.544859 0.544859 0.544859
0.572774 0.572774 0.572774
0.600899 0.600899 0.600899
0.629230 0.629230 0.629230
0.657762 0.657762 0.657762
0.686490 0.686490 0.686490
0.715411 0.715411 0.715411
0.328792 0.328792 0.328792
0.354816 0.354816 0.354816
0.381099 0.381099 0.381099
0.407633 0.407633 0.407633
0.434410 0.434410 0.434410
0.461425 0.461425 0.461425
0.488672 0.488672 0.488672
0.516144 0.516144 0.516144
0.543836 0.543836 0.543836
0.571744 0.571744 0.571744
0.599861 0.599861 0.599861
0.628184 0.628184 0.628184
0.656708 0.656708 0.656708
0.685430 0.685430 0.685430
0.714344 0.714344 0.714344
0.743448 0.743448 0.743448
0.772737 0.772737 0.772737
0.380128 0.380128 0.380128
0.406652 0.406652 0.406652
0.433421 0.433421 0.433421
0.460427 0.460427 0.460427
0.487665 0.487665 0.487665
0.515129 0.515129 0.515129
0.542814 0.542814 0.542814
0.570713 0.570713 0.570713
0.598823 0.598823 0.598823
0.627139 0.627139 0.627139
0.655655 0.655655 0.655655
0.684370 0.684370 0.684370
0.713277 0.713277 0.713277
0.742374 0.742374 0.742374
0.771656 0.771656 0.771656
0.801121 0.801121 0.801121
0.830765 0.830765 0.830765
0.432432 0.432432 0.432432
0.459430 0.459430 0.459430
0.486659 0.486659 0.486659
0.514115 0.514115 0.514115
0.541791 0.541791 0.541791
0.569683 0.569683 0.569683
0.597785 0.597785 0.597785
0.626093 0.626093 0.626093
0.654603 0.654603 0.654603
0.683310 0.683310 0.683310
0.712210 0.712210 0.712210
0.741300 0.741300 0.741300
0.770576 0.770576 0.770576
0.800034 0.800034 0.800034
0.829671 0.829671 0.829671
0.859484 0.859484 0.859484
0.889470 0.889470 0.889470
0.485654 0.485654 0.485654
0.513101 0.513101 0.513101
0.540769 0.540769 0.540769
0.568653 0.568653 0.568653
0.596748 0.596748 0.596748
0.625048 0.625048 0.625048
0.653550 0.653550 0.653550
0.682250 0.682250 0.682250
0.711143 0.711143 0.711143
0.740226 0.740226 0.740226
0.769495 0.769495 0.769495
0.798947 0.798947 0.798947
0.828578 0.828578 0.828578
0.858384 0.858384 0.858384
0.888364 0.888364 0.888364
0.918514 0.918514 0.918514
0.948831 0.948831 0.948831
0.539747 0.539747 0.539747
0.567623 0.567623 0.567623
0.595710 0.595710 0.595710
0.624003 0.624003 0.624003
0.652498 0.652498 0.652498
0.681191 0.681191 0.681191
0.710077 0.710077 0.710077
0.739153 0.739153 0.739153
0.768415 0.768415 0.768415
0.797860 0.797860 0.797860
0.827484 0.827484 0.827484
0.857285 0.857285 0.857285
0.887258 0.887258 0.887258
0.917402 0.917402 0.917402
0.947713 0.947713 0.947713
0.978188 0.978188 0.978188
1.000000 1.000000 1.000000
0.000000 0.000000 0.000000
0.000000 0.000000 0.000000
0.000000 0.000000 0.000000
0.000000 0.000000 0.000000
0.000000 0.000000 0.000000
0.000000 0.000000 0.000000
0.000000 0.000000 0.000000
0.000000 0.000000 0.000000
0.000000 0.000000 0.000000
0.000000 0.000000 0.000000
0.014918 0.014918 0.014918
0.036454 0.036454 0.036454
0.058440 0.058440 0.058440
0.080847 0.080847 0.080847
0.103655 0.103655 0.103655
0.126843 0.126843 0.126843
0.150392 0.150392 0.150392
