public/luts/black_white.cube
# Video Color Grader Preset
TITLE "Black & White"
LUT_3D_SIZE 5
DOMAIN_MIN 0.0 0.0 0.0
DOMAIN_MAX 1.0 1.0 1.0
0.000000 0.000000 0.000000
0.000000 0.000000 0.000000
0.000000 0.000000 0.000000
0.033329 0.033329 0.033329
0.123485 0.123485 0.123485
0.000000 0.000000 0.000000
0.030140 0.030140 0.030140
0.120058 0.120058 0.120058
0.215887 0.215887 0.215887
0.316697 0.316697 0.316697
0.116638 0.116638 0.116638
0.212269 0.212269 0.212269
0.312909 0.312909 0.312909
0.417903 0.417903 0.417903
0.526769 0.526769 0.526769
0.309126 0.309126 0.309126
0.413969 0.413969 0.413969
0.522700 0.522700 0.522700
0.634939 0.634939 0.634939
0.750386 0.750386 0.750386
0.518636 0.518636 0.518636
0.630752 0.630752 0.630752
0.746085 0.746085 0.746085
0.864387 0.864387 0.864387
0.985449 0.985449 0.985449
0.000000 0.000000 0.000000
0.000000 0.000000 0.000000
0.000000 0.000000 0.000000
0.066934 0.066934 0.066934
0.159463 0.159463 0.159463
0.000000 0.000000 0.000000
0.063649 0.063649 0.063649
0.155956 0.155956 0.155956
0.253775 0.253775 0.253775
0.356304 0.356304 0.356304
0.152456 0.152456 0.152456
0.250089 0.250089 0.250089
0.352456 0.352456 0.352456
0.458976 0.458976 0.458976
0.569215 0.569215 0.569215
0.348613 0.348613 0.348613
0.454989 0.454989 0.454989
0.565097 0.565097 0.565097
0.678592 0.678592 0.678592
0.795194 0.795194 0.795194
0.560985 0.560985 0.560985
0.674360 0.674360 0.674360
0.790852 0.790852 0.790852
0.910229 0.910229 0.910229
1.000000 1.000000 1.000000
0.000000 0.000000 0.000000
0.000000 0.000000 0.000000
0.012925 0.012925 0.012925
0.101503 0.101503 0.101503
0.196233 0.196233 0.196233
0.009802 0.009802 0.009802
0.098127 0.098127 0.098127
0.192652 0.192652 0.192652
0.292346 0.292346 0.292346
0.396510 0.396510 0.396510
0.189077 0.189077 0.189077
0.288595 0.288595 0.288595
0.392605 0.392605 0.392605
0.500589 0.500589 0.500589
0.612150 0.612150 0.612150
0.388705 0.388705 0.388705
0.496551 0.496551 0.496551
0.607987 0.607987 0.607987
0.722696 0.722696 0.722696
0.840420 0.840420 0.840420
0.603827 0.603827 0.603827
0.718421 0.718421 0.718421
0.836038 0.836038 0.836038
0.956461 0.956461 0.956461
1.000000 1.000000 1.000000
0.000000 0.000000 0.000000
0.000000 0.000000 0.000000
0.045886 0.045886 0.045886
0.136959 0.136959 0.136959
0.233747 0.233747 0.233747
0.042660 0.042660 0.042660
0.133501 0.133501 0.133501
0.230096 0.230096 0.230096
0.331564 0.331564 0.331564
0.437290 0.437290 0.437290
0.226451 0.226451 0.226451
0.327753 0.327753 0.327753
0.433331 0.433331 0.433331
0.542721 0.542721 0.542721
0.655560 0.655560 0.655560
0.429377 0.429377 0.429377
0.538633 0.538633 0.538633
0.651351 0.651351 0.651351
0.767237 0.767237 0.767237
0.886052 0.886052 0.886052
0.647146 0.647146 0.647146
0.762921 0.762921 0.762921
0.881631 0.881631 0.881631
1.000000 1.000000 1.000000
1.000000 1.000000 1.000000
0.000000 0.000000 0.000000
0.000000 0.000000 0.000000
0.079865 0.079865 0.079865
0.173242 0.173242 0.173242
0.271963 0.271963 0.271963
0.076544 0.076544 0.076544
0.169706 0.169706 0.169706
0.268246 0.268246 0.268246
0.371400 0.371400 0.371400
0.478622 0.478622 0.478622
0.264535 0.264535 0.264535
0.367530 0.367530 0.367530
0.474610 0.474610 0.474610
0.585353 0.585353 0.585353
0.699428 0.699428 0.699428
0.470604 0.470604 0.470604
0.581218 0.581218 0.581218
0.695175 0.695175 0.695175
0.812204 0.812204 0.812204
0.932080 0.932080 0.932080
0.690927 0.690927 0.690927
0.807847 0.807847 0.807847
0.927622 0.927622 0.927622
1.000000 1.000000 1.000000
1.000000 1.000000 1.000000
