public/luts/black_white.cube
# Video Color Grader Preset
TITLE "Black & White"
LUT_3D_SIZE 9
DOMAIN_MIN 0.0 0.0 0.0
DOMAIN_MAX 1.0 1.0 1.0
0.000000 0.000000 0.000000
0.000000 0.000000 0.000000
0.000000 0.000000 0.000000
0.000000 0.000000 0.000000
0.000000 0.000000 0.000000
0.000000 0.000000 0.000000
0.033329 0.033329 0.033329
0.077600 0.077600 0.077600
0.123485 0.123485 0.123485
0.000000 0.000000 0.000000
0.000000 0.000000 0.000000
0.000000 0.000000 0.000000
0.000000 0.000000 0.000000
0.031733 0.031733 0.031733
0.075941 0.075941 0.075941
0.121770 0.121770 0.121770
0.169064 0.169064 0.169064
0.217699 0.217699 0.217699
0.000000 0.000000 0.000000
0.000000 0.000000 0.000000
0.030140 0.030140 0.030140
0.074285 0.074285 0.074285
0.120058 0.120058 0.120058
0.167300 0.167300 0.167300
0.215887 0.215887 0.215887
0.265715 0.265715 0.265715
0.316697 0.316697 0.316697
0.028550 0.028550 0.028550
0.072631 0.072631 0.072631
0.118347 0.118347 0.118347
0.165538 0.165538 0.165538
0.214077 0.214077 0.214077
0.263861 0.263861 0.263861
0.314802 0.314802 0.314802
0.366827 0.366827 0.366827
0.419872 0.419872 0.419872
0.116638 0.116638 0.116638
0.163777 0.163777 0.163777
0.212269 0.212269 0.212269
0.262008 0.262008 0.262008
0.312909 0.312909 0.312909
0.364895 0.364895 0.364895
0.417903 0.417903 0.417903
0.471878 0.471878 0.471878
0.526769 0.526769 0.526769
0.210462 0.210462 0.210462
0.260157 0.260157 0.260157
0.311016 0.311016 0.311016
0.362964 0.362964 0.362964
0.415936 0.415936 0.415936
0.469876 0.469876 0.469876
0.524734 0.524734 0.524734
0.580467 0.580467 0.580467
0.637035 0.637035 0.637035
0.309126 0.309126 0.309126
0.361034 0.361034 0.361034
0.413969 0.413969 0.413969
0.467875 0.467875 0.467875
0.522700 0.522700 0.522700
0.578401 0.578401 0.578401
0.634939 0.634939 0.634939
0.692278 0.692278 0.692278
0.750386 0.750386 0.750386
0.412005 0.412005 0.412005
0.465875 0.465875 0.465875
0.520667 0.520667 0.520667
0.576337 0.576337 0.576337
0.632845 0.632845 0.632845
0.690155 0.690155 0.690155
0.748235 0.748235 0.748235
0.807055 0.807055 0.807055
0.866589 0.866589 0.866589
0.518636 0.518636 0.518636
0.574274 0.574274 0.574274
0.630752 0.630752 0.630752
0.688033 0.688033 0.688033
0.746085 0.746085 0.746085
0.804879 0.804879 0.804879
0.864387 0.864387 0.864387
0.924584 0.924584 0.924584
0.985449 0.985449 0.985449
0.000000 0.000000 0.000000
0.000000 0.000000 0.000000
0.000000 0.000000 0.000000
0.000000 0.000000 0.000000
0.000000 0.000000 0.000000
0.006830 0.006830 0.006830
0.050006 0.050006 0.050006
0.094913 0.094913 0.094913
0.141372 0.141372 0.141372
0.000000 0.000000 0.000000
0.000000 0.000000 0.000000
0.000000 0.000000 0.000000
0.005278 0.005278 0.005278
0.048386 0.048386 0.048386
0.093233 0.093233 0.093233
0.139637 0.139637 0.139637
0.187455 0.187455 0.187455
0.236572 0.236572 0.236572
0.000000 0.000000 0.000000
0.003728 0.003728 0.003728
0.046768 0.046768 0.046768
0.091554 0.091554 0.091554
0.137904 0.137904 0.137904
0.185672 0.185672 0.185672
0.234744 0.234744 0.234744
0.285021 0.285021 0.285021
0.336424 0.336424 0.336424
0.045152 0.045152 0.045152
0.089878 0.089878 0.089878
0.136173 0.136173 0.136173
0.183891 0.183891 0.183891
0.232916 0.232916 0.232916
0.283151 0.283151 0.283151
0.334514 0.334514 0.334514
0.386935 0.386935 0.386935
0.440353 0.440353 0.440353
0.134443 0.134443 0.134443
0.182112 0.182112 0.182112
0.231091 0.231091 0.231091
0.281282 0.281282 0.281282
0.332605 0.332605 0.332605
0.384988 0.384988 0.384988
0.438371 0.438371 0.438371
0.492701 0.492701 0.492701
0.547930 0.547930 0.547930
0.229267 0.229267 0.229267
0.279415 0.279415 0.279415
0.330698 0.330698 0.330698
0.383043 0.383043 0.383043
0.436390 0.436390 0.436390
0.490686 0.490686 0.490686
0.545882 0.545882 0.545882
0.601938 0.601938 0.601938
0.658815 0.658815 0.658815
0.328792 0.328792 0.328792
0.381099 0.381099 0.381099
0.434410 0.434410 0.434410
0.488672 0.488672 0.488672
0.543836 0.543836 0.543836
0.599861 0.599861 0.599861
0.656708 0.656708 0.656708
0.714344 0.714344 0.714344
0.772737 0.772737 0.772737
0.432432 0.432432 0.432432
0.486659 0.486659 0.486659
0.541791 0.541791 0.541791
0.597785 0.597785 0.597785
0.654603 0.654603 0.654603
0.712210 0.712210 0.712210
0.770576 0.770576 0.770576
0.829671 0.829671 0.829671
0.889470 0.889470 0.889470
0.539747 0.539747 0.539747
0.595710 0.595710 0.595710
0.652498 0.652498 0.652498
0.710077 0.710077 0.710077
0.768415 0.768415 0.768415
0.827484 0.827484 0.827484
0.887258 0.887258 0.887258
0.947713 0.947713 0.947713
1.000000 1.000000 1.000000
0.000000 0.000000 0.000000
0.000000 0.000000 0.000000
0.000000 0.000000 0.000000
0.000000 0.000000 0.000000
0.000000 0.000000 0.000000
0.023074 0.023074 0.023074
0.066934 0.066934 0.066934
0.112452 0.112452 0.112452
0.159463 0.159463 0.159463
0.000000 0.000000 0.000000
0.000000 0.000000 0.000000
0.000000 0.000000 0.000000
0.021495 0.021495 0.021495
0.065290 0.065290 0.065290
0.110750 0.110750 0.110750
0.157708 0.157708 0.157708
0.206034 0.206034 0.206034
0.255621 0.255621 0.255621
0.000000 0.000000 0.000000
0.019918 0.019918 0.019918
0.063649 0.063649 0.063649
0.109050 0.109050 0.109050
0.155956 0.155956 0.155956
0.204234 0.204234 0.204234
0.253775 0.253775 0.253775
0.304491 0.304491 0.304491
0.356304 0.356304 0.356304
0.062009 0.062009 0.062009
0.107352 0.107352 0.107352
0.154205 0.154205 0.154205
0.202435 0.202435 0.202435
0.251931 0.251931 0.251931
0.302605 0.302605 0.302605
0.354379 0.354379 0.354379
0.407187 0.407187 0.407187
0.460972 0.460972 0.460972
0.152456 0.152456 0.152456
0.200637 0.200637 0.200637
0.250089 0.250089 0.250089
0.300721 0.300721 0.300721
0.352456 0.352456 0.352456
0.405227 0.405227 0.405227
0.458976 0.458976 0.458976
0.513654 0.513654 0.513654
0.569215 0.569215 0.569215
0.248248 0.248248 0.248248
0.298838 0.298838 0.298838
0.350534 0.350534 0.350534
0.403268 0.403268 0.403268
0.456982 0.456982 0.456982
0.511627 0.511627 0.511627
0.567156 0.567156 0.567156
0.623529 0.623529 0.623529
0.680710 0.680710 0.680710
0.348613 0.348613 0.348613
0.401310 0.401310 0.401310
0.454989 0.454989 0.454989
0.509600 0.509600 0.509600
0.565097 0.565097 0.565097
0.621440 0.621440 0.621440
0.678592 0.678592 0.678592
0.736520 0.736520 0.736520
0.795194 0.795194 0.795194
0.452998 0.452998 0.452998
0.507575 0.507575 0.507575
0.563041 0.563041 0.563041
0.619353 0.619353 0.619353
0.676475 0.676475 0.676475
0.734375 0.734375 0.734375
0.793022 0.793022 0.793022
0.852389 0.852389 0.852389
0.912450 0.912450 0.912450
0.560985 0.560985 0.560985
0.617267 0.617267 0.617267
0.674360 0.674360 0.674360
0.732232 0.732232 0.732232
0.790852 0.790852 0.790852
0.850193 0.850193 0.850193
0.910229 0.910229 0.910229
0.970937 0.970937 0.970937
1.000000 1.000000 1.000000
0.000000 0.000000 0.000000
0.000000 0.000000 0.000000
0.000000 0.000000 0.000000
0.000000 0.000000 0.000000
0.000000 0.000000 0.000000
0.039589 0.039589 0.039589
0.084103 0.084103 0.084103
0.130207 0.130207 0.130207
0.177752 0.177752 0.177752
0.000000 0.000000 0.000000
0.000000 0.000000 0.000000
0.000000 0.000000 0.000000
0.037984 0.037984 0.037984
0.082436 0.082436 0.082436
0.128485 0.128485 0.128485
0.175979 0.175979 0.175979
0.224797 0.224797 0.224797
0.274839 0.274839 0.274839
0.000000 0.000000 0.000000
0.036382 0.036382 0.036382
0.080772 0.080772 0.080772
0.126764 0.126764 0.126764
0.174207 0.174207 0.174207
0.222979 0.222979 0.222979
0.272978 0.272978 0.272978
0.324120 0.324120 0.324120
0.376334 0.376334 0.376334
0.079109 0.079109 0.079109
0.125046 0.125046 0.125046
0.172438 0.172438 0.172438
0.221162 0.221162 0.221162
0.271117 0.271117 0.271117
0.322219 0.322219 0.322219
0.374394 0.374394 0.374394
0.427581 0.427581 0.427581
0.481725 0.481725 0.481725
0.170670 0.170670 0.170670
0.219347 0.219347 0.219347
0.269259 0.269259 0.269259
0.320320 0.320320 0.320320
0.372457 0.372457 0.372457
0.425607 0.425607 0.425607
0.479717 0.479717 0.479717
0.534736 0.534736 0.534736
0.590622 0.590622 0.590622
0.267402 0.267402 0.267402
0.318422 0.318422 0.318422
0.370520 0.370520 0.370520
0.423635 0.423635 0.423635
0.477709 0.477709 0.477709
0.532696 0.532696 0.532696
0.588551 0.588551 0.588551
0.645237 0.645237 0.645237
0.702717 0.702717 0.702717
0.368585 0.368585 0.368585
0.421663 0.421663 0.421663
0.475704 0.475704 0.475704
0.530658 0.530658 0.530658
0.586482 0.586482 0.586482
0.643137 0.643137 0.643137
0.700588 0.700588 0.700588
0.758804 0.758804 0.758804
0.817755 0.817755 0.817755
0.473699 0.473699 0.473699
0.528620 0.528620 0.528620
0.584413 0.584413 0.584413
0.641038 0.641038 0.641038
0.698461 0.698461 0.698461
0.756649 0.756649 0.756649
0.815574 0.815574 0.815574
0.875208 0.875208 0.875208
0.935528 0.935528 0.935528
0.582345 0.582345 0.582345
0.638941 0.638941 0.638941
0.696335 0.696335 0.696335
0.754495 0.754495 0.754495
0.813393 0.813393 0.813393
0.873002 0.873002 0.873002
0.933297 0.933297 0.933297
0.994255 0.994255 0.994255
1.000000 1.000000 1.000000
0.000000 0.000000 0.000000
0.000000 0.000000 0.000000
0.000000 0.000000 0.000000
0.000000 0.000000 0.000000
0.012925 0.012925 0.012925
0.056362 0.056362 0.056362
0.101503 0.101503 0.101503
0.148172 0.148172 0.148172
0.196233 0.196233 0.196233
0.000000 0.000000 0.000000
0.000000 0.000000 0.000000
0.011362 0.011362 0.011362
0.054733 0.054733 0.054733
0.099814 0.099814 0.099814
0.146430 0.146430 0.146430
0.194441 0.194441 0.194441
0.243737 0.243737 0.243737
0.294223 0.294223 0.294223
0.009802 0.009802 0.009802
0.053106 0.053106 0.053106
0.098127 0.098127 0.098127
0.144689 0.144689 0.144689
0.192652 0.192652 0.192652
0.241902 0.241902 0.241902
0.292346 0.292346 0.292346
0.343905 0.343905 0.343905
0.396510 0.396510 0.396510
0.096443 0.096443 0.096443
0.142951 0.142951 0.142951
0.190864 0.190864 0.190864
0.240068 0.240068 0.240068
0.290470 0.290470 0.290470
0.341989 0.341989 0.341989
0.394557 0.394557 0.394557
0.448115 0.448115 0.448115
0.502610 0.502610 0.502610
0.189077 0.189077 0.189077
0.238236 0.238236 0.238236
0.288595 0.288595 0.288595
0.340075 0.340075 0.340075
0.392605 0.392605 0.392605
0.446127 0.446127 0.446127
0.500589 0.500589 0.500589
0.555944 0.555944 0.555944
0.612150 0.612150 0.612150
0.286722 0.286722 0.286722
0.338162 0.338162 0.338162
0.390655 0.390655 0.390655
0.444141 0.444141 0.444141
0.498569 0.498569 0.498569
0.553892 0.553892 0.553892
0.610068 0.610068 0.610068
0.667060 0.667060 0.667060
0.724835 0.724835 0.724835
0.388705 0.388705 0.388705
0.442157 0.442157 0.442157
0.496551 0.496551 0.496551
0.551841 0.551841 0.551841
0.607987 0.607987 0.607987
0.664949 0.664949 0.664949
0.722696 0.722696 0.722696
0.781195 0.781195 0.781195
0.840420 0.840420 0.840420
0.494533 0.494533 0.494533
0.549792 0.549792 0.549792
0.605906 0.605906 0.605906
0.662840 0.662840 0.662840
0.720558 0.720558 0.720558
0.779030 0.779030 0.779030
0.838228 0.838228 0.838228
0.898127 0.898127 0.898127
0.958702 0.958702 0.958702
0.603827 0.603827 0.603827
0.660731 0.660731 0.660731
0.718421 0.718421 0.718421
0.776866 0.776866 0.776866
0.836038 0.836038 0.836038
0.895911 0.895911 0.895911
0.956461 0.956461 0.956461
1.000000 1.000000 1.000000
1.000000 1.000000 1.000000
0.000000 0.000000 0.000000
0.000000 0.000000 0.000000
0.000000 0.000000 0.000000
0.000000 0.000000 0.000000
0.029272 0.029272 0.029272
0.073383 0.073383 0.073383
0.119124 0.119124 0.119124
0.166338 0.166338 0.166338
0.214899 0.214899 0.214899
0.000000 0.000000 0.000000
0.000000 0.000000 0.000000
0.027683 0.027683 0.027683
0.071730 0.071730 0.071730
0.117414 0.117414 0.117414
0.164577 0.164577 0.164577
0.213090 0.213090 0.213090
0.262850 0.262850 0.262850
0.313769 0.313769 0.313769
0.026096 0.026096 0.026096
0.070079 0.070079 0.070079
0.115707 0.115707 0.115707
0.162817 0.162817 0.162817
0.211283 0.211283 0.211283
0.260998 0.260998 0.260998
0.311876 0.311876 0.311876
0.363841 0.363841 0.363841
0.416830 0.416830 0.416830
0.114001 0.114001 0.114001
0.161059 0.161059 0.161059
0.209477 0.209477 0.209477
0.259148 0.259148 0.259148
0.309985 0.309985 0.309985
0.361911 0.361911 0.361911
0.414863 0.414863 0.414863
0.468784 0.468784 0.468784
0.523624 0.523624 0.523624
0.207673 0.207673 0.207673
0.257300 0.257300 0.257300
0.308095 0.308095 0.308095
0.359982 0.359982 0.359982
0.412898 0.412898 0.412898
0.466784 0.466784 0.466784
0.521591 0.521591 0.521591
0.577275 0.577275 0.577275
0.633797 0.633797 0.633797
0.306206 0.306206 0.306206
0.358055 0.358055 0.358055
0.410933 0.410933 0.410933
0.464785 0.464785 0.464785
0.519559 0.519559 0.519559
0.575212 0.575212 0.575212
0.631703 0.631703 0.631703
0.688997 0.688997 0.688997
0.747062 0.747062 0.747062
0.408970 0.408970 0.408970
0.462787 0.462787 0.462787
0.517528 0.517528 0.517528
0.573149 0.573149 0.573149
0.629610 0.629610 0.629610
0.686876 0.686876 0.686876
0.744913 0.744913 0.744913
0.803692 0.803692 0.803692
0.863186 0.863186 0.863186
0.515498 0.515498 0.515498
0.571088 0.571088 0.571088
0.627519 0.627519 0.627519
0.684755 0.684755 0.684755
0.742764 0.742764 0.742764
0.801516 0.801516 0.801516
0.860985 0.860985 0.860985
0.921144 0.921144 0.921144
0.981971 0.981971 0.981971
0.625428 0.625428 0.625428
0.682635 0.682635 0.682635
0.740617 0.740617 0.740617
0.799342 0.799342 0.799342
0.858784 0.858784 0.858784
0.918918 0.918918 0.918918
0.979721 0.979721 0.979721
1.000000 1.000000 1.000000
1.000000 1.000000 1.000000
0.000000 0.000000 0.000000
0.000000 0.000000 0.000000
0.000000 0.000000 0.000000
0.002884 0.002884 0.002884
0.045886 0.045886 0.045886
0.090640 0.090640 0.090640
0.136959 0.136959 0.136959
0.184701 0.184701 0.184701
0.233747 0.233747 0.233747
0.000000 0.000000 0.000000
0.001338 0.001338 0.001338
0.044272 0.044272 0.044272
0.088964 0.088964 0.088964
0.135229 0.135229 0.135229
0.182920 0.182920 0.182920
0.231920 0.231920 0.231920
0.282132 0.282132 0.282132
0.333472 0.333472 0.333472
0.042660 0.042660 0.042660
0.087291 0.087291 0.087291
0.133501 0.133501 0.133501
0.181142 0.181142 0.181142
0.230096 0.230096 0.230096
0.280264 0.280264 0.280264
0.331564 0.331564 0.331564
0.383927 0.383927 0.383927
0.437290 0.437290 0.437290
0.131775 0.131775 0.131775
0.179365 0.179365 0.179365
0.228273 0.228273 0.228273
0.278398 0.278398 0.278398
0.329658 0.329658 0.329658
0.381983 0.381983 0.381983
0.435310 0.435310 0.435310
0.489587 0.489587 0.489587
0.544766 0.544766 0.544766
0.226451 0.226451 0.226451
0.276533 0.276533 0.276533
0.327753 0.327753 0.327753
0.380039 0.380039 0.380039
0.433331 0.433331 0.433331
0.487574 0.487574 0.487574
0.542721 0.542721 0.542721
0.598729 0.598729 0.598729
0.655560 0.655560 0.655560
0.325849 0.325849 0.325849
0.378098 0.378098 0.378098
0.431353 0.431353 0.431353
0.485562 0.485562 0.485562
0.540676 0.540676 0.540676
0.596653 0.596653 0.596653
0.653455 0.653455 0.653455
0.711047 0.711047 0.711047
0.769397 0.769397 0.769397
0.429377 0.429377 0.429377
0.483552 0.483552 0.483552
0.538633 0.538633 0.538633
0.594579 0.594579 0.594579
0.651351 0.651351 0.651351
0.708914 0.708914 0.708914
0.767237 0.767237 0.767237
0.826292 0.826292 0.826292
0.886052 0.886052 0.886052
0.536591 0.536591 0.536591
0.592506 0.592506 0.592506
0.649248 0.649248 0.649248
0.706783 0.706783 0.706783
0.765079 0.765079 0.765079
0.824107 0.824107 0.824107
0.883841 0.883841 0.883841
0.944258 0.944258 0.944258
1.000000 1.000000 1.000000
0.647146 0.647146 0.647146
0.704652 0.704652 0.704652
0.762921 0.762921 0.762921
0.821923 0.821923 0.821923
0.881631 0.881631 0.881631
0.942023 0.942023 0.942023
1.000000 1.000000 1.000000
1.000000 1.000000 1.000000
1.000000 1.000000 1.000000
0.000000 0.000000 0.000000
0.000000 0.000000 0.000000
0.000000 0.000000 0.000000
0.019059 0.019059 0.019059
0.062754 0.062754 0.062754
0.108124 0.108124 0.108124
0.155001 0.155001 0.155001
0.203252 0.203252 0.203252
0.252769 0.252769 0.252769
0.000000 0.000000 0.000000
0.017486 0.017486 0.017486
0.061116 0.061116 0.061116
0.106427 0.106427 0.106427
0.153251 0.153251 0.153251
0.201454 0.201454 0.201454
0.250926 0.250926 0.250926
0.301577 0.301577 0.301577
0.353330 0.353330 0.353330
0.059480 0.059480 0.059480
0.104732 0.104732 0.104732
0.151503 0.151503 0.151503
0.199658 0.199658 0.199658
0.249085 0.249085 0.249085
0.299694 0.299694 0.299694
0.351407 0.351407 0.351407
0.404158 0.404158 0.404158
0.457889 0.457889 0.457889
0.149757 0.149757 0.149757
0.197863 0.197863 0.197863
0.247245 0.247245 0.247245
0.297812 0.297812 0.297812
0.349486 0.349486 0.349486
0.402200 0.402200 0.402200
0.455895 0.455895 0.455895
0.510521 0.510521 0.510521
0.566033 0.566033 0.566033
0.245407 0.245407 0.245407
0.295932 0.295932 0.295932
0.347566 0.347566 0.347566
0.400242 0.400242 0.400242
0.453903 0.453903 0.453903
0.508496 0.508496 0.508496
0.563975 0.563975 0.563975
0.620301 0.620301 0.620301
0.677437 0.677437 0.677437
0.345647 0.345647 0.345647
0.398287 0.398287 0.398287
0.451912 0.451912 0.451912
0.506471 0.506471 0.506471
0.561919 0.561919 0.561919
0.618215 0.618215 0.618215
0.675321 0.675321 0.675321
0.733206 0.733206 0.733206
0.791838 0.791838 0.791838
0.449922 0.449922 0.449922
0.504448 0.504448 0.504448
0.559864 0.559864 0.559864
0.616129 0.616129 0.616129
0.673207 0.673207 0.673207
0.731063 0.731063 0.731063
0.789668 0.789668 0.789668
0.848995 0.848995 0.848995
0.909017 0.909017 0.909017
0.557810 0.557810 0.557810
0.614044 0.614044 0.614044
0.671093 0.671093 0.671093
0.728921 0.728921 0.728921
0.787499 0.787499 0.787499
0.846800 0.846800 0.846800
0.906797 0.906797 0.906797
0.967467 0.967467 0.967467
1.000000 1.000000 1.000000
0.668980 0.668980 0.668980
0.726780 0.726780 0.726780
0.785331 0.785331 0.785331
0.844606 0.844606 0.844606
0.904578 0.904578 0.904578
0.965224 0.965224 0.965224
1.000000 1.000000 1.000000
1.000000 1.000000 1.000000
1.000000 1.000000 1.000000
0.000000 0.000000 0.000000
0.000000 0.000000 0.000000
0.000000 0.000000 0.000000
0.035508 0.035508 0.035508
0.079865 0.079865 0.079865
0.125827 0.125827 0.125827
0.173242 0.173242 0.173242
0.221988 0.221988 0.221988
0.271963 0.271963 0.271963
0.000000 0.000000 0.000000
0.033910 0.033910 0.033910
0.078203 0.078203 0.078203
0.124109 0.124109 0.124109
0.171473 0.171473 0.171473
0.220172 0.220172 0.220172
0.270103 0.270103 0.270103
0.321183 0.321183 0.321183
0.373337 0.373337 0.373337
0.076544 0.076544 0.076544
0.122394 0.122394 0.122394
0.169706 0.169706 0.169706
0.218358 0.218358 0.218358
0.268246 0.268246 0.268246
0.319284 0.319284 0.319284
0.371400 0.371400 0.371400
0.424531 0.424531 0.424531
0.478622 0.478622 0.478622
0.167941 0.167941 0.167941
0.216546 0.216546 0.216546
0.266389 0.266389 0.266389
0.317387 0.317387 0.317387
0.369465 0.369465 0.369465
0.422559 0.422559 0.422559
0.476615 0.476615 0.476615
0.531584 0.531584 0.531584
0.587422 0.587422 0.587422
0.264535 0.264535 0.264535
0.315491 0.315491 0.315491
0.367530 0.367530 0.367530
0.420589 0.420589 0.420589
0.474610 0.474610 0.474610
0.529546 0.529546 0.529546
0.585353 0.585353 0.585353
0.641992 0.641992 0.641992
0.699428 0.699428 0.699428
0.365597 0.365597 0.365597
0.418619 0.418619 0.418619
0.472606 0.472606 0.472606
0.527509 0.527509 0.527509
0.583285 0.583285 0.583285
0.639894 0.639894 0.639894
0.697301 0.697301 0.697301
0.755474 0.755474 0.755474
0.814384 0.814384 0.814384
0.470604 0.470604 0.470604
0.525474 0.525474 0.525474
0.581218 0.581218 0.581218
0.637797 0.637797 0.637797
0.695175 0.695175 0.695175
0.753321 0.753321 0.753321
0.812204 0.812204 0.812204
0.871799 0.871799 0.871799
0.932080 0.932080 0.932080
0.579152 0.579152 0.579152
0.635701 0.635701 0.635701
0.693051 0.693051 0.693051
0.751168 0.751168 0.751168
0.810025 0.810025 0.810025
0.869594 0.869594 0.869594
0.929851 0.929851 0.929851
0.990772 0.990772 0.990772
1.000000 1.000000 1.000000
0.690927 0.690927 0.690927
0.749017 0.749017 0.749017
0.807847 0.807847 0.807847
0.867390 0.867390 0.867390
0.927622 0.927622 0.927622
0.988519 0.988519 0.988519
1.000000 1.000000 1.000000
1.000000 1.000000 1.000000
1.000000 1.000000 1.000000
