public/luts/warm_film.cube
# Video Color Grader Preset
TITLE "Warm Film"
LUT_3D_SIZE 5
DOMAIN_MIN 0.0 0.0 0.0
DOMAIN_MAX 1.0 1.0 1.0
0.072861 0.036464 0.004410
0.351721 0.036464 0.004410
0.604738 0.036464 0.004410
0.846135 0.036464 0.004410
1.000000 0.036464 0.004410
0.072861 0.283677 0.004410
0.351721 0.283677 0.004410
0.604738 0.283677 0.004410
0.846135 0.283677 0.004410
1.000000 0.283677 0.004410
0.072861 0.517948 0.004410
0.351721 0.517948 0.004410
0.604738 0.517948 0.004410
0.846135 0.517948 0.004410
1.000000 0.517948 0.004410
0.072861 0.746562 0.004410
0.351721 0.746562 0.004410
0.604738 0.746562 0.004410
0.846135 0.746562 0.004410
1.000000 0.746562 0.004410
0.072861 0.971488 0.004410
0.351721 0.971488 0.004410
0.604738 0.971488 0.004410
0.846135 0.971488 0.004410
1.000000 0.971488 0.004410
0.072861 0.036464 0.150240
0.351721 0.036464 0.150240
0.604738 0.036464 0.150240
0.846135 0.036464 0.150240
1.000000 0.036464 0.150240
0.072861 0.283677 0.150240
0.351721 0.283677 0.150240
0.604738 0.283677 0.150240
0.846135 0.283677 0.150240
1.000000 0.283677 0.150240
0.072861 0.517948 0.150240
0.351721 0.517948 0.150240
0.604738 0.517948 0.150240
0.846135 0.517948 0.150240
1.000000 0.517948 0.150240
0.072861 0.746562 0.150240
0.351721 0.746562 0.150240
0.604738 0.746562 0.150240
0.846135 0.746562 0.150240
1.000000 0.746562 0.150240
0.072861 0.971488 0.150240
0.351721 0.971488 0.150240
0.604738 0.971488 0.150240
0.846135 0.971488 0.150240
1.000000 0.971488 0.150240
0.072861 0.036464 0.324503
0.351721 0.036464 0.324503
0.604738 0.036464 0.324503
0.846135 0.036464 0.324503
1.000000 0.036464 0.324503
0.072861 0.283677 0.324503
0.351721 0.283677 0.324503
0.604738 0.283677 0.324503
0.846135 0.283677 0.324503
1.000000 0.283677 0.324503
0.072861 0.517948 0.324503
0.351721 0.517948 0.324503
0.604738 0.517948 0.324503
0.846135 0.517948 0.324503
1.000000 0.517948 0.324503
0.072861 0.746562 0.324503
0.351721 0.746562 0.324503
0.604738 0.746562 0.324503
0.846135 0.746562 0.324503
1.000000 0.746562 0.324503
0.072861 0.971488 0.324503
0.351721 0.971488 0.324503
0.604738 0.971488 0.324503
0.846135 0.971488 0.324503
1.000000 0.971488 0.324503
0.072861 0.036464 0.512560
0.351721 0.036464 0.512560
0.604738 0.036464 0.512560
0.846135 0.036464 0.512560
1.000000 0.036464 0.512560
0.072861 0.283677 0.512560
0.351721 0.283677 0.512560
0.604738 0.283677 0.512560
0.846135 0.283677 0.512560
1.000000 0.283677 0.512560
0.072861 0.517948 0.512560
0.351721 0.517948 0.512560
0.604738 0.517948 0.512560
0.846135 0.517948 0.512560
1.000000 0.517948 0.512560
0.072861 0.746562 0.512560
0.351721 0.746562 0.512560
0.604738 0.746562 0.512560
0.846135 0.746562 0.512560
1.000000 0.746562 0.512560
0.072861 0.971488 0.512560
0.351721 0.971488 0.512560
0.604738 0.971488 0.512560
0.846135 0.971488 0.512560
1.000000 0.971488 0.512560
0.072861 0.036464 0.710268
0.351721 0.036464 0.710268
0.604738 0.036464 0.710268
0.846135 0.036464 0.710268
1.000000 0.036464 0.710268
0.072861 0.283677 0.710268
0.351721 0.283677 0.710268
0.604738 0.283677 0.710268
0.846135 0.283677 0.710268
1.000000 0.283677 0.710268
0.072861 0.517948 0.710268
0.351721 0.517948 0.710268
0.604738 0.517948 0.710268
0.846135 0.517948 0.710268
1.000000 0.517948 0.710268
0.072861 0.746562 0.710268
0.351721 0.746562 0.710268
0.604738 0.746562 0.710268
0.846135 0.746562 0.710268
1.000000 0.746562 0.710268
0.072861 0.971488 0.710268
0.351721 0.971488 0.710268
0.604738 0.971488 0.710268
0.846135 0.971488 0.710268
1.000000 0.971488 0.710268
