public/luts/warm_film.cube
# Video Color Grader Preset
TITLE "Warm Film"
LUT_3D_SIZE 9
DOMAIN_MIN 0.0 0.0 0.0
DOMAIN_MAX 1.0 1.0 1.0
0.072861 0.036464 0.004410
0.217742 0.036464 0.004410
0.351721 0.036464 0.004410
0.480107 0.036464 0.004410
0.604738 0.036464 0.004410
0.726556 0.036464 0.004410
0.846135 0.036464 0.004410
0.963858 0.036464 0.004410
1.000000 0.036464 0.004410
0.072861 0.162892 0.004410
0.217742 0.162892 0.004410
0.351721 0.162892 0.004410
0.480107 0.162892 0.004410
0.604738 0.162892 0.004410
0.726556 0.162892 0.004410
0.846135 0.162892 0.004410
0.963858 0.162892 0.004410
1.000000 0.162892 0.004410
0.072861 0.283677 0.004410
0.217742 0.283677 0.004410
0.351721 0.283677 0.004410
0.480107 0.283677 0.004410
0.604738 0.283677 0.004410
0.726556 0.283677 0.004410
0.846135 0.283677 0.004410
0.963858 0.283677 0.004410
1.000000 0.283677 0.004410
0.072861 0.401726 0.004410
0.217742 0.401726 0.004410
0.351721 0.401726 0.004410
0.480107 0.401726 0.004410
0.604738 0.401726 0.004410
0.726556 0.401726 0.004410
0.846135 0.401726 0.004410
0.963858 0.401726 0.004410
1.000000 0.401726 0.004410
0.072861 0.517948 0.004410
0.217742 0.517948 0.004410
0.351721 0.517948 0.004410
0.480107 0.517948 0.004410
0.604738 0.517948 0.004410
0.726556 0.517948 0.004410
0.846135 0.517948 0.004410
0.963858 0.517948 0.004410
1.000000 0.517948 0.004410
0.072861 0.632802 0.004410
0.217742 0.632802 0.004410
0.351721 0.632802 0.004410
0.480107 0.632802 0.004410
0.604738 0.632802 0.004410
0.726556 0.632802 0.004410
0.846135 0.632802 0.004410
0.963858 0.632802 0.004410
1.000000 0.632802 0.004410
0.072861 0.746562 0.004410
0.217742 0.746562 0.004410
0.351721 0.746562 0.004410
0.480107 0.746562 0.004410
0.604738 0.746562 0.004410
0.726556 0.746562 0.004410
0.846135 0.746562 0.004410
0.963858 0.746562 0.004410
1.000000 0.746562 0.004410
0.072861 0.859414 0.004410
0.217742 0.859414 0.004410
0.351721 0.859414 0.004410
0.480107 0.859414 0.004410
0.604738 0.859414 0.004410
0.726556 0.859414 0.004410
0.846135 0.859414 0.004410
0.963858 0.859414 0.004410
1.000000 0.859414 0.004410
0.072861 0.971488 0.004410
0.217742 0.971488 0.004410
0.351721 0.971488 0.004410
0.480107 0.971488 0.004410
0.604738 0.971488 0.004410
0.726556 0.971488 0.004410
0.846135 0.971488 0.004410
0.963858 0.971488 0.004410
1.000000 0.971488 0.004410
0.072861 0.036464 0.071336
0.217742 0.036464 0.071336
0.351721 0.036464 0.071336
0.480107 0.036464 0.071336
0.604738 0.036464 0.071336
0.726556 0.036464 0.071336
0.846135 0.036464 0.071336
0.963858 0.036464 0.071336
1.000000 0.036464 0.071336
0.072861 0.162892 0.071336
0.217742 0.162892 0.071336
0.351721 0.162892 0.071336
0.480107 0.162892 0.071336
0.604738 0.162892 0.071336
0.726556 0.162892 0.071336
0.846135 0.162892 0.071336
0.963858 0.162892 0.071336
1.000000 0.162892 0.071336
0.072861 0.283677 0.071336
0.217742 0.283677 0.071336
0.351721 0.283677 0.071336
0.480107 0.283677 0.071336
0.604738 0.283677 0.071336
0.726556 0.283677 0.071336
0.846135 0.283677 0.071336
0.963858 0.283677 0.071336
1.000000 0.283677 0.071336
0.072861 0.401726 0.071336
0.217742 0.401726 0.071336
0.351721 0.401726 0.071336
0.480107 0.401726 0.071336
0.604738 0.401726 0.071336
0.726556 0.401726 0.071336
0.846135 0.401726 0.071336
0.963858 0.401726 0.071336
1.000000 0.401726 0.071336
0.072861 0.517948 0.071336
0.217742 0.517948 0.071336
0.351721 0.517948 0.071336
0.480107 0.517948 0.071336
0.604738 0.517948 0.071336
0.726556 0.517948 0.071336
0.846135 0.517948 0.071336
0.963858 0.517948 0.071336
1.000000 0.517948 0.071336
0.072861 0.632802 0.071336
0.217742 0.632802 0.071336
0.351721 0.632802 0.071336
0.480107 0.632802 0.071336
0.604738 0.632802 0.071336
0.726556 0.632802 0.071336
0.846135 0.632802 0.071336
0.963858 0.632802 0.071336
1.000000 0.632802 0.071336
0.072861 0.746562 0.071336
0.217742 0.746562 0.071336
0.351721 0.746562 0.071336
0.480107 0.746562 0.071336
0.604738 0.746562 0.071336
0.726556 0.746562 0.071336
0.846135 0.746562 0.071336
0.963858 0.746562 0.071336
1.000000 0.746562 0.071336
0.072861 0.859414 0.071336
0.217742 0.859414 0.071336
0.351721 0.859414 0.071336
0.480107 0.859414 0.071336
0.604738 0.859414 0.071336
0.726556 0.859414 0.071336
0.846135 0.859414 0.071336
0.963858 0.859414 0.071336
1.000000 0.859414 0.071336
0.072861 0.971488 0.071336
0.217742 0.971488 0.071336
0.351721 0.971488 0.071336
0.480107 0.971488 0.071336
0.604738 0.971488 0.071336
0.726556 0.971488 0.071336
0.846135 0.971488 0.071336
0.963858 0.971488 0.071336
1.000000 0.971488 0.071336
0.072861 0.036464 0.150240
0.217742 0.036464 0.150240
0.351721 0.036464 0.150240
0.480107 0.036464 0.150240
0.604738 0.036464 0.150240
0.726556 0.036464 0.150240
0.846135 0.036464 0.150240
0.963858 0.036464 0.150240
1.000000 0.036464 0.150240
0.072861 0.162892 0.150240
0.217742 0.162892 0.150240
0.351721 0.162892 0.150240
0.480107 0.162892 0.150240
0.604738 0.162892 0.150240
0.726556 0.162892 0.150240
0.846135 0.162892 0.150240
0.963858 0.162892 0.150240
1.000000 0.162892 0.150240
0.072861 0.283677 0.150240
0.217742 0.283677 0.150240
0.351721 0.283677 0.150240
0.480107 0.283677 0.150240
0.604738 0.283677 0.150240
0.726556 0.283677 0.150240
0.846135 0.283677 0.150240
0.963858 0.283677 0.150240
1.000000 0.283677 0.150240
0.072861 0.401726 0.150240
0.217742 0.401726 0.150240
0.351721 0.401726 0.150240
0.480107 0.401726 0.150240
0.604738 0.401726 0.150240
0.726556 0.401726 0.150240
0.846135 0.401726 0.150240
0.963858 0.401726 0.150240
1.000000 0.401726 0.150240
0.072861 0.517948 0.150240
0.217742 0.517948 0.150240
0.351721 0.517948 0.150240
0.480107 0.517948 0.150240
0.604738 0.517948 0.150240
0.726556 0.517948 0.150240
0.846135 0.517948 0.150240
0.963858 0.517948 0.150240
1.000000 0.517948 0.150240
0.072861 0.632802 0.150240
0.217742 0.632802 0.150240
0.351721 0.632802 0.150240
0.480107 0.632802 0.150240
0.604738 0.632802 0.150240
0.726556 0.632802 0.150240
0.846135 0.632802 0.150240
0.963858 0.632802 0.150240
1.000000 0.632802 0.150240
0.072861 0.746562 0.150240
0.217742 0.746562 0.150240
0.351721 0.746562 0.150240
0.480107 0.746562 0.150240
0.604738 0.746562 0.150240
0.726556 0.746562 0.150240
0.846135 0.746562 0.150240
0.963858 0.746562 0.150240
1.000000 0.746562 0.150240
0.072861 0.859414 0.150240
0.217742 0.859414 0.150240
0.351721 0.859414 0.150240
0.480107 0.859414 0.150240
0.604738 0.859414 0.150240
0.726556 0.859414 0.150240
0.846135 0.859414 0.150240
0.963858 0.859414 0.150240
1.000000 0.859414 0.150240
0.072861 0.971488 0.150240
0.217742 0.971488 0.150240
0.351721 0.971488 0.150240
0.480107 0.971488 0.150240
0.604738 0.971488 0.150240
0.726556 0.971488 0.150240
0.846135 0.971488 0.150240
0.963858 0.971488 0.150240
1.000000 0.971488 0.150240
0.072861 0.036464 0.235227
0.217742 0.036464 0.235227
0.351721 0.036464 0.235227
0.480107 0.036464 0.235227
0.604738 0.036464 0.235227
0.726556 0.036464 0.235227
0.846135 0.036464 0.235227
0.963858 0.036464 0.235227
1.000000 0.036464 0.235227
0.072861 0.162892 0.235227
0.217742 0.162892 0.235227
0.351721 0.162892 0.235227
0.480107 0.162892 0.235227
0.604738 0.162892 0.235227
0.726556 0.162892 0.235227
0.846135 0.162892 0.235227
0.963858 0.162892 0.235227
1.000000 0.162892 0.235227
0.072861 0.283677 0.235227
0.217742 0.283677 0.235227
0.351721 0.283677 0.235227
0.480107 0.283677 0.235227
0.604738 0.283677 0.235227
0.726556 0.283677 0.235227
0.846135 0.283677 0.235227
0.963858 0.283677 0.235227
1.000000 0.283677 0.235227
0.072861 0.401726 0.235227
0.217742 0.401726 0.235227
0.351721 0.401726 0.235227
0.480107 0.401726 0.235227
0.604738 0.401726 0.235227
0.726556 0.401726 0.235227
0.846135 0.401726 0.235227
0.963858 0.401726 0.235227
1.000000 0.401726 0.235227
0.072861 0.517948 0.235227
0.217742 0.517948 0.235227
0.351721 0.517948 0.235227
0.480107 0.517948 0.235227
0.604738 0.517948 0.235227
0.726556 0.517948 0.235227
0.846135 0.517948 0.235227
0.963858 0.517948 0.235227
1.000000 0.517948 0.235227
0.072861 0.632802 0.235227
0.217742 0.632802 0.235227
0.351721 0.632802 0.235227
0.480107 0.632802 0.235227
0.604738 0.632802 0.235227
0.726556 0.632802 0.235227
0.846135 0.632802 0.235227
0.963858 0.632802 0.235227
1.000000 0.632802 0.235227
0.072861 0.746562 0.235227
0.217742 0.746562 0.235227
0.351721 0.746562 0.235227
0.480107 0.746562 0.235227
0.604738 0.746562 0.235227
0.726556 0.746562 0.235227
0.846135 0.746562 0.235227
0.963858 0.746562 0.235227
1.000000 0.746562 0.235227
0.072861 0.859414 0.235227
0.217742 0.859414 0.235227
0.351721 0.859414 0.235227
0.480107 0.859414 0.235227
0.604738 0.859414 0.235227
0.726556 0.859414 0.235227
0.846135 0.859414 0.235227
0.963858 0.859414 0.235227
1.000000 0.859414 0.235227
0.072861 0.971488 0.235227
0.217742 0.971488 0.235227
0.351721 0.971488 0.235227
0.480107 0.971488 0.235227
0.604738 0.971488 0.235227
0.726556 0.971488 0.235227
0.846135 0.971488 0.235227
0.963858 0.971488 0.235227
1.000000 0.971488 0.235227
0.072861 0.036464 0.324503
0.217742 0.036464 0.324503
0.351721 0.036464 0.324503
0.480107 0.036464 0.324503
0.604738 0.036464 0.324503
0.726556 0.036464 0.324503
0.846135 0.036464 0.324503
0.963858 0.036464 0.324503
1.000000 0.036464 0.324503
0.072861 0.162892 0.324503
0.217742 0.162892 0.324503
0.351721 0.162892 0.324503
0.480107 0.162892 0.324503
0.604738 0.162892 0.324503
0.726556 0.162892 0.324503
0.846135 0.162892 0.324503
0.963858 0.162892 0.324503
1.000000 0.162892 0.324503
0.072861 0.283677 0.324503
0.217742 0.283677 0.324503
0.351721 0.283677 0.324503
0.480107 0.283677 0.324503
0.604738 0.283677 0.324503
0.726556 0.283677 0.324503
0.846135 0.283677 0.324503
0.963858 0.283677 0.324503
1.000000 0.283677 0.324503
0.072861 0.401726 0.324503
0.217742 0.401726 0.324503
0.351721 0.401726 0.324503
0.480107 0.401726 0.324503
0.604738 0.401726 0.324503
0.726556 0.401726 0.324503
0.846135 0.401726 0.324503
0.963858 0.401726 0.324503
1.000000 0.401726 0.324503
0.072861 0.517948 0.324503
0.217742 0.517948 0.324503
0.351721 0.517948 0.324503
0.480107 0.517948 0.324503
0.604738 0.517948 0.324503
0.726556 0.517948 0.324503
0.846135 0.517948 0.324503
0.963858 0.517948 0.324503
1.000000 0.517948 0.324503
0.072861 0.632802 0.324503
0.217742 0.632802 0.324503
0.351721 0.632802 0.324503
0.480107 0.632802 0.324503
0.604738 0.632802 0.324503
0.726556 0.632802 0.324503
0.846135 0.632802 0.324503
0.963858 0.632802 0.324503
1.000000 0.632802 0.324503
0.072861 0.746562 0.324503
0.217742 0.746562 0.324503
0.351721 0.746562 0.324503
0.480107 0.746562 0.324503
0.604738 0.746562 0.324503
0.726556 0.746562 0.324503
0.846135 0.746562 0.324503
0.963858 0.746562 0.324503
1.000000 0.746562 0.324503
0.072861 0.859414 0.324503
0.217742 0.859414 0.324503
0.351721 0.859414 0.324503
0.480107 0.859414 0.324503
0.604738 0.859414 0.324503
0.726556 0.859414 0.324503
0.846135 0.859414 0.324503
0.963858 0.859414 0.324503
1.000000 0.859414 0.324503
0.072861 0.971488 0.324503
0.217742 0.971488 0.324503
0.351721 0.971488 0.324503
0.480107 0.971488 0.324503
0.604738 0.971488 0.324503
0.726556 0.971488 0.324503
0.846135 0.971488 0.324503
0.963858 0.971488 0.324503
1.000000 0.971488 0.324503
0.072861 0.036464 0.417140
0.217742 0.036464 0.417140
0.351721 0.036464 0.417140
0.480107 0.036464 0.417140
0.604738 0.036464 0.417140
0.726556 0.036464 0.417140
0.846135 0.036464 0.417140
0.963858 0.036464 0.417140
1.000000 0.036464 0.417140
0.072861 0.162892 0.417140
0.217742 0.162892 0.417140
0.351721 0.162892 0.417140
0.480107 0.162892 0.417140
0.604738 0.162892 0.417140
0.726556 0.162892 0.417140
0.846135 0.162892 0.417140
0.963858 0.162892 0.417140
1.000000 0.162892 0.417140
0.072861 0.283677 0.417140
0.217742 0.283677 0.417140
0.351721 0.283677 0.417140
0.480107 0.283677 0.417140
0.604738 0.283677 0.417140
0.726556 0.283677 0.417140
0.846135 0.283677 0.417140
0.963858 0.283677 0.417140
1.000000 0.283677 0.417140
0.072861 0.401726 0.417140
0.217742 0.401726 0.417140
0.351721 0.401726 0.417140
0.480107 0.401726 0.417140
0.604738 0.401726 0.417140
0.726556 0.401726 0.417140
0.846135 0.401726 0.417140
0.963858 0.401726 0.417140
1.000000 0.401726 0.417140
0.072861 0.517948 0.417140
0.217742 0.517948 0.417140
0.351721 0.517948 0.417140
0.480107 0.517948 0.417140
0.604738 0.517948 0.417140
0.726556 0.517948 0.417140
0.846135 0.517948 0.417140
0.963858 0.517948 0.417140
1.000000 0.517948 0.417140
0.072861 0.632802 0.417140
0.217742 0.632802 0.417140
0.351721 0.632802 0.417140
0.480107 0.632802 0.417140
0.604738 0.632802 0.417140
0.726556 0.632802 0.417140
0.846135 0.632802 0.417140
0.963858 0.632802 0.417140
1.000000 0.632802 0.417140
0.072861 0.746562 0.417140
0.217742 0.746562 0.417140
0.351721 0.746562 0.417140
0.480107 0.746562 0.417140
0.604738 0.746562 0.417140
0.726556 0.746562 0.417140
0.846135 0.746562 0.417140
0.963858 0.746562 0.417140
1.000000 0.746562 0.417140
0.072861 0.859414 0.417140
0.217742 0.859414 0.417140
0.351721 0.859414 0.417140
0.480107 0.859414 0.417140
0.604738 0.859414 0.417140
0.726556 0.859414 0.417140
0.846135 0.859414 0.417140
0.963858 0.859414 0.417140
1.000000 0.859414 0.417140
0.072861 0.971488 0.417140
0.217742 0.971488 0.417140
0.351721 0.971488 0.417140
0.480107 0.971488 0.417140
0.604738 0.971488 0.417140
0.726556 0.971488 0.417140
0.846135 0.971488 0.417140
0.963858 0.971488 0.417140
1.000000 0.971488 0.417140
0.072861 0.036464 0.512560
0.217742 0.036464 0.512560
0.351721 0.036464 0.512560
0.480107 0.036464 0.512560
0.604738 0.036464 0.512560
0.726556 0.036464 0.512560
0.846135 0.036464 0.512560
0.963858 0.036464 0.512560
1.000000 0.036464 0.512560
0.072861 0.162892 0.512560
0.217742 0.162892 0.512560
0.351721 0.162892 0.512560
0.480107 0.162892 0.512560
0.604738 0.162892 0.512560
0.726556 0.162892 0.512560
0.846135 0.162892 0.512560
0.963858 0.162892 0.512560
1.000000 0.162892 0.512560
0.072861 0.283677 0.512560
0.217742 0.283677 0.512560
0.351721 0.283677 0.512560
0.480107 0.283677 0.512560
0.604738 0.283677 0.512560
0.726556 0.283677 0.512560
0.846135 0.283677 0.512560
0.963858 0.283677 0.512560
1.000000 0.283677 0.512560
0.072861 0.401726 0.512560
0.217742 0.401726 0.512560
0.351721 0.401726 0.512560
0.480107 0.401726 0.512560
0.604738 0.401726 0.512560
0.726556 0.401726 0.512560
0.846135 0.401726 0.512560
0.963858 0.401726 0.512560
1.000000 0.401726 0.512560
0.072861 0.517948 0.512560
0.217742 0.517948 0.512560
0.351721 0.517948 0.512560
0.480107 0.517948 0.512560
0.604738 0.517948 0.512560
0.726556 0.517948 0.512560
0.846135 0.517948 0.512560
0.963858 0.517948 0.512560
1.000000 0.517948 0.512560
0.072861 0.632802 0.512560
0.217742 0.632802 0.512560
0.351721 0.632802 0.512560
0.480107 0.632802 0.512560
0.604738 0.632802 0.512560
0.726556 0.632802 0.512560
0.846135 0.632802 0.512560
0.963858 0.632802 0.512560
1.000000 0.632802 0.512560
0.072861 0.746562 0.512560
0.217742 0.746562 0.512560
0.351721 0.746562 0.512560
0.480107 0.746562 0.512560
0.604738 0.746562 0.512560
0.726556 0.746562 0.512560
0.846135 0.746562 0.512560
0.963858 0.746562 0.512560
1.000000 0.746562 0.512560
0.072861 0.859414 0.512560
0.217742 0.859414 0.512560
0.351721 0.859414 0.512560
0.480107 0.859414 0.512560
0.604738 0.859414 0.512560
0.726556 0.859414 0.512560
0.846135 0.859414 0.512560
0.963858 0.859414 0.512560
1.000000 0.859414 0.512560
0.072861 0.971488 0.512560
0.217742 0.971488 0.512560
0.351721 0.971488 0.512560
0.480107 0.971488 0.512560
0.604738 0.971488 0.512560
0.726556 0.971488 0.512560
0.846135 0.971488 0.512560
0.963858 0.971488 0.512560
1.000000 0.971488 0.512560
0.072861 0.036464 0.610366
0.217742 0.036464 0.610366
0.351721 0.036464 0.610366
0.480107 0.036464 0.610366
0.604738 0.036464 0.610366
0.726556 0.036464 0.610366
0.846135 0.036464 0.610366
0.963858 0.036464 0.610366
1.000000 0.036464 0.610366
0.072861 0.162892 0.610366
0.217742 0.162892 0.610366
0.351721 0.162892 0.610366
0.480107 0.162892 0.610366
0.604738 0.162892 0.610366
0.726556 0.162892 0.610366
0.846135 0.162892 0.610366
0.963858 0.162892 0.610366
1.000000 0.162892 0.610366
0.072861 0.283677 0.610366
0.217742 0.283677 0.610366
0.351721 0.283677 0.610366
0.480107 0.283677 0.610366
0.604738 0.283677 0.610366
0.726556 0.283677 0.610366
0.846135 0.283677 0.610366
0.963858 0.283677 0.610366
1.000000 0.283677 0.610366
0.072861 0.401726 0.610366
0.217742 0.401726 0.610366
0.351721 0.401726 0.610366
0.480107 0.401726 0.610366
0.604738 0.401726 0.610366
0.726556 0.401726 0.610366
0.846135 0.401726 0.610366
0.963858 0.401726 0.610366
1.000000 0.401726 0.610366
0.072861 0.517948 0.610366
0.217742 0.517948 0.610366
0.351721 0.517948 0.610366
0.480107 0.517948 0.610366
0.604738 0.517948 0.610366
0.726556 0.517948 0.610366
0.846135 0.517948 0.610366
0.963858 0.517948 0.610366
1.000000 0.517948 0.610366
0.072861 0.632802 0.610366
0.217742 0.632802 0.610366
0.351721 0.632802 0.610366
0.480107 0.632802 0.610366
0.604738 0.632802 0.610366
0.726556 0.632802 0.610366
0.846135 0.632802 0.610366
0.963858 0.632802 0.610366
1.000000 0.632802 0.610366
0.072861 0.746562 0.610366
0.217742 0.746562 0.610366
0.351721 0.746562 0.610366
0.480107 0.746562 0.610366
0.604738 0.746562 0.610366
0.726556 0.746562 0.610366
0.846135 0.746562 0.610366
0.963858 0.746562 0.610366
1.000000 0.746562 0.610366
0.072861 0.859414 0.610366
0.217742 0.859414 0.610366
0.351721 0.859414 0.610366
0.480107 0.859414 0.610366
0.604738 0.859414 0.610366
0.726556 0.859414 0.610366
0.846135 0.859414 0.610366
0.963858 0.859414 0.610366
1.000000 0.859414 0.610366
0.072861 0.971488 0.610366
0.217742 0.971488 0.610366
0.351721 0.971488 0.610366
0.480107 0.971488 0.610366
0.604738 0.971488 0.610366
0.726556 0.971488 0.610366
0.846135 0.971488 0.610366
0.963858 0.971488 0.610366
1.000000 0.971488 0.610366
0.072861 0.036464 0.710268
0.217742 0.036464 0.710268
0.351721 0.036464 0.710268
0.480107 0.036464 0.710268
0.604738 0.036464 0.710268
0.726556 0.036464 0.710268
0.846135 0.036464 0.710268
0.963858 0.036464 0.710268
1.000000 0.036464 0.710268
0.072861 0.162892 0.710268
0.217742 0.162892 0.710268
0.351721 0.162892 0.710268
0.480107 0.162892 0.710268
0.604738 0.162892 0.710268
0.726556 0.162892 0.710268
0.846135 0.162892 0.710268
0.963858 0.162892 0.710268
1.000000 0.162892 0.710268
0.072861 0.283677 0.710268
0.217742 0.283677 0.710268
0.351721 0.283677 0.710268
0.480107 0.283677 0.710268
0.604738 0.283677 0.710268
0.726556 0.283677 0.710268
0.846135 0.283677 0.710268
0.963858 0.283677 0.710268
1.000000 0.283677 0.710268
0.072861 0.401726 0.710268
0.217742 0.401726 0.710268
0.351721 0.401726 0.710268
0.480107 0.401726 0.710268
0.604738 0.401726 0.710268
0.726556 0.401726 0.710268
0.846135 0.401726 0.710268
0.963858 0.401726 0.710268
1.000000 0.401726 0.710268
0.072861 0.517948 0.710268
0.217742 0.517948 0.710268
0.351721 0.517948 0.710268
0.480107 0.517948 0.710268
0.604738 0.517948 0.710268
0.726556 0.517948 0.710268
0.846135 0.517948 0.710268
0.963858 0.517948 0.710268
1.000000 0.517948 0.710268
0.072861 0.632802 0.710268
0.217742 0.632802 0.710268
0.351721 0.632802 0.710268
0.480107 0.632802 0.710268
0.604738 0.632802 0.710268
0.726556 0.632802 0.710268
0.846135 0.632802 0.710268
0.963858 0.632802 0.710268
1.000000 0.632802 0.710268
0.072861 0.746562 0.710268
0.217742 0.746562 0.710268
0.351721 0.746562 0.710268
0.480107 0.746562 0.710268
0.604738 0.746562 0.710268
0.726556 0.746562 0.710268
0.846135 0.746562 0.710268
0.963858 0.746562 0.710268
1.000000 0.746562 0.710268
0.072861 0.859414 0.710268
0.217742 0.859414 0.710268
0.351721 0.859414 0.710268
0.480107 0.859414 0.710268
0.604738 0.859414 0.710268
0.726556 0.859414 0.710268
0.846135 0.859414 0.710268
0.963858 0.859414 0.710268
1.000000 0.859414 0.710268
0.072861 0.971488 0.710268
0.217742 0.971488 0.710268
0.351721 0.971488 0.710268
0.480107 0.971488 0.710268
0.604738 0.971488 0.710268
0.726556 0.971488 0.710268
0.846135 0.971488 0.710268
0.963858 0.971488 0.710268
1.000000 0.971488 0.710268
