public/luts/warm_film.cube
# Video Color Grader Preset
TITLE "Warm Film"
LUT_3D_SIZE 17
DOMAIN_MIN 0.0 0.0 0.0
DOMAIN_MAX 1.0 1.0 1.0
0.072861 0.036464 0.004410
0.147384 0.036464 0.004410
0.217742 0.036464 0.004410
0.285614 0.036464 0.004410
0.351721 0.036464 0.004410
0.416466 0.036464 0.004410
0.480107 0.036464 0.004410
0.542821 0.036464 0.004410
0.604738 0.036464 0.004410
0.665957 0.036464 0.004410
0.726556 0.036464 0.004410
0.786598 0.036464 0.004410
0.846135 0.036464 0.004410
0.905209 0.036464 0.004410
0.963858 0.036464 0.004410
1.000000 0.036464 0.004410
1.000000 0.036464 0.004410
0.072861 0.100811 0.004410
0.147384 0.100811 0.004410
0.217742 0.100811 0.004410
0.285614 0.100811 0.004410
0.351721 0.100811 0.004410
0.416466 0.100811 0.004410
0.480107 0.100811 0.004410
0.542821 0.100811 0.004410
0.604738 0.100811 0.004410
0.665957 0.100811 0.004410
0.726556 0.100811 0.004410
0.786598 0.100811 0.004410
0.846135 0.100811 0.004410
0.905209 0.100811 0.004410
0.963858 0.100811 0.004410
1.000000 0.100811 0.004410
1.000000 0.100811 0.004410
0.072861 0.162892 0.004410
0.147384 0.162892 0.004410
0.217742 0.162892 0.004410
0.285614 0.162892 0.004410
0.351721 0.162892 0.004410
0.416466 0.162892 0.004410
0.480107 0.162892 0.004410
0.542821 0.162892 0.004410
0.604738 0.162892 0.004410
0.665957 0.162892 0.004410
0.726556 0.162892 0.004410
0.786598 0.162892 0.004410
0.846135 0.162892 0.004410
0.905209 0.162892 0.004410
0.963858 0.162892 0.004410
1.000000 0.162892 0.004410
1.000000 0.162892 0.004410
0.072861 0.223720 0.004410
0.147384 0.223720 0.004410
0.217742 0.223720 0.004410
0.285614 0.223720 0.004410
0.351721 0.223720 0.004410
0.416466 0.223720 0.004410
0.480107 0.223720 0.004410
0.542821 0.223720 0.004410
0.604738 0.223720 0.004410
0.665957 0.223720 0.004410
0.726556 0.223720 0.004410
0.786598 0.223720 0.004410
0.846135 0.223720 0.004410
0.905209 0.223720 0.004410
0.963858 0.223720 0.004410
1.000000 0.223720 0.004410
1.000000 0.223720 0.004410
0.072861 0.283677 0.004410
0.147384 0.283677 0.004410
0.217742 0.283677 0.004410
0.285614 0.283677 0.004410
0.351721 0.283677 0.004410
0.416466 0.283677 0.004410
0.480107 0.283677 0.004410
0.542821 0.283677 0.004410
0.604738 0.283677 0.004410
0.665957 0.283677 0.004410
0.726556 0.283677 0.004410
0.786598 0.283677 0.004410
0.846135 0.283677 0.004410
0.905209 0.283677 0.004410
0.963858 0.283677 0.004410
1.000000 0.283677 0.004410
1.000000 0.283677 0.004410
0.072861 0.342970 0.004410
0.147384 0.342970 0.004410
0.217742 0.342970 0.004410
0.285614 0.342970 0.004410
0.351721 0.342970 0.004410
0.416466 0.342970 0.004410
0.480107 0.342970 0.004410
0.542821 0.342970 0.004410
0.604738 0.342970 0.004410
0.665957 0.342970 0.004410
0.726556 0.342970 0.004410
0.786598 0.342970 0.004410
0.846135 0.342970 0.004410
0.905209 0.342970 0.004410
0.963858 0.342970 0.004410
1.000000 0.342970 0.004410
1.000000 0.342970 0.004410
0.072861 0.401726 0.004410
0.147384 0.401726 0.004410
0.217742 0.401726 0.004410
0.285614 0.401726 0.004410
0.351721 0.401726 0.004410
0.416466 0.401726 0.004410
0.480107 0.401726 0.004410
0.542821 0.401726 0.004410
0.604738 0.401726 0.004410
0.665957 0.401726 0.004410
0.726556 0.401726 0.004410
0.786598 0.401726 0.004410
0.846135 0.401726 0.004410
0.905209 0.401726 0.004410
0.963858 0.401726 0.004410
1.000000 0.401726 0.004410
1.000000 0.401726 0.004410
0.072861 0.460031 0.004410
0.147384 0.460031 0.004410
0.217742 0.460031 0.004410
0.285614 0.460031 0.004410
0.351721 0.460031 0.004410
0.416466 0.460031 0.004410
0.480107 0.460031 0.004410
0.542821 0.460031 0.004410
0.604738 0.460031 0.004410
0.665957 0.460031 0.004410
0.726556 0.460031 0.004410
0.786598 0.460031 0.004410
0.846135 0.460031 0.004410
0.905209 0.460031 0.004410
0.963858 0.460031 0.004410
1.000000 0.460031 0.004410
1.000000 0.460031 0.004410
0.072861 0.517948 0.004410
0.147384 0.517948 0.004410
0.217742 0.517948 0.004410
0.285614 0.517948 0.004410
0.351721 0.517948 0.004410
0.416466 0.517948 0.004410
0.480107 0.517948 0.004410
0.542821 0.517948 0.004410
0.604738 0.517948 0.004410
0.665957 0.517948 0.004410
0.726556 0.517948 0.004410
0.786598 0.517948 0.004410
0.846135 0.517948 0.004410
0.905209 0.517948 0.004410
0.963858 0.517948 0.004410
1.000000 0.517948 0.004410
1.000000 0.517948 0.004410
0.072861 0.575526 0.004410
0.147384 0.575526 0.004410
0.217742 0.575526 0.004410
0.285614 0.575526 0.004410
0.351721 0.575526 0.004410
0.416466 0.575526 0.004410
0.480107 0.575526 0.004410
0.542821 0.575526 0.004410
0.604738 0.575526 0.004410
0.665957 0.575526 0.004410
0.726556 0.575526 0.004410
0.786598 0.575526 0.004410
0.846135 0.575526 0.004410
0.905209 0.575526 0.004410
0.963858 0.575526 0.004410
1.000000 0.575526 0.004410
1.000000 0.575526 0.004410
0.072861 0.632802 0.004410
0.147384 0.632802 0.004410
0.217742 0.632802 0.004410
0.285614 0.632802 0.004410
0.351721 0.632802 0.004410
0.416466 0.632802 0.004410
0.480107 0.632802 0.004410
0.542821 0.632802 0.004410
0.604738 0.632802 0.004410
0.665957 0.632802 0.004410
0.726556 0.632802 0.004410
0.786598 0.632802 0.004410
0.846135 0.632802 0.004410
0.905209 0.632802 0.004410
0.963858 0.632802 0.004410
1.000000 0.632802 0.004410
1.000000 0.632802 0.004410
0.072861 0.689806 0.004410
0.147384 0.689806 0.004410
0.217742 0.689806 0.004410
0.285614 0.689806 0.004410
0.351721 0.689806 0.004410
0.416466 0.689806 0.004410
0.480107 0.689806 0.004410
0.542821 0.689806 0.004410
0.604738 0.689806 0.004410
0.665957 0.689806 0.004410
0.726556 0.689806 0.004410
0.786598 0.689806 0.004410
0.846135 0.689806 0.004410
0.905209 0.689806 0.004410
0.963858 0.689806 0.004410
1.000000 0.689806 0.004410
1.000000 0.689806 0.004410
0.072861 0.746562 0.004410
0.147384 0.746562 0.004410
0.217742 0.746562 0.004410
0.285614 0.746562 0.004410
0.351721 0.746562 0.004410
0.416466 0.746562 0.004410
0.480107 0.746562 0.004410
0.542821 0.746562 0.004410
0.604738 0.746562 0.004410
0.665957 0.746562 0.004410
0.726556 0.746562 0.004410
0.786598 0.746562 0.004410
0.846135 0.746562 0.004410
0.905209 0.746562 0.004410
0.963858 0.746562 0.004410
1.000000 0.746562 0.004410
1.000000 0.746562 0.004410
0.072861 0.803092 0.004410
0.147384 0.803092 0.004410
0.217742 0.803092 0.004410
0.285614 0.803092 0.004410
0.351721 0.803092 0.004410
0.416466 0.803092 0.004410
0.480107 0.803092 0.004410
0.542821 0.803092 0.004410
0.604738 0.803092 0.004410
0.665957 0.803092 0.004410
0.726556 0.803092 0.004410
0.786598 0.803092 0.004410
0.846135 0.803092 0.004410
0.905209 0.803092 0.004410
0.963858 0.803092 0.004410
1.000000 0.803092 0.004410
1.000000 0.803092 0.004410
0.072861 0.859414 0.004410
0.147384 0.859414 0.004410
0.217742 0.859414 0.004410
0.285614 0.859414 0.004410
0.351721 0.859414 0.004410
0.416466 0.859414 0.004410
0.480107 0.859414 0.004410
0.542821 0.859414 0.004410
0.604738 0.859414 0.004410
0.665957 0.859414 0.004410
0.726556 0.859414 0.004410
0.786598 0.859414 0.004410
0.846135 0.859414 0.004410
0.905209 0.859414 0.004410
0.963858 0.859414 0.004410
1.000000 0.859414 0.004410
1.000000 0.859414 0.004410
0.072861 0.915541 0.004410
0.147384 0.915541 0.004410
0.217742 0.915541 0.004410
0.285614 0.915541 0.004410
0.351721 0.915541 0.004410
0.416466 0.915541 0.004410
0.480107 0.915541 0.004410
0.542821 0.915541 0.004410
0.604738 0.915541 0.004410
0.665957 0.915541 0.004410
0.726556 0.915541 0.004410
0.786598 0.915541 0.004410
0.846135 0.915541 0.004410
0.905209 0.915541 0.004410
0.963858 0.915541 0.004410
1.000000 0.915541 0.004410
1.000000 0.915541 0.004410
0.072861 0.971488 0.004410
0.147384 0.971488 0.004410
0.217742 0.971488 0.004410
0.285614 0.971488 0.004410
0.351721 0.971488 0.004410
0.416466 0.971488 0.004410
0.480107 0.971488 0.004410
0.542821 0.971488 0.004410
0.604738 0.971488 0.004410
0.665957 0.971488 0.004410
0.726556 0.971488 0.004410
0.786598 0.971488 0.004410
0.846135 0.971488 0.004410
0.905209 0.971488 0.004410
0.963858 0.971488 0.004410
1.000000 0.971488 0.004410
1.000000 0.971488 0.004410
0.072861 0.036464 0.035453
0.147384 0.036464 0.035453
0.217742 0.036464 0.035453
0.285614 0.036464 0.035453
0.351721 0.036464 0.035453
0.416466 0.036464 0.035453
0.480107 0.036464 0.035453
0.542821 0.036464 0.035453
0.604738 0.036464 0.035453
0.665957 0.036464 0.035453
0.726556 0.036464 0.035453
0.786598 0.036464 0.035453
0.846135 0.036464 0.035453
0.905209 0.036464 0.035453
0.963858 0.036464 0.035453
1.000000 0.036464 0.035453
1.000000 0.036464 0.035453
0.072861 0.100811 0.035453
0.147384 0.100811 0.035453
0.217742 0.100811 0.035453
0.285614 0.100811 0.035453
0.351721 0.100811 0.035453
0.416466 0.100811 0.035453
0.480107 0.100811 0.035453
0.542821 0.100811 0.035453
0.604738 0.100811 0.035453
0.665957 0.100811 0.035453
0.726556 0.100811 0.035453
0.786598 0.100811 0.035453
0.846135 0.100811 0.035453
0.905209 0.100811 0.035453
0.963858 0.100811 0.035453
1.000000 0.100811 0.035453
1.000000 0.100811 0.035453
0.072861 0.162892 0.035453
0.147384 0.162892 0.035453
0.217742 0.162892 0.035453
0.285614 0.162892 0.035453
0.351721 0.162892 0.035453
0.416466 0.162892 0.035453
0.480107 0.162892 0.035453
0.542821 0.162892 0.035453
0.604738 0.162892 0.035453
0.665957 0.162892 0.035453
0.726556 0.162892 0.035453
0.786598 0.162892 0.035453
0.846135 0.162892 0.035453
0.905209 0.162892 0.035453
0.963858 0.162892 0.035453
1.000000 0.162892 0.035453
1.000000 0.162892 0.035453
0.072861 0.223720 0.035453
0.147384 0.223720 0.035453
0.217742 0.223720 0.035453
0.285614 0.223720 0.035453
0.351721 0.223720 0.035453
0.416466 0.223720 0.035453
0.480107 0.223720 0.035453
0.542821 0.223720 0.035453
0.604738 0.223720 0.035453
0.665957 0.223720 0.035453
0.726556 0.223720 0.035453
0.786598 0.223720 0.035453
0.846135 0.223720 0.035453
0.905209 0.223720 0.035453
0.963858 0.223720 0.035453
1.000000 0.223720 0.035453
1.000000 0.223720 0.035453
0.072861 0.283677 0.035453
0.147384 0.283677 0.035453
0.217742 0.283677 0.035453
0.285614 0.283677 0.035453
0.351721 0.283677 0.035453
0.416466 0.283677 0.035453
0.480107 0.283677 0.035453
0.542821 0.283677 0.035453
0.604738 0.283677 0.035453
0.665957 0.283677 0.035453
0.726556 0.283677 0.035453
0.786598 0.283677 0.035453
0.846135 0.283677 0.035453
0.905209 0.283677 0.035453
0.963858 0.283677 0.035453
1.000000 0.283677 0.035453
1.000000 0.283677 0.035453
0.072861 0.342970 0.035453
0.147384 0.342970 0.035453
0.217742 0.342970 0.035453
0.285614 0.342970 0.035453
0.351721 0.342970 0.035453
0.416466 0.342970 0.035453
0.480107 0.342970 0.035453
0.542821 0.342970 0.035453
0.604738 0.342970 0.035453
0.665957 0.342970 0.035453
0.726556 0.342970 0.035453
0.786598 0.342970 0.035453
0.846135 0.342970 0.035453
0.905209 0.342970 0.035453
0.963858 0.342970 0.035453
1.000000 0.342970 0.035453
1.000000 0.342970 0.035453
0.072861 0.401726 0.035453
0.147384 0.401726 0.035453
0.217742 0.401726 0.035453
0.285614 0.401726 0.035453
0.351721 0.401726 0.035453
0.416466 0.401726 0.035453
0.480107 0.401726 0.035453
0.542821 0.401726 0.035453
0.604738 0.401726 0.035453
0.665957 0.401726 0.035453
0.726556 0.401726 0.035453
0.786598 0.401726 0.035453
0.846135 0.401726 0.035453
0.905209 0.401726 0.035453
0.963858 0.401726 0.035453
1.000000 0.401726 0.035453
1.000000 0.401726 0.035453
0.072861 0.460031 0.035453
0.147384 0.460031 0.035453
0.217742 0.460031 0.035453
0.285614 0.460031 0.035453
0.351721 0.460031 0.035453
0.416466 0.460031 0.035453
0.480107 0.460031 0.035453
0.542821 0.460031 0.035453
0.604738 0.460031 0.035453
0.665957 0.460031 0.035453
0.726556 0.460031 0.035453
0.786598 0.460031 0.035453
0.846135 0.460031 0.035453
0.905209 0.460031 0.035453
0.963858 0.460031 0.035453
1.000000 0.460031 0.035453
1.000000 0.460031 0.035453
0.072861 0.517948 0.035453
0.147384 0.517948 0.035453
0.217742 0.517948 0.035453
0.285614 0.517948 0.035453
0.351721 0.517948 0.035453
0.416466 0.517948 0.035453
0.480107 0.517948 0.035453
0.542821 0.517948 0.035453
0.604738 0.517948 0.035453
0.665957 0.517948 0.035453
0.726556 0.517948 0.035453
0.786598 0.517948 0.035453
0.846135 0.517948 0.035453
0.905209 0.517948 0.035453
0.963858 0.517948 0.035453
1.000000 0.517948 0.035453
1.000000 0.517948 0.035453
0.072861 0.575526 0.035453
0.147384 0.575526 0.035453
0.217742 0.575526 0.035453
0.285614 0.575526 0.035453
0.351721 0.575526 0.035453
0.416466 0.575526 0.035453
0.480107 0.575526 0.035453
0.542821 0.575526 0.035453
0.604738 0.575526 0.035453
0.665957 0.575526 0.035453
0.726556 0.575526 0.035453
0.786598 0.575526 0.035453
0.846135 0.575526 0.035453
0.905209 0.575526 0.035453
0.963858 0.575526 0.035453
1.000000 0.575526 0.035453
1.000000 0.575526 0.035453
0.072861 0.632802 0.035453
0.147384 0.632802 0.035453
0.217742 0.632802 0.035453
0.285614 0.632802 0.035453
0.351721 0.632802 0.035453
0.416466 0.632802 0.035453
0.480107 0.632802 0.035453
0.542821 0.632802 0.035453
0.604738 0.632802 0.035453
0.665957 0.632802 0.035453
0.726556 0.632802 0.035453
0.786598 0.632802 0.035453
0.846135 0.632802 0.035453
0.905209 0.632802 0.035453
0.963858 0.632802 0.035453
1.000000 0.632802 0.035453
1.000000 0.632802 0.035453
0.072861 0.689806 0.035453
0.147384 0.689806 0.035453
0.217742 0.689806 0.035453
0.285614 0.689806 0.035453
0.351721 0.689806 0.035453
0.416466 0.689806 0.035453
0.480107 0.689806 0.035453
0.542821 0.689806 0.035453
0.604738 0.689806 0.035453
0.665957 0.689806 0.035453
0.726556 0.689806 0.035453
0.786598 0.689806 0.035453
0.846135 0.689806 0.035453
0.905209 0.689806 0.035453
0.963858 0.689806 0.035453
1.000000 0.689806 0.035453
1.000000 0.689806 0.035453
0.072861 0.746562 0.035453
0.147384 0.746562 0.035453
0.217742 0.746562 0.035453
0.285614 0.746562 0.035453
0.351721 0.746562 0.035453
0.416466 0.746562 0.035453
0.480107 0.746562 0.035453
0.542821 0.746562 0.035453
0.604738 0.746562 0.035453
0.665957 0.746562 0.035453
0.726556 0.746562 0.035453
0.786598 0.746562 0.035453
0.846135 0.746562 0.035453
0.905209 0.746562 0.035453
0.963858 0.746562 0.035453
1.000000 0.746562 0.035453
1.000000 0.746562 0.035453
0.072861 0.803092 0.035453
0.147384 0.803092 0.035453
0.217742 0.803092 0.035453
0.285614 0.803092 0.035453
0.351721 0.803092 0.035453
0.416466 0.803092 0.035453
0.480107 0.803092 0.035453
0.542821 0.803092 0.035453
0.604738 0.803092 0.035453
0.665957 0.803092 0.035453
0.726556 0.803092 0.035453
0.786598 0.803092 0.035453
0.846135 0.803092 0.035453
0.905209 0.803092 0.035453
0.963858 0.803092 0.035453
1.000000 0.803092 0.035453
1.000000 0.803092 0.035453
0.072861 0.859414 0.035453
0.147384 0.859414 0.035453
0.217742 0.859414 0.035453
0.285614 0.859414 0.035453
0.351721 0.859414 0.035453
0.416466 0.859414 0.035453
0.480107 0.859414 0.035453
0.542821 0.859414 0.035453
0.604738 0.859414 0.035453
0.665957 0.859414 0.035453
0.726556 0.859414 0.035453
0.786598 0.859414 0.035453
0.846135 0.859414 0.035453
0.905209 0.859414 0.035453
0.963858 0.859414 0.035453
1.000000 0.859414 0.035453
1.000000 0.859414 0.035453
0.072861 0.915541 0.035453
0.147384 0.915541 0.035453
0.217742 0.915541 0.035453
0.285614 0.915541 0.035453
0.351721 0.915541 0.035453
0.416466 0.915541 0.035453
0.480107 0.915541 0.035453
0.542821 0.915541 0.035453
0.604738 0.915541 0.035453
0.665957 0.915541 0.035453
0.726556 0.915541 0.035453
0.786598 0.915541 0.035453
0.846135 0.915541 0.035453
0.905209 0.915541 0.035453
0.963858 0.915541 0.035453
1.000000 0.915541 0.035453
1.000000 0.915541 0.035453
0.072861 0.971488 0.035453
0.147384 0.971488 0.035453
0.217742 0.971488 0.035453
0.285614 0.971488 0.035453
0.351721 0.971488 0.035453
0.416466 0.971488 0.035453
0.480107 0.971488 0.035453
0.542821 0.971488 0.035453
0.604738 0.971488 0.035453
0.665957 0.971488 0.035453
0.726556 0.971488 0.035453
0.786598 0.971488 0.035453
0.846135 0.971488 0.035453
0.905209 0.971488 0.035453
0.963858 0.971488 0.035453
1.000000 0.971488 0.035453
1.000000 0.971488 0.035453
0.072861 0.036464 0.071336
0.147384 0.036464 0.071336
0.217742 0.036464 0.071336
0.285614 0.036464 0.071336
0.351721 0.036464 0.071336
0.416466 0.036464 0.071336
0.480107 0.036464 0.071336
0.542821 0.036464 0.071336
0.604738 0.036464 0.071336
0.665957 0.036464 0.071336
0.726556 0.036464 0.071336
0.786598 0.036464 0.071336
0.846135 0.036464 0.071336
0.905209 0.036464 0.071336
0.963858 0.036464 0.071336
1.000000 0.036464 0.071336
1.000000 0.036464 0.071336
0.072861 0.100811 0.071336
0.147384 0.100811 0.071336
0.217742 0.100811 0.071336
0.285614 0.100811 0.071336
0.351721 0.100811 0.071336
0.416466 0.100811 0.071336
0.480107 0.100811 0.071336
0.542821 0.100811 0.071336
0.604738 0.100811 0.071336
0.665957 0.100811 0.071336
0.726556 0.100811 0.071336
0.786598 0.100811 0.071336
0.846135 0.100811 0.071336
0.905209 0.100811 0.071336
0.963858 0.100811 0.071336
1.000000 0.100811 0.071336
1.000000 0.100811 0.071336
0.072861 0.162892 0.071336
0.147384 0.162892 0.071336
0.217742 0.162892 0.071336
0.285614 0.162892 0.071336
0.351721 0.162892 0.071336
0.416466 0.162892 0.071336
0.480107 0.162892 0.071336
0.542821 0.162892 0.071336
0.604738 0.162892 0.071336
0.665957 0.162892 0.071336
0.726556 0.162892 0.071336
0.786598 0.162892 0.071336
0.846135 0.162892 0.071336
0.905209 0.162892 0.071336
0.963858 0.162892 0.071336
1.000000 0.162892 0.071336
1.000000 0.162892 0.071336
0.072861 0.223720 0.071336
0.147384 0.223720 0.071336
0.217742 0.223720 0.071336
0.285614 0.223720 0.071336
0.351721 0.223720 0.071336
0.416466 0.223720 0.071336
0.480107 0.223720 0.071336
0.542821 0.223720 0.071336
0.604738 0.223720 0.071336
0.665957 0.223720 0.071336
0.726556 0.223720 0.071336
0.786598 0.223720 0.071336
0.846135 0.223720 0.071336
0.905209 0.223720 0.071336
0.963858 0.223720 0.071336
1.000000 0.223720 0.071336
1.000000 0.223720 0.071336
0.072861 0.283677 0.071336
0.147384 0.283677 0.071336
0.217742 0.283677 0.071336
0.285614 0.283677 0.071336
0.351721 0.283677 0.071336
0.416466 0.283677 0.071336
0.480107 0.283677 0.071336
0.542821 0.283677 0.071336
0.604738 0.283677 0.071336
0.665957 0.283677 0.071336
0.726556 0.283677 0.071336
0.786598 0.283677 0.071336
0.846135 0.283677 0.071336
0.905209 0.283677 0.071336
0.963858 0.283677 0.071336
1.000000 0.283677 0.071336
1.000000 0.283677 0.071336
0.072861 0.342970 0.071336
0.147384 0.342970 0.071336
0.217742 0.342970 0.071336
0.285614 0.342970 0.071336
0.351721 0.342970 0.071336
0.416466 0.342970 0.071336
0.480107 0.342970 0.071336
0.542821 0.342970 0.071336
0.604738 0.342970 0.071336
0.665957 0.342970 0.071336
0.726556 0.342970 0.071336
0.786598 0.342970 0.071336
0.846135 0.342970 0.071336
0.905209 0.342970 0.071336
0.963858 0.342970 0.071336
1.000000 0.342970 0.071336
1.000000 0.342970 0.071336
0.072861 0.401726 0.071336
0.147384 0.401726 0.071336
0.217742 0.401726 0.071336
0.285614 0.401726 0.071336
0.351721 0.401726 0.071336
0.416466 0.401726 0.071336
0.480107 0.401726 0.071336
0.542821 0.401726 0.071336
0.604738 0.401726 0.071336
0.665957 0.401726 0.071336
0.726556 0.401726 0.071336
0.786598 0.401726 0.071336
0.846135 0.401726 0.071336
0.905209 0.401726 0.071336
0.963858 0.401726 0.071336
1.000000 0.401726 0.071336
1.000000 0.401726 0.071336
0.072861 0.460031 0.071336
0.147384 0.460031 0.071336
0.217742 0.460031 0.071336
0.285614 0.460031 0.071336
0.351721 0.460031 0.071336
0.416466 0.460031 0.071336
0.480107 0.460031 0.071336
0.542821 0.460031 0.071336
0.604738 0.460031 0.071336
0.665957 0.460031 0.071336
0.726556 0.460031 0.071336
0.786598 0.460031 0.071336
0.846135 0.460031 0.071336
0.905209 0.460031 0.071336
0.963858 0.460031 0.071336
1.000000 0.460031 0.071336
1.000000 0.460031 0.071336
0.072861 0.517948 0.071336
0.147384 0.517948 0.071336
0.217742 0.517948 0.071336
0.285614 0.517948 0.071336
0.351721 0.517948 0.071336
0.416466 0.517948 0.071336
0.480107 0.517948 0.071336
0.542821 0.517948 0.071336
0.604738 0.517948 0.071336
0.665957 0.517948 0.071336
0.726556 0.517948 0.071336
0.786598 0.517948 0.071336
0.846135 0.517948 0.071336
0.905209 0.517948 0.071336
0.963858 0.517948 0.071336
1.000000 0.517948 0.071336
1.000000 0.517948 0.071336
0.072861 0.575526 0.071336
0.147384 0.575526 0.071336
0.217742 0.575526 0.071336
0.285614 0.575526 0.071336
0.351721 0.575526 0.071336
0.416466 0.575526 0.071336
0.480107 0.575526 0.071336
0.542821 0.575526 0.071336
0.604738 0.575526 0.071336
0.665957 0.575526 0.071336
0.726556 0.575526 0.071336
0.786598 0.575526 0.071336
0.846135 0.575526 0.071336
0.905209 0.575526 0.071336
0.963858 0.575526 0.071336
1.000000 0.575526 0.071336
1.000000 0.575526 0.071336
0.072861 0.632802 0.071336
0.147384 0.632802 0.071336
0.217742 0.632802 0.071336
0.285614 0.632802 0.071336
0.351721 0.632802 0.071336
0.416466 0.632802 0.071336
0.480107 0.632802 0.071336
0.542821 0.632802 0.071336
0.604738 0.632802 0.071336
0.665957 0.632802 0.071336
0.726556 0.632802 0.071336
0.786598 0.632802 0.071336
0.846135 0.632802 0.071336
0.905209 0.632802 0.071336
0.963858 0.632802 0.071336
1.000000 0.632802 0.071336
1.000000 0.632802 0.071336
0.072861 0.689806 0.071336
0.147384 0.689806 0.071336
0.217742 0.689806 0.071336
0.285614 0.689806 0.071336
0.351721 0.689806 0.071336
0.416466 0.689806 0.071336
0.480107 0.689806 0.071336
0.542821 0.689806 0.071336
0.604738 0.689806 0.071336
0.665957 0.689806 0.071336
0.726556 0.689806 0.071336
0.786598 0.689806 0.071336
0.846135 0.689806 0.071336
0.905209 0.689806 0.071336
0.963858 0.689806 0.071336
1.000000 0.689806 0.071336
1.000000 0.689806 0.071336
0.072861 0.746562 0.071336
0.147384 0.746562 0.071336
0.217742 0.746562 0.071336
0.285614 0.746562 0.071336
0.351721 0.746562 0.071336
0.416466 0.746562 0.071336
0.480107 0.746562 0.071336
0.542821 0.746562 0.071336
0.604738 0.746562 0.071336
0.665957 0.746562 0.071336
0.726556 0.746562 0.071336
0.786598 0.746562 0.071336
0.846135 0.746562 0.071336
0.905209 0.746562 0.071336
0.963858 0.746562 0.071336
1.000000 0.746562 0.071336
1.000000 0.746562 0.071336
0.072861 0.803092 0.071336
0.147384 0.803092 0.071336
0.217742 0.803092 0.071336
0.285614 0.803092 0.071336
0.351721 0.803092 0.071336
0.416466 0.803092 0.071336
0.480107 0.803092 0.071336
0.542821 0.803092 0.071336
0.604738 0.803092 0.071336
0.665957 0.803092 0.071336
0.726556 0.803092 0.071336
0.786598 0.803092 0.071336
0.846135 0.803092 0.071336
0.905209 0.803092 0.071336
0.963858 0.803092 0.071336
1.000000 0.803092 0.071336
1.000000 0.803092 0.071336
0.072861 0.859414 0.071336
0.147384 0.859414 0.071336
0.217742 0.859414 0.071336
0.285614 0.859414 0.071336
0.351721 0.859414 0.071336
0.416466 0.859414 0.071336
0.480107 0.859414 0.071336
0.542821 0.859414 0.071336
0.604738 0.859414 0.071336
0.665957 0.859414 0.071336
0.726556 0.859414 0.071336
0.786598 0.859414 0.071336
0.846135 0.859414 0.071336
0.905209 0.859414 0.071336
0.963858 0.859414 0.071336
1.000000 0.859414 0.071336
1.000000 0.859414 0.071336
0.072861 0.915541 0.071336
0.147384 0.915541 0.071336
0.217742 0.915541 0.071336
0.285614 0.915541 0.071336
0.351721 0.915541 0.071336
0.416466 0.915541 0.071336
0.480107 0.915541 0.071336
0.542821 0.915541 0.071336
0.604738 0.915541 0.071336
0.665957 0.915541 0.071336
0.726556 0.915541 0.071336
0.786598 0.915541 0.071336
0.846135 0.915541 0.071336
0.905209 0.915541 0.071336
0.963858 0.915541 0.071336
1.000000 0.915541 0.071336
1.000000 0.915541 0.071336
0.072861 0.971488 0.071336
0.147384 0.971488 0.071336
0.217742 0.971488 0.071336
0.285614 0.971488 0.071336
0.351721 0.971488 0.071336
0.416466 0.971488 0.071336
0.480107 0.971488 0.071336
0.542821 0.971488 0.071336
0.604738 0.971488 0.071336
0.665957 0.971488 0.071336
0.726556 0.971488 0.071336
0.786598 0.971488 0.071336
0.846135 0.971488 0.071336
0.905209 0.971488 0.071336
0.963858 0.971488 0.071336
1.000000 0.971488 0.071336
1.000000 0.971488 0.071336
0.072861 0.036464 0.109848
0.147384 0.036464 0.109848
0.217742 0.036464 0.109848
0.285614 0.036464 0.109848
0.351721 0.036464 0.109848
0.416466 0.036464 0.109848
0.480107 0.036464 0.109848
0.542821 0.036464 0.109848
0.604738 0.036464 0.109848
0.665957 0.036464 0.109848
0.726556 0.036464 0.109848
0.786598 0.036464 0.109848
0.846135 0.036464 0.109848
0.905209 0.036464 0.109848
0.963858 0.036464 0.109848
1.000000 0.036464 0.109848
1.000000 0.036464 0.109848
